LeonardoMarcello/base_inertial_parameters/src/data/franka/q_identification.csv
pos_panda_joint1,pos_panda_joint2,pos_panda_joint3,pos_panda_joint4,pos_panda_joint5,pos_panda_joint6,pos_panda_joint7
0.13243569207610673,-0.4805707683947391,0.06257430983235501,-2.930332329389212,0.06801538978858979,2.3808945433971402,0.6704236548175224
0.15646207914363952,-0.5189162183191955,0.08138856777992665,-2.9505288819429323,0.08818845291528721,2.3598232359018088,0.694610921625463
0.17886716989053308,-0.5438993531969443,0.09951251459377009,-2.9549046034312516,0.10445458598644475,2.339076372333018,0.7158834769152449
0.19800778385303452,-0.5552881774217768,0.11660939817636162,-2.943685180485314,0.11580256293746949,2.319245311003293,0.7343611472912466
0.2117694760508817,-0.552538671863025,0.13150053894306613,-2.917518041927206,0.12150371878885569,2.3010999473332134,0.7495452046288209
0.21881655258291932,-0.5362692773194757,0.1428699504928863,-2.8781580882418663,0.12134764600648129,2.2847667949222377,0.7608794673977153
0.21877519953775604,-0.50713261871421,0.14983777948801436,-2.8264484089168915,0.1156738291552406,2.2693821397103076,0.7682035922798995
0.21274623721725305,-0.47074446748101284,0.15144247661347787,-2.7702253509296044,0.1063079667521416,2.2554125364793407,0.7709398645298355
0.20192701971577343,-0.42747758430569593,0.14806887011895586,-2.707816083379117,0.09405183881925172,2.240634998217555,0.7695781237891124
0.18813352183009968,-0.3821160518051476,0.14006346575431916,-2.6440828110914056,0.08056874626187582,2.2247180999459832,0.7639192415312417
0.17281173575280384,-0.33836677715064134,0.12834137321092864,-2.5821183643360763,0.06722484852062305,2.2073756789416414,0.7541797271771129
0.15614244410103417,-0.297883629951432,0.11301629731936469,-2.5218082122109253,0.05426161226544135,2.187567801681105,0.7395416088188744
0.14063969768201723,-0.2683704486180485,0.09684616090352716,-2.4726370777809557,0.0436818940194863,2.1680295926928927,0.7220341302301732
0.12570408176623715,-0.25013713907090196,0.0798092592821904,-2.4337992006007534,0.034783605954715746,2.1483304926890483,0.701278637352222
0.11147018524955321,-0.24502797890662897,0.0624247791049255,-2.407221097322111,0.027291709387539775,2.1289127077221384,0.6778371244082075
0.09797859942509213,-0.25409369791832503,0.04489179399735921,-2.394225062686931,0.02067296087352677,2.109889025778532,0.6522526294782311
0.0851258671718167,-0.2773970668383381,0.027292126490924495,-2.3951355841305286,0.014200101935171183,2.0910242412982356,0.6250644919245962
0.072769020726005,-0.314116986045061,0.009592661210848341,-2.409346394551088,0.007056339602265815,2.0716363879614583,0.5968024030631982
0.060639794274528924,-0.36247761530886713,-0.008211309283912449,-2.435168145037192,-0.0016028067874929164,2.050867897222865,0.5679618416900363
0.060639794274528924,-0.36247761530886713,-0.008211309283912449,-2.435168145037192,-0.0016028067874929164,2.050867897222865,0.5679618416900363
0.04838387267555788,-0.41996378020382963,-0.026074676838832467,-2.470194304243762,-0.012480268102140535,2.027946040600032,0.5389479765004834
0.035602138220827584,-0.4833516634016082,-0.04390142617303905,-2.511217492750564,-0.0260094085754643,2.00240065027128,0.510133035520334
0.021979881559492043,-0.549012127792718,-0.0617012905093306,-2.5547521003898854,-0.04225398006962866,1.9744385698852618,0.48175934583803137
0.007263191338989117,-0.6130975256951601,-0.07947796831180387,-2.59722056706066,-0.060885878996864484,1.94501905738867,0.4540425438915401
-0.008483323844339807,-0.6717492994212151,-0.09744393138022733,-2.6353493099115166,-0.08119560808575965,1.9159682755778924,0.42721738044224455
-0.026439095209225272,-0.7252108753123583,-0.11739040487489394,-2.6686346060486876,-0.10396265664209192,1.8874874342295218,0.3994192055830892
-0.04300827461071499,-0.7616248710532734,-0.13622838707720764,-2.689650811546244,-0.12423768516994382,1.8667902969200831,0.3756759063257631
-0.05905648257304286,-0.783621588754178,-0.15590841488033558,-2.700316863273949,-0.14301624296356774,1.8533245117343178,0.3536724445624104
-0.07239474663169432,-0.7883250186946515,-0.1748066990678181,-2.699705609098361,-0.15798163476758642,1.8491245346802394,0.3353145848499315
-0.08224770966870665,-0.7759755329681788,-0.19262454803550622,-2.688677451395793,-0.16868295787681742,1.8538452976947752,0.32038430162762754
-0.08755160726055067,-0.7472656962714019,-0.20851511810019385,-2.668377099729833,-0.17454864927465064,1.8664612397850462,0.3089825291659887
-0.08777059587907932,-0.704022066934372,-0.22159642235257326,-2.6404069805976933,-0.1751748121988026,1.8854092114933643,0.30130384783444963
-0.0828389652486381,-0.6489592435536569,-0.23126865174123257,-2.606480971687775,-0.17076729071204788,1.9084398761738033,0.2969675147630335
-0.07342009657782977,-0.5856538570267409,-0.23710445620015275,-2.5686217057905525,-0.16182653600074648,1.9333005523227715,0.295734431242094
-0.06058663325078317,-0.5181559170055747,-0.23899522115437133,-2.5289512382393946,-0.1493229340439557,1.9579480092226476,0.2973236255403071
-0.04573341047736612,-0.4506245491484986,-0.2369521693768455,-2.489769199133873,-0.13447376144803957,1.981049133196402,0.3016508911074949
-0.03004754363286466,-0.3871646864328806,-0.23134869201031805,-2.453509469072624,-0.11866316882022865,2.0019717906604964,0.30887589778011115
-0.014516797233607548,-0.33152882369247827,-0.22262200033159552,-2.42277064619355,-0.10319293290565135,2.020908865436457,0.3193839894189088
0.0005400148857050979,-0.28693407366413304,-0.21142638655214085,-2.40012580273489,-0.08920839464426589,2.0384532540517846,0.3333267688690169
0.01430783579467576,-0.25584833934594897,-0.19840648084272683,-2.387907814907626,-0.07744436056031478,2.0554272203002064,0.3508765179225657
0.02737328106849457,-0.23979961790670767,-0.18408506416566617,-2.3879252465151746,-0.06816675842473696,2.072543580922021,0.3719217463607878
0.03957102458654216,-0.2393224895118946,-0.16874342833867662,-2.4012476774799643,-0.06123454826663277,2.0901588238402944,0.3962138233791217
0.05095293545269364,-0.2538974936100695,-0.15249649935184806,-2.427948423660072,-0.0561227203810688,2.1081708371877426,0.42338484483201366
0.06158603894127168,-0.2821009994072545,-0.13533239967418975,-2.4672091936315743,-0.05196707702907055,2.1260504190584903,0.4528532691827287
0.07189454171641252,-0.3228842816235913,-0.11669229352060295,-2.5187470327223798,-0.047544106025923405,2.143550738301842,0.4848854343345188
0.08166575010770138,-0.3707368698689768,-0.09779217575572119,-2.576756755235352,-0.04187619683942945,2.158845839540348,0.5167907971662054
0.09169191849757485,-0.42309495827304655,-0.07833112698948064,-2.6392561091338775,-0.03381231121324557,2.1720101172687762,0.548653098203034
0.10268411952670231,-0.4760796706348396,-0.05865092342633993,-2.702510788128744,-0.02266366159274824,2.1830028346675068,0.579696156029402
0.11530534597885023,-0.5257700377936532,-0.0389855751581365,-2.7627460218216866,-0.008329660301945374,2.1924133928724245,0.6092952373179932
0.13002797049880233,-0.5685635976905958,-0.019447861905764086,-2.816537957885969,0.00862925571915607,2.2013305797105396,0.6369715539045435
0.1469159636244406,-0.6011188182648501,-5.951455963071339e-05,-2.8608355927288214,0.0270496705340717,2.211104922677478,0.6623648146373009
0.1654313632172304,-0.6206755094112149,0.019151589713508166,-2.893266410222032,0.045463708261460845,2.2230243625132324,0.6851320839675603
0.18435996025918566,-0.6251522873713853,0.037794502593968105,-2.9122277541124566,0.06214133984749903,2.2379173461172144,0.7048889869477373
0.20194955504665568,-0.6135254339014447,0.05524519059098676,-2.917123744740632,0.07568866748977943,2.2559029907685524,0.7213649498803365
0.21618489762823856,-0.5857337460396836,0.07054562973827938,-2.908094216872535,0.08459696538665185,2.2764202806873772,0.7340421391458829
0.22537903413949856,-0.5429855340873209,0.08275092425906116,-2.8861494402311374,0.08835971873490323,2.298243069821563,0.7429491743486265
0.22863427221528987,-0.48781383017692015,0.09098406927582126,-2.853131963759422,0.08682231581727873,2.3197247454956855,0.7481217133097697
0.2260890796571875,-0.4237883907484514,0.09470350383285453,-2.811508073486559,0.08066910796570159,2.3391907126238074,0.7497646606991948
0.21819364772881933,-0.3510668136580932,0.09342916073848961,-2.7612982652468583,0.07034468321521903,2.356089397114067,0.7477373812420653
0.21819364772881933,-0.3510668136580932,0.09342916073848961,-2.7612982652468583,0.07034468321521903,2.356089397114067,0.7477373812420653
0.20735611033798484,-0.28234440065380095,0.08756475064730118,-2.7113854323834907,0.058716031736987695,2.3678323732180324,0.7422830734859316
0.1946021729765679,-0.21795275042886608,0.07781122588347067,-2.6624514635357217,0.04680764616997113,2.375584629127406,0.7332141568491943
0.18081814907517213,-0.16173492419455116,0.06523725522222357,-2.6178764068550926,0.035861307635308926,2.3802388746501872,0.7204565193441068
0.16651878883112126,-0.11673505099956127,0.05091512157567912,-2.580709567406008,0.026501071425861333,2.3830444025054422,0.7042262473180836
0.15154420763393794,-0.08452374961178233,0.0353155109227945,-2.553085885027902,0.018550541373662632,2.3854557383302986,0.6841861533220994
0.13691144011707834,-0.06836255739821251,0.0198995120395562,-2.538709622393971,0.012052582324211691,2.3883369983308356,0.6620131573811507
0.12235033474530077,-0.06773621619774328,0.004400063248466424,-2.5381068902748893,0.006150852023707465,2.392366150813107,0.6376130992806113
0.10790807805148006,-0.08235627852351524,-0.011160186857853915,-2.551647433636445,2.6683877309530146e-05,2.397283435976382,0.61161922233594
0.09358062505999953,-0.11108268097154994,-0.026874153339491613,-2.5786196200644564,-0.007181190064881271,2.4023752992936274,0.5845835628435045
0.07919108372606765,-0.15202475695969664,-0.042779984240503666,-2.61723802720285,-0.016422910761284548,2.4064157793384453,0.5571524833718025
0.06437561401448377,-0.20264267917431322,-0.0587729654418947,-2.6647911785427674,-0.028510664352583426,2.4080585043502616,0.5299005046050071
0.048564497284258934,-0.25994708843177516,-0.07461733695534356,-2.7178837154879556,-0.04400444769275236,2.406003273706073,0.50336007987418
0.03118703606808637,-0.3205773182887137,-0.09013603840717366,-2.77257188976761,-0.06292331315072364,2.3993125200072107,0.4778272317140262
0.011784085944748668,-0.3811303299380997,-0.10534567506118009,-2.8248028140141166,-0.08461508111862504,2.387734098349629,0.4533851477870252
-0.00973522501705304,-0.4381539243349719,-0.1205216408095513,-2.8706090505934405,-0.1078271253696963,2.371683290794433,0.42990973994945403
-0.032911669068763416,-0.4884878811866633,-0.1360840701698116,-2.9065141626272677,-0.13089239273622777,2.3523423142873625,0.4072717517977731
-0.056660232883318784,-0.5293226360009564,-0.15236698056425269,-2.9297396442027477,-0.15200666719010147,2.3311667522343313,0.38553710047512
-0.07925545664358324,-0.5582161708179365,-0.16920732339149858,-2.9383078507583864,-0.16938341730776418,2.3097612092591024,0.3649929018820961
-0.09859715119130641,-0.5734747935924664,-0.18595476485835505,-2.9313990871152624,-0.18164841654023167,2.289478143194909,0.3461866234572275
-0.11260294234810253,-0.5742303769591146,-0.20144466964303298,-2.909265576037127,-0.18782402552907396,2.2712253595188177,0.3297162294508462
-0.11981494701888096,-0.5607584835704706,-0.21442779852991656,-2.8733246168890174,-0.1876449059182823,2.2552529997794473,0.31616231433271214
-0.11975511721291454,-0.5344635560577498,-0.22372188524120773,-2.825848909459852,-0.18139417751239328,2.241210710862493,0.30590809341719716
-0.11302994036862302,-0.4978109216170816,-0.22858791470040885,-2.76970612758661,-0.17011249341992318,2.228220227363458,0.29913599003888525
-0.10110619826230671,-0.4541383758926738,-0.22866415981785426,-2.7081133921118443,-0.15513873554164892,2.215206539416709,0.2959804809751079
-0.08580258906830274,-0.40718424338065073,-0.22409510966184865,-2.6442936787106586,-0.1381312777921968,2.2012322412361467,0.2965637538865309
-0.0688118713463135,-0.36091836242620357,-0.21547679706551293,-2.5814411147679515,-0.12064346533309145,2.1856795707803567,0.3011428578725823
-0.05151308823068579,-0.3191159734946254,-0.20352051785548309,-2.522648930310276,-0.10407056176179008,2.168534076848646,0.3098485351384843
-0.03468557969885566,-0.2851873292149554,-0.18920112756469987,-2.4707457850411947,-0.08938751167555203,2.1501230160462264,0.32269231091372674
-0.01877749415814467,-0.26187776256476347,-0.17329954283947835,-2.4282456817435873,-0.07710586470985703,2.1310961358651284,0.3396230303159138
-0.0035329866524458353,-0.2512707436312436,-0.15590238077238538,-2.3966234726139035,-0.06705742770715073,2.1113852751982236,0.3610433046462376
0.010233811283942629,-0.2552274815856652,-0.13829951399597284,-2.3791583387930393,-0.0594775018286553,2.092474028612523,0.385290857913243
0.022928496127705422,-0.27364094543510475,-0.12008734696199586,-2.375481478551025,-0.053445296611297266,2.073665578201517,0.41242205610588645
0.03471862174315721,-0.3059033874467314,-0.10120577779177431,-2.3852715662109496,-0.048059711956933704,2.054478273250975,0.44179829236317847
0.04579841985404709,-0.35040877210567345,-0.0815766481833533,-2.407106495068186,-0.04228189221111478,2.0341941444034504,0.47275039308672806
0.05651448883854737,-0.40479112929896743,-0.061245751645452984,-2.4388055948334095,-0.035049634785602635,2.0120192532116388,0.5046240718266235
0.06727435358577694,-0.4659677181634887,-0.04031344438020934,-2.477431642774084,-0.025445273923135225,1.987464399117762,0.5367691842874827
0.07860699301562502,-0.5302894166293619,-0.019026687228769212,-2.519477207891171,-0.012914939148801707,1.9605099517600824,0.5686074386051363
0.09089670738154787,-0.5938510659271152,0.0024511784086049815,-2.561401775259558,0.002628390303629047,1.9319826644243392,0.5997277704865276
0.10438623280235237,-0.6528134426128531,0.023913900128197163,-2.599834587190779,0.02068779868043258,1.903418033510544,0.6297149681455183
0.11896217448731061,-0.7034102237005424,0.04533715154678308,-2.631805056095981,0.04034243476833321,1.876988396099506,0.65814458594547
0.13418193468347273,-0.7424672759630742,0.06656193527705323,-2.65514372027023,0.0602814209252136,1.8551337005198363,0.6845076437053708
0.149187023926606,-0.7673313006424571,0.08733281263320158,-2.668399781647844,0.07904138335815514,1.840059807867295,0.7081711716520225
0.16287098198346328,-0.776241191746573,0.10707794285958361,-2.67104911530003,0.09521159621882802,1.8332371509179488,0.7285100559209701
0.1739872560249731,-0.7684665069720582,0.12506358341704704,-2.6633862547367757,0.10758952675076561,1.8351260393109712,0.7449500467085244
0.18141620352797538,-0.7442838368389104,0.14039264963984266,-2.646278205434264,0.1152880307931401,1.8452586404749756,0.7571178779316732
0.18440370158880715,-0.7051746330022972,0.15230863421726237,-2.621123714310972,0.11797756850687247,1.8620844779989714,0.7649517967711938
0.18276104864326914,-0.6536670685153165,0.16024357732240446,-2.5896272878667492,0.11591350651876997,1.8834177977250128,0.7688273904995953
0.18276104864326914,-0.6536670685153165,0.16024357732240446,-2.5896272878667492,0.11591350651876997,1.8834177977250128,0.7688273904995953
0.17658983071309908,-0.5911374977313137,0.16402113638179738,-2.5525164432738494,0.10907442031488923,1.9079937633229136,0.7686135344878711
0.16705554129241573,-0.5250438448403303,0.1634354431534879,-2.513912840419052,0.09897010034739484,1.9322284103099534,0.7648831135064231
0.15511773479829305,-0.45781251688084534,0.15894683585910396,-2.474986570634359,0.08664691828808646,1.9552651564288315,0.7580247182289739
0.14185596952158352,-0.3934946442477818,0.15105244920096172,-2.438084837553294,0.07341060511639252,1.9763351885197942,0.7481529699044085
0.12811941517357273,-0.33597883623446734,0.14039092120763552,-2.4057828074751137,0.060404019675885046,1.9953771894783614,0.7353273482655407
0.11441188398406776,-0.28864001950812224,0.12771424277261456,-2.3807274483945617,0.04854038130672489,2.0129693153359796,0.7196201312656036
0.10104461345063509,-0.2541627310245165,0.11366569306654295,-2.3653752127664287,0.038323237768735474,2.0298922721906436,0.7011022230041899
0.08812792567842731,-0.23438928675205783,0.09879592645216828,-2.36177922347623,0.029842154100308882,2.046838491565996,0.6800400383005503
0.07571266989182224,-0.23013309780817615,0.08338824402489298,-2.371244700377048,0.022850259164578723,2.0642963854444485,0.6566783296171224
0.06377643648786613,-0.24127871823320213,0.06760226952890758,-2.394299070232675,0.016791386109937356,2.082224542480496,0.6314261153189555
0.05231190849620315,-0.26668403849057576,0.05141927678883906,-2.4303908452565235,0.010923484356303526,2.100189973131389,0.6046944995582084
0.04116182156365067,-0.30425178896797433,0.034871720057595645,-2.477877914355224,0.004325637482071265,2.1173992358485165,0.5770321524913253
0.030058983713717957,-0.3511852443626253,0.01802081420067214,-2.5343553721374903,-0.0039008054604598996,2.1330637964966677,0.5489782442468982
0.018614430986228392,-0.40404574790884773,0.000984652586731194,-2.5966001542613295,-0.014553140548724919,2.1464587815646077,0.5211188120108865
0.006304811288544876,-0.4590541010424758,-0.016091689504304618,-2.6610330419898975,-0.02807483221442819,2.157383893472783,0.4939925726459773
-0.007411290121306813,-0.5123447413232753,-0.03315781865842471,-2.7239212683855207,-0.044491482109948244,2.166229584232031,0.46797283235539666
-0.022884336051016696,-0.5601073052586596,-0.05032156613212013,-2.781672161869361,-0.0633067668100269,2.1739351276145253,0.4433616286513704
-0.04075230950013964,-0.5998240606783121,-0.06834677217117413,-2.8323706425347,-0.08414791222291118,2.182217833995633,0.41970756665122266
-0.05957943156371659,-0.6261550390990784,-0.08641412171258711,-2.8704751798802164,-0.10447003572024283,2.192102177384447,0.398570633494856
-0.07887866483161243,-0.6379394314596603,-0.10489612208061505,-2.8956293965256528,-0.12329943447917113,2.2049802321772827,0.3794859859064612
-0.09704633101215787,-0.6336635137987026,-0.12335508132574535,-2.906826981315895,-0.13907628514343617,2.2213858255484524,0.362778944004857
-0.1121502371163734,-0.6127551798331625,-0.14087551595182557,-2.9038413996020687,-0.1503492332688987,2.241063214009692,0.3487416140085955
-0.12229339399266603,-0.5759456394350462,-0.15648095202964196,-2.8873750910088445,-0.15609869783894492,2.263024208421701,0.3374795958480945
-0.12624837661566257,-0.52528623656349,-0.16911292573014602,-2.858973740762969,-0.1557171379245057,2.285704786156817,0.32899686460018884
-0.12374501790196302,-0.4640138666070506,-0.177992538132826,-2.8208894980863013,-0.14935915866046923,2.3073272994437986,0.3230779132384214
-0.11560987065977102,-0.39621877683294127,-0.18245297449675402,-2.7758809090112377,-0.13770670577276078,2.326189800612168,0.3197255487754802
-0.10341110823735278,-0.3263342286834314,-0.18217672092029602,-2.727037333149517,-0.12230605409976114,2.3411747964970537,0.3189706727119388
-0.08893397947659576,-0.2588987406373935,-0.1772554757306306,-2.677673452016167,-0.10504457642007115,2.3518998756485665,0.32123753639633446
-0.07358612234572082,-0.19795718712597932,-0.16832024586279992,-2.6310749409617094,-0.08792511800123748,2.358829812158099,0.32706107086969993
-0.05820518003047592,-0.14705485805468843,-0.1563779325071737,-2.5905322946489093,-0.07248557896946828,2.3630463769813925,0.33696975045019784
-0.043079966903756706,-0.10883947105536773,-0.14258170669808834,-2.5588848438054397,-0.059637334022024646,2.365880113132704,0.35111111814098184
-0.028273613565379385,-0.08514799062619627,-0.12783741430531226,-2.5385667827254865,-0.04958072829708993,2.368565464628828,0.3693485230222864
-0.013804914787654887,-0.07694428671305964,-0.11265925653462716,-2.53131376037683,-0.04206548197910376,2.371952083063519,0.3913913070808386
0.0005801802386962152,-0.0843352374965205,-0.09723826685641601,-2.537995092506267,-0.036538839540660284,2.3761712510019315,0.41672505730395937
0.014050395387335435,-0.10652191989583226,-0.08145297346541369,-2.558390473030495,-0.03215695416399722,2.3807993721438194,0.4447731810215556
0.027335374420768055,-0.1418877125595719,-0.06507830090532085,-2.5912098514212465,-0.027909655240109466,2.3848818474678612,0.47481511893438544
0.040730462843072246,-0.18965956814812923,-0.04749263910016488,-2.6355916464933378,-0.022424394542982284,2.3871623090422887,0.5070014452337972
0.05386090059052506,-0.24416642115812603,-0.02972388741608256,-2.685832708186026,-0.014752703891791619,2.386184603468031,0.5385312812120491
0.06779179331199447,-0.30332373715985295,-0.011559095986152457,-2.7393179234846103,-0.0038098689272763053,2.380967562354158,0.5695180622759475
0.08323968249203162,-0.3636581409310322,0.00674044938951468,-2.7920292519560244,0.010751569427782215,2.3710240843978596,0.5993117791135241
0.10083287224160209,-0.42160624105715083,0.024988043127212478,-2.8398320726709043,0.028494089137520717,2.35651699844896,0.6275837649081009
0.1206833286017428,-0.47390818358388476,0.043222000653853065,-2.8790432546217817,0.048175540810364126,2.3383178074459767,0.6541894210127328
0.14220572221772798,-0.5174491193697515,0.061572034841001155,-2.906430662725694,0.06803215323597289,2.3178041606548234,0.6790141551727862
0.16475398532781416,-0.5504358869876134,0.08044347039227251,-2.9199288831711856,0.08664070944894586,2.2960212539148195,0.702457961532855
0.16475398532781416,-0.5504358869876134,0.08044347039227251,-2.9199288831711856,0.08664070944894586,2.2960212539148195,0.702457961532855
0.1850814784094883,-0.5690851749234662,0.09823775542314639,-2.9176448709456286,0.10113935231736182,2.275704312314108,0.722745416922157
0.20167998693869826,-0.5733091579257623,0.11456114524149186,-2.9000083614979557,0.1106905711440147,2.2572510517975104,0.7399051854971139
0.21282135124453472,-0.5630773615862203,0.12816064917750136,-2.868150450019616,0.11468920451822129,2.2411042239189936,0.7534672754193492
0.21757772896436212,-0.5385941829555243,0.13813689081156255,-2.8226216849756467,0.11304646977527,2.2266474016859163,0.763210944654058
0.21580032056948983,-0.5035243457818792,0.14303864674799183,-2.7687707676274425,0.106597114256747,2.213898806616527,0.7684300778376247
0.20869878888334892,-0.4604986898868777,0.14292432190300008,-2.708546598388094,0.0965774664503769,2.20132440288471,0.7694135920895837
0.19775967777103087,-0.4132428301056903,0.13794023581524595,-2.6451453066300266,0.0843713809862745,2.187910272806871,0.7661847975399914
0.18403207915533581,-0.36428382445710916,0.12846662911428108,-2.5799020553111873,0.07108502523136018,2.172540766523168,0.7586347553373143
0.1695527161540431,-0.32031193630712895,0.1159695927223483,-2.5196420201646426,0.05865455717702872,2.155950995171647,0.7473493789215935
0.15480687156883643,-0.283505757021441,0.10123503587830118,-2.4654648877265153,0.04746023357627571,2.137992693334109,0.7323269584565528
0.14025341108997846,-0.2568451364425419,0.08516509688878049,-2.4200463885886325,0.03785774932685193,2.1192632948957932,0.7139936443299684
0.12617659718391483,-0.24271928147871602,0.0684017156703911,-2.385776722015918,0.029811785647650524,2.100401483037274,0.6927225389359029
0.11265989662341003,-0.2425990092692345,0.051358815482957176,-2.3643342654029382,0.022914400440614102,2.0817567050364225,0.6690877002264282
0.09974646995742642,-0.25706410367522636,0.0341719985508826,-2.35659346198445,0.016618052627514146,2.0633930999685894,0.6435350384866227
0.08736832809705053,-0.2857565576414629,0.016858793549407558,-2.3624886281746207,0.010130732680957877,2.0448113421477654,0.6166251328808317
0.07534151314451432,-0.32745229796189435,-0.0005727120921603657,-2.3810722259757497,0.002671741945187378,2.0253606849764054,0.588818866795422
0.0634296384805273,-0.37998265521585495,-0.018114372404116175,-2.410331151971489,-0.006545601308113547,2.004162034251852,0.5605465294741139
0.05127579207911115,-0.44048993192811636,-0.03570883628514654,-2.4475275834809853,-0.01811101242915747,1.9804873564757468,0.5322187167844303
0.038514626450864675,-0.5055046693415051,-0.053271778782124635,-2.4893776262962692,-0.0323501473576524,1.9541366726824876,0.504114642670392
0.024883153465958152,-0.5712160459822684,-0.07081671049337768,-2.5322964470976395,-0.049171593275090686,1.925546629464442,0.476455235396684
0.010258290868939035,-0.633745048171722,-0.08843634714019988,-2.572878022287364,-0.06813992584090833,1.896019339805438,0.4494406114878755
-0.005233269004102148,-0.689315374055214,-0.10629691378730488,-2.6080420500191863,-0.08842581856868392,1.8676357700026145,0.4233235341240862
-0.02114744825049275,-0.7344357807270967,-0.12460625149390747,-2.635271192957388,-0.10898453854641232,1.8428630366871346,0.3984903207401631
-0.03678256753159115,-0.7662911251826436,-0.1433537774773752,-2.6529205002041234,-0.12855764690896443,1.8241215948977043,0.37545128157193997
-0.0515099650973605,-0.7829666033380018,-0.1628947339989546,-2.6601588081765595,-0.14639622009401698,1.813107467797943,0.35424119553696
-0.06333812905796332,-0.7823567038503505,-0.1814879969665144,-2.6565968652377574,-0.16026185244493263,1.8114028340445998,0.33667756039940944
-0.07167666923620164,-0.7640831469096927,-0.19940246967676156,-2.642566613870736,-0.16989708546366167,1.8190117848404164,0.3222535226864691
-0.07519481239027836,-0.7302421204482101,-0.21470835427775992,-2.620125259797221,-0.17425253146756603,1.8341367021245887,0.3118566552173414
-0.0738472839566251,-0.6827610755157307,-0.22712307200525306,-2.5906756737199315,-0.1734497608721588,1.8549638484212636,0.3049454871686068
-0.06780669981515786,-0.624676293335904,-0.23609572191776973,-2.556015340813021,-0.16775355783830737,1.8792141351079117,0.3012803248484657
-0.057822558269984725,-0.5597307827690416,-0.2412981984317808,-2.518142461107015,-0.1578326516674542,1.9046009174530099,0.3005102884530739
-0.04503700402596689,-0.4920217067652599,-0.24260700905078103,-2.4792028443014207,-0.14469301278869295,1.9293047000137946,0.3024951861760883
-0.030681253767776973,-0.4257100169804682,-0.2401122390450512,-2.4415124954102154,-0.12954922707024252,1.9522016362336547,0.3072947525994234
-0.015834910167314753,-0.364801692965834,-0.2341512108868038,-2.4075193616694843,-0.11383533199421869,1.9728560803157649,0.3150318244374013
-0.001330800386547537,-0.31291079803536626,-0.22522303616693495,-2.379846126927977,-0.09886374102850759,1.991565344479378,0.326020646332033
0.012643870403866941,-0.27295158004417974,-0.21397368502355363,-2.360894207734219,-0.08565342053238201,2.0090217339371854,0.3405096514007777
0.025757251819087834,-0.24720052156435646,-0.2009909912036898,-2.352972191764403,-0.07482052963013697,2.0260341154895603,0.3585757654934767
0.03806142247410982,-0.23694550405943637,-0.18669074221153004,-2.357773591818706,-0.06655380013833767,2.0432665325981763,0.38015805331097674
0.049607321557002315,-0.24237094352499255,-0.17133499600260738,-2.376027931654175,-0.060588596144845575,2.0608094850204033,0.404901765205012
0.06040724885857873,-0.26259104119397136,-0.1549693582331031,-2.4074475677496547,-0.05626112842042552,2.0784839403962465,0.4323999443114577
0.07049800186255784,-0.2958048062370313,-0.13756498435546138,-2.450816112294987,-0.05264661049544106,2.0956892893544286,0.4620582626510812
0.0800550408393148,-0.3394083851190235,-0.11917439398609275,-2.5040101717305916,-0.04861201250255398,2.1116600602286226,0.49319358398699453
0.0894485368122302,-0.3900920309490328,-0.09996225250457957,-2.56405465036749,-0.042959565837164426,2.1256614467955917,0.5249289942787962
0.09925168508938231,-0.44410146807296336,-0.08025799207729811,-2.6274734387291634,-0.034707064254180686,2.13737004459216,0.5564470419616194
0.09925168508938231,-0.44410146807296336,-0.08025799207729811,-2.6274734387291634,-0.034707064254180686,2.13737004459216,0.5564470419616194
0.11013237307707424,-0.49750187187266093,-0.06036939130063779,-2.69052512615645,-0.023307429885720765,2.14694455569456,0.5870299891689861
0.12270481377912734,-0.5463974355004861,-0.0405582462236147,-2.7495355584711554,-0.008812326615151633,2.1551847337656547,0.6160870063985984
0.1373377705551615,-0.587176845954076,-0.020910041795247025,-2.8011515774212654,0.008098080389293827,2.1633627009794765,0.6431667593034103
0.15396327876464344,-0.6166795607647231,-0.001483680504775542,-2.8425669156092237,0.026202848148985325,2.1729246457428886,0.6679321197140577
0.17189713224905034,-0.6322639838230604,0.017603068106197384,-2.8715938665817973,0.04392059674472382,2.1852055475088754,0.6899278067797976
0.18986040279088368,-0.6321841408687625,0.035900883779258486,-2.8869826946614143,0.059676628392366204,2.2008883397257293,0.7088602532774972
0.2060781331954411,-0.6155935488272952,0.05271166062638599,-2.8882649659465267,0.07193179591122334,2.2199963508507246,0.7242404644789033
0.21875327056865146,-0.5829222956457238,0.06708021549634857,-2.875952875036692,0.07966502722019175,2.2416722312734727,0.7359145643546174
0.22644463448677676,-0.5358073429618164,0.07812880645721165,-2.8512950750454067,0.08228287083597774,2.2645038190771185,0.743715764418285
0.22854457694501829,-0.4771035105346604,0.08508220679949385,-2.816265095406968,0.07988608122804752,2.28670738555709,0.747809505657477
0.22537407130743414,-0.41063040801877104,0.08749737710516037,-2.773413120170056,0.07319566790460552,2.3065480709586375,0.7483146916245911
0.21796744013116243,-0.34075171416703043,0.08530879266016633,-2.725702959917893,0.06351426651931025,2.3227449692094844,0.745401440095316
0.2076504082461943,-0.2719432370635495,0.07880438745555374,-2.676333822238081,0.05235617772794665,2.3347151075998767,0.7390295450888207
0.19555939138974576,-0.20847803408317844,0.06873703369282858,-2.628663556541049,0.04118982351116518,2.34271196935145,0.7291259731100954
0.1820486962703809,-0.15265963765031199,0.05574451217345455,-2.584880404483285,0.03082353998979226,2.3478167710372517,0.7153192434957383
0.16832436816633223,-0.1106467906264399,0.041597864408245755,-2.550545753104408,0.022285385901755994,2.3510677558662767,0.6986084794314262
0.15426718990623822,-0.08287935738840257,0.026763229620259565,-2.5270669413509568,0.01518396184010573,2.3540021983842614,0.6789477174962428
0.14006915575698198,-0.07051601945955444,0.011667664261590716,-2.5163077444610655,0.009067790538439091,2.357485284168135,0.6568554657762107
0.12587190893439182,-0.07385482872241589,-0.003553810633228238,-2.5193417977410633,0.0032572674137734126,2.3618742692619517,0.6328255182785991
0.11173565598439783,-0.09241250645219701,-0.018881085731370817,-2.5363822524140254,-0.0030167464159278623,2.3669248497138433,0.60736739864371
0.09764627185092412,-0.12479815530722149,-0.03441776476623026,-2.566399075916845,-0.010612674929785904,2.3717652029856175,0.581040600849855
0.08337346081350017,-0.1689260024552386,-0.05011157085179896,-2.607419709744642,-0.020412328150245962,2.3751332077609746,0.5544507192069048
0.06853669579011434,-0.22210200221330112,-0.06585049077710714,-2.6565723871754994,-0.03317040609618882,2.3756442967792246,0.5281407951863581
0.052592839607979336,-0.28114641514335226,-0.08140704868615423,-2.7102574921922713,-0.049265526263364556,2.3720758302693863,0.5025272947254216
0.03499640672315696,-0.34262287260389357,-0.09662094727151427,-2.764548073804283,-0.0685587705438353,2.363701619209083,0.4778361135250915
0.015414261766788506,-0.40301175103961207,-0.11161329806872367,-2.8153432355541703,-0.09031866051754722,2.3503860983775127,0.4540504466054536
-0.006100483262625467,-0.458905714835101,-0.12668807188750186,-2.8588178745822788,-0.11320869150230184,2.3328735019374776,0.43105407699045095
-0.028968799292532488,-0.5071420451249633,-0.1422910481627575,-2.891624988740684,-0.13561964367577684,2.312457681202016,0.40878785841850096
-0.05199771335064529,-0.5449198174379042,-0.15860184262264632,-2.9111394418432415,-0.15574824515003183,2.290801826344879,0.38736931989852685
-0.07347594974901828,-0.570066308506096,-0.17540852209864788,-2.915780938950868,-0.1720539827772649,2.2695605882655467,0.3671543326281004
-0.09133160543574359,-0.5810573175802638,-0.19191275723416545,-2.9049707782690692,-0.1830598479451888,2.249996339096546,0.34878600055748343
-0.10370677627368519,-0.5773238091976989,-0.20698827987937385,-2.879259764514843,-0.18807699235836406,2.2328679923112364,0.3328028202001203
-0.10934814222736389,-0.559411598325557,-0.21935784855044105,-2.8402417569923024,-0.18670437457206557,2.218229488663905,0.3198260653576934
-0.10803108454068511,-0.5290304557651853,-0.2279943991064144,-2.7903224730142444,-0.17952163283137068,2.2054947708743207,0.31009346253952685
-0.10054421568252359,-0.4889621825600923,-0.23215199613335002,-2.732485471587765,-0.1674455912419166,2.1936365370365927,0.30381607009890743
-0.08838199498092703,-0.4427807707063405,-0.23167362359822263,-2.6699780991108097,-0.15201119644457872,2.1814919576569807,0.301082283902927
-0.07330100636558079,-0.3943436342077353,-0.22668079828984045,-2.606011107100052,-0.13477110795364133,2.1681041476957184,0.30209273834867645
-0.05687227218693636,-0.34771919489102476,-0.21779057479153785,-2.543806429548086,-0.11734708748400724,2.152997033647413,0.30700538842808367
-0.04026282056659447,-0.3065684580888801,-0.20579316057724029,-2.486321703252071,-0.10108062709609378,2.1362266187837022,0.31598113052848564
-0.024187086645876654,-0.2742343261575364,-0.19155255009274708,-2.4364118774306913,-0.08687162394530112,2.1182326209688043,0.3291034666431605
-0.008961563603525846,-0.25332638373880556,-0.17584442129960376,-2.3964749505922462,-0.07516446193448356,2.099599778094877,0.3462288090299346
0.006537290436931187,-0.24577503981824744,-0.15766397704913082,-2.3666691413568968,-0.065249163471365,2.0792398149585924,0.36911157723011634
0.01969415417585374,-0.2538627712498309,-0.1401881524817563,-2.353155372795915,-0.05832865001830356,2.0607400969762217,0.39363893924736626
0.03191228889708775,-0.27641884179884446,-0.12202456868436595,-2.353378184012125,-0.052822379174600975,2.042201433433462,0.42095126218790657
0.03191228889708775,-0.27641884179884446,-0.12202456868436595,-2.353378184012125,-0.052822379174600975,2.042201433433462,0.42095126218790657
0.044252455407225,-0.3163221337297175,-0.10137671826449335,-2.3685112931069296,-0.04732048250536458,2.021352383165304,0.4531166464723073
0.054928357985366105,-0.36508994321420385,-0.08153179791769993,-2.394323501576415,-0.04156876804047016,2.0007541520498773,0.48418898825251677
0.06535274341383879,-0.42262061541450624,-0.060944982184088836,-2.4288856486534867,-0.034067289851086535,1.9780221662187998,0.515993187636858
0.07595902208765803,-0.48555774083478465,-0.03976137594451146,-2.469023742202377,-0.023965710755004643,1.9528488855668975,0.5479207632535514
0.08723801198860404,-0.5501279907308367,-0.01823840172423541,-2.511216243028673,-0.010856583921340146,1.925467819744581,0.579418985501964
0.09955923729746274,-0.6123809156868676,0.0034191732798465324,-2.551929401609388,0.005209870876835332,1.8969734126785056,0.6101015890511094
0.11303670501634766,-0.6685139104050046,0.025055210940616135,-2.5880148383030006,0.02356455733298901,1.8691246863159314,0.6395485403854781
0.12745968354078396,-0.7148837570790354,0.046570113061194185,-2.6167297978287243,0.043169789831063454,1.844314528843853,0.6673117463171145
0.14226755666885005,-0.74855843062499,0.06774421997597813,-2.6362505014363125,0.06262580632940029,1.8248743287949658,0.6928394343109465
0.15652855174568625,-0.7672495403431467,0.08822556821727456,-2.645497549344795,0.0804978806820662,1.812795744000674,0.7154937465743938
0.1691130848015554,-0.7695631313460227,0.10735920969424928,-2.644249855634973,0.09531446921251341,1.8093129136225947,0.7345694149310269
0.17883624784679952,-0.7551622926837647,0.12437693740264599,-2.6330126160740264,0.10608522447903557,1.8144397577168103,0.749636531087865
0.18475217926284948,-0.7248595440932997,0.13841879994064943,-2.612901216828381,0.11199509706164879,1.8273540032223625,0.7603368355185767
0.18631819128561933,-0.6805701151834116,0.1488381321650447,-2.58542181181247,0.11303754837367208,1.8461595610050523,0.7668541566099121
0.1835424597068842,-0.6251200532816661,0.15517718969836025,-2.5523164135384278,0.10926766954164968,1.8688581147927756,0.7691733725286305
0.17688967056864957,-0.5619682010599281,0.15732670769643864,-2.515393794491139,0.10151970042435643,1.8931721825672803,0.7678108657571272
0.16723520537836745,-0.49508643433890853,0.15539557983943642,-2.4767110080987935,0.09078115473554504,1.9172043720385084,0.763083861950987
0.15560065639538312,-0.42851378360270953,0.14977367983443646,-2.4384464741408607,0.07834126500292449,1.9396978653552388,0.755253095618535
0.1429043622874433,-0.3663325890817539,0.14100855549578473,-2.4031149638960656,0.065405357322037,1.9601335547130692,0.7444619440084512
0.12985496156691578,-0.3122760790919976,0.12977822947934303,-2.373316277553064,0.053075589630708464,1.9786753687209355,0.7307646719292791
0.11683092127493655,-0.2694248310740779,0.11680594050886928,-2.3515657841249764,0.04206700706637001,1.9959044222867668,0.714363002919475
0.104086072290829,-0.24027044193063674,0.10267978484097728,-2.3403528422146778,0.03277371652188599,2.0127645630976136,0.6952594619753469
0.09167648934960848,-0.2262592852897649,0.08787260732511104,-2.341457232144222,0.025070747271463745,2.029772780840341,0.6738340061142019
0.07967843572819344,-0.22789964568804155,0.07259177750842571,-2.355943292108986,0.018675936443340646,2.0473744367654287,0.650285664201979
0.06810149039276414,-0.2447734733603868,0.05690302907162259,-2.3840623815297093,0.012902919957150871,2.0652875721458415,0.6250387837472502
0.05686946363228973,-0.27534845940646857,0.040847446103458473,-2.4248302277272735,0.006953089118189482,2.0829652700425605,0.5985598507287175
0.04552252232203724,-0.31858363870466544,0.02393796206051224,-2.4778960721171384,-0.0002935347342170047,2.1000379976051313,0.5705608590054894
0.0343845495711852,-0.36881779311539287,0.007230420494781065,-2.5373612535625902,-0.009315181675271234,2.114684796689442,0.5432082742073376
0.02270265660219639,-0.4235258248450622,-0.009616838580348563,-2.601218763097039,-0.020931413983584335,2.1269301373380998,0.5162023518967072
0.009550360807637936,-0.4804294295733671,-0.026979989462661003,-2.667676317814399,-0.03592451857859835,2.1369676434709195,0.48925818122503983
-0.0047764600668207535,-0.5322687183707453,-0.0438896306092742,-2.7290942737435273,-0.05323468452165869,2.1448727090796,0.4642391655168261
-0.02087268505487838,-0.5769801560845016,-0.06104550684674681,-2.783958515437286,-0.0725867047741815,2.152180100549927,0.44058533671696587
-0.03864718999166694,-0.6112545777526579,-0.07869329884532217,-2.8292878001393564,-0.09289315306643964,2.16041403574137,0.41849236768058695
-0.05751230796708651,-0.6323827775645823,-0.0969103000576288,-2.86283651798691,-0.11273478221647082,2.1710305492068116,0.3981541765954528
-0.07625937766085489,-0.6382312949710691,-0.11551424164198121,-2.882981623967975,-0.13058725468940047,2.185038363965294,0.3798797788076431
-0.09321183161743019,-0.6276499516395599,-0.13383824817876633,-2.889035535348146,-0.14488574867140436,2.2027307714730995,0.36396973169449254
-0.10642983293352781,-0.6005084613719358,-0.1509848491107748,-2.8810695039863887,-0.15431245942185257,2.223580854819158,0.35069915120107886
-0.11430597357524963,-0.5580652863503861,-0.16587017762487566,-2.8601554617798444,-0.15790106790700165,2.246354456923232,0.3401682701126685
-0.11591538619810926,-0.5027957068624218,-0.17757146301047388,-2.8280375479590267,-0.15530301019716664,2.269315905313075,0.3322914530765999
-0.11145166828137398,-0.43833306378814996,-0.18525701740087452,-2.7872140844784745,-0.1468181844194545,2.290632362628994,0.32689746700195954
-0.10200724377253767,-0.3689879468210764,-0.18842781951032617,-2.7405855839610505,-0.13351158457395762,2.308729251683097,0.3239338450027809
-0.08926677268645111,-0.2992866610884226,-0.18686425805681584,-2.691360539370426,-0.11702696444497018,2.3226719022479294,0.32373518566373694
-0.07485152497134973,-0.23367208594334787,-0.18084749878698503,-2.6428864477252123,-0.0994219399205507,2.3323834947123565,0.32666455471331624
-0.07485152497134973,-0.23367208594334787,-0.18084749878698503,-2.6428864477252123,-0.0994219399205507,2.3323834947123565,0.32666455471331624
-0.059912645060452796,-0.17604282666144133,-0.17113752932459914,-2.5984509048909583,-0.08255688738227551,2.3385505501969455,0.3333586637276609
-0.04503484305247074,-0.1295859871917564,-0.15881645798564925,-2.5611682412185495,-0.06781385594495593,2.3424140696966305,0.3441349628716912
-0.030392474922217083,-0.09668338027739587,-0.1449640763369846,-2.533749151398898,-0.05586258896120633,2.3452815228221606,0.35912308837396445
-0.01601451693568645,-0.07887862759721731,-0.13034881136031373,-2.518431165896943,-0.046746149754360644,2.3483084210664273,0.37816968724222644
-0.0019676394594858593,-0.07679463521548335,-0.11534962287603712,-2.516619063873997,-0.04009838785843467,2.3520832011773063,0.4008721374463988
0.011862986341077963,-0.09016755765225781,-0.10003932937337101,-2.5287486132237396,-0.0352880051089004,2.3565562144872487,0.4267658478952674
0.025222465353631485,-0.11784611054977034,-0.08424343512604349,-2.554149993056206,-0.03140891267839763,2.361063331355547,0.4551856483756236
0.03817019152219814,-0.15797733183631557,-0.06773350828677849,-2.5912414437629723,-0.02739127847411993,2.3645835115028184,0.48547437412712036
0.050919554009044354,-0.20801866134496727,-0.050453368423726275,-2.637426265822447,-0.022013789334009104,2.3657365957202003,0.5167337903956497
0.06393422828444972,-0.264872140455676,-0.032512955169035074,-2.6893033032455387,-0.014072575354783012,2.3632846492628534,0.5480718449777457
0.07791361896893445,-0.3251017456525691,-0.014181312147923286,-2.7429861109154006,-0.002711912380509496,2.3563301784274078,0.5787044089941622
0.09359456762241081,-0.38514848515790767,0.004261161612631348,-2.7943968337052576,0.012209582537850316,2.344624860456669,0.6080583521502181
0.11146624199069155,-0.44151970755679315,0.02265472139909175,-2.839525972169576,0.030033519293492184,2.328543984868519,0.6358700625359255
0.1314510722911697,-0.4909557580931363,0.041081362565470236,-2.8748276603957352,0.04941830304719552,2.3092582747796673,0.6620161479102169
0.15276247420094524,-0.5305097546777926,0.0595746680671434,-2.897405188008542,0.06854046494121402,2.2882863726559037,0.6863202122748211
0.17392898660576872,-0.5578105202994319,0.07786513146780116,-2.9053601734789227,0.08545349412735792,2.26727059156217,0.7084514843444341
0.19299377210160262,-0.5712064200616034,0.09531934746217718,-2.897904928710118,0.09855960261900165,2.2476186349619187,0.727910027644584
0.20796764904711829,-0.5699704134180532,0.1108660880318535,-2.8753975629802877,0.10662379446241843,2.2301575313291977,0.7440979885615047
0.2173403290832221,-0.5544284112314921,0.1233533523105983,-2.839221900684329,0.10917914999185108,2.2150875528840004,0.7564854549845412
0.22050417466001893,-0.5260901297222844,0.1317054770166317,-2.7916363993917974,0.10646225866635284,2.2019411925411454,0.7648161933378352
0.21781285674725126,-0.4875392636041811,0.1352902194941903,-2.7354842885142503,0.09925429068629299,2.1897527037270805,0.7688428634426963
0.21032514494307897,-0.442125462692049,0.13390344813147337,-2.673850080484817,0.08880541701353906,2.177413537400998,0.7686172689121014
0.19947738680328797,-0.3937292664615928,0.12789464078148782,-2.6099800828707673,0.0766424458448629,2.163989530738556,0.7642951310994119
0.18664091376772163,-0.34625044915905434,0.11798142168927761,-2.5469834243029013,0.06412010880991836,2.1489025034040807,0.7559726333862118
0.17282585701846642,-0.3035644354711762,0.10515430051873942,-2.488007231645474,0.052302934911326204,2.1321753220163693,0.7438720469360325
0.15875324962468262,-0.2689588859134888,0.09036160717706387,-2.435812397748765,0.04182798883000949,2.1141854188012914,0.7283169449843756
0.14482865180264426,-0.24534697718987086,0.07442925710848236,-2.3931139628098084,0.032933213362820624,2.0955749617580235,0.709598013661286
0.13126713902132003,-0.2348087780547452,0.05794600892192037,-2.3620813209259683,0.025443270169112964,2.0769521288293156,0.6882077499656498
0.1174430844378822,-0.23925247488146262,0.040218679355934484,-2.3435417766383893,0.01855471052625468,2.0574786245395824,0.6632044947003193
0.10489188783014569,-0.2584482715741281,0.023345958300023284,-2.340185408192374,0.012376815393903229,2.0393295150763464,0.6378446861238691
0.09277380704500438,-0.291692646352919,0.006340870261938747,-2.3504222052940307,0.005743437186744416,2.0208214687313824,0.6112843002676387
0.08020753659299196,-0.34032333252116054,-0.011811288419098176,-2.3743561323811466,-0.0026837562821917516,1.9999066149731597,0.582406326215021
0.06829434315408633,-0.3964096689768457,-0.02905151429970232,-2.4069948794498863,-0.012665862997771171,1.978141677374726,0.5547710921522411
0.05596512870394932,-0.45919980353140843,-0.0462949202858578,-2.4464009853688076,-0.025135551604760664,1.9537659744272435,0.5271618087207655
0.0429404661189583,-0.5250582441487328,-0.06355210506617404,-2.4891052086347987,-0.040253744428950355,1.9267639427505507,0.49979191379975685
0.028959837842950975,-0.5901269059094396,-0.08084483208258497,-2.531569939752213,-0.05781347224816891,1.897875516859468,0.472865446220502
0.01401756982321345,-0.6503950925023521,-0.09827673518939406,-2.5703976658991134,-0.07722864781747418,1.868717948598654,0.44653997113334665
-0.001617346697869948,-0.7022864392830197,-0.11610759822707983,-2.6027700964215352,-0.09760380814969416,1.8415269212798862,0.42110926446717567
-0.017435821478601454,-0.7425734066022827,-0.13443695937977473,-2.6265165776635584,-0.11782531748000125,1.8187657803922939,0.39699009720873324
-0.03258212411817141,-0.7686540052882336,-0.15325328445134012,-2.6402574230737734,-0.1366370647942059,1.8028645137334767,0.37479685863719414
-0.046015825279445366,-0.7786772810259937,-0.17215857720979955,-2.6433694539463577,-0.1528194845277273,1.7953058643417599,0.3550744960149883
-0.05658083008610504,-0.7719090262527963,-0.19054375980136484,-2.6361687499674744,-0.16526772496825082,1.7967574646677562,0.3384278686771216
-0.05658083008610504,-0.7719090262527963,-0.19054375980136484,-2.6361687499674744,-0.16526772496825082,1.7967574646677562,0.3384278686771216
-0.06363517453028855,-0.7457682329660953,-0.20893317142105872,-2.6175925671112523,-0.17356844726545795,1.8079719885289514,0.32419396543368695
-0.06533175411806535,-0.7061284832588566,-0.22347672665820717,-2.592184440845469,-0.17597648465688742,1.8254779424565655,0.31472729181187464
-0.062260304061433125,-0.6540232880967842,-0.23498518200361573,-2.5604529475481295,-0.17316563246316807,1.847953243875594,0.3087083709372722
-0.05485252358781523,-0.5928198164171743,-0.24296940031086578,-2.524289828448328,-0.16568135413475193,1.8728862247301024,0.30569301640418534
-0.04401314903231501,-0.5264291833793093,-0.2471298149389085,-2.485765554514086,-0.1542335872939411,1.8982203173067909,0.30551309941929894
-0.030920629067014538,-0.45896849063913336,-0.24741973618229274,-2.447081395696765,-0.13999529097599162,1.9223446245078932,0.30803259488177837
-0.01672780535462426,-0.3946136010639263,-0.24402537039223215,-2.4106492587588795,-0.12432533492277908,1.9443725974920518,0.3133562809210577
-0.002422039886111449,-0.33721488967639157,-0.23729303076160413,-2.3790247176435226,-0.10863682777048655,1.964188620310594,0.32177944068829767
0.011521434198416003,-0.29018536029328956,-0.2278070975461688,-2.354806917564832,-0.09417260145446171,1.9822804529283342,0.3335909280260516
0.02473865432868383,-0.25617748081226566,-0.21618093269256988,-2.3403708753470935,-0.08182995332699505,1.9994080883489147,0.34892948733568563
0.0372160006795923,-0.23704378310142182,-0.20295915646470863,-2.3377694439797008,-0.07209251027462571,2.0163501546925886,0.3678896206170714
0.04898372001886475,-0.23355189165710488,-0.18850833234649667,-2.3482004659038207,-0.06491464126983715,2.033528092636006,0.3902384461467916
0.06000684628499897,-0.24550669398282654,-0.17294022932598185,-2.372131721592048,-0.059925918175521176,2.0510930137751977,0.4157391731659583
0.07060737563216257,-0.27266537611927877,-0.15578812903788908,-2.410217668880982,-0.05626849818237112,2.069051357632052,0.4447262657134967
0.08024756264864674,-0.31118490676378574,-0.1380086002506804,-2.4584975332934587,-0.05304591207409448,2.0856898031250637,0.47485500362857014
0.08975570135342625,-0.3601915253494843,-0.11867041913616294,-2.5171258565010675,-0.04881569023390231,2.1011630716541347,0.5070818194313986
0.09876379067141805,-0.4116271205391948,-0.09969393846511743,-2.5775309760936835,-0.042850163343778114,2.113641786340313,0.537783224770787
0.10869610146024833,-0.46615794250229836,-0.07973505721092788,-2.641456201872586,-0.03385165026729364,2.1242636017331975,0.5689438432355836
0.12035434709576798,-0.519765504093459,-0.05911464938082478,-2.705132979950971,-0.02122709654816557,2.133231555675785,0.5998109511412117
0.13359258626830073,-0.56552175422138,-0.0392188151901145,-2.7613022283385984,-0.006011624748630595,2.1411094930949623,0.628099646920222
0.14892603778494884,-0.601456799819954,-0.019526663716908033,-2.808581917871029,0.01121165800845958,2.1495983495810904,0.6542933597820113
0.16604487121295008,-0.6248216949535506,-0.00015565283296137267,-2.844649621801345,0.02907602379669605,2.1601252557428836,0.6780514066750003
0.18398480727977962,-0.633279174423417,0.018669062006023474,-2.8676377808301368,0.045930055854824126,2.1738207090863497,0.6989083399090319
0.20126388864106382,-0.6254673448701791,0.03632980016822884,-2.8766567305915416,0.06018064777017251,2.1911216403159344,0.7164463124224447
0.21606203488543407,-0.601085310953037,0.052043535213316616,-2.8716450633810844,0.07053205881933078,2.2116355890210713,0.7303400424993924
0.227465174678656,-0.5569999336413867,0.06581805140143082,-2.8513452222280247,0.07635344280111322,2.236252277125633,0.7410736676437502
0.2325064991515946,-0.5028338316268455,0.07457985552705626,-2.8208110661985666,0.07647228904751913,2.259195354071567,0.7469108729368301
0.232209043996078,-0.4390915205366177,0.07898833140716999,-2.781234109043547,0.07196458068247402,2.280565226146164,0.749037644040202
0.22727029211145489,-0.36996381356640473,0.07881903694336767,-2.735389208240947,0.06384645589710658,2.2987890613756683,0.7475359389148082
0.21886056992841763,-0.29994983241557005,0.07420788050197746,-2.686437015271597,0.05363753110015246,2.3129517062273077,0.7426520395870835
0.2081717744401237,-0.23345301630023485,0.06575222496063748,-2.6376606583937043,0.04283316628693257,2.3229034905587618,0.7342500550577231
0.19569571502036442,-0.17295020552753826,0.05399747014201761,-2.5912359644051515,0.0323672537878501,2.3294454475895936,0.7220369853548245
0.182686373705768,-0.12527004983980738,0.04067568896078466,-2.553086412203033,0.023561671789721572,2.333453083400517,0.7068688869592084
0.1691401834715771,-0.09102775306135591,0.026356013038664194,-2.5246257943285952,0.016186759955216345,2.3364938652914926,0.688752109287881
0.15527538113850436,-0.0718552641929806,0.011615330078650565,-2.508202534842386,0.009909239697678984,2.339738813529163,0.6680961444112974
0.14128126293226462,-0.06842027423160868,-0.003302600756488694,-2.5052328631673264,0.004159682201056114,2.3437869027613676,0.645389733649349
0.14128126293226462,-0.06842027423160868,-0.003302600756488694,-2.5052328631673264,0.004159682201056114,2.3437869027613676,0.645389733649349
0.12605072022642805,-0.08231279047566797,-0.019695962022745483,-2.517875301007689,-0.002381522411990744,2.3490587688804503,0.6189501716531609
0.1120602832469837,-0.11014966107219148,-0.0349403545382172,-2.543521823382009,-0.00950178933913648,2.354149978574002,0.5935817468265991
0.09794447198171685,-0.15063589471362615,-0.05037601047934803,-2.581089072396744,-0.018577275441565178,2.3582716394342853,0.5677528046902509
0.08337819104207878,-0.2012235983659183,-0.0659041525845998,-2.6279171149197227,-0.030398930197378604,2.3599704228061995,0.5420543317805624
0.06785209488470212,-0.25882317387334286,-0.08130108055563223,-2.6806027898669855,-0.04545405428121896,2.357988279090696,0.5169110053798001
0.05082675788284785,-0.3200421731700951,-0.0963939450598188,-2.7352718900254045,-0.06378190298800135,2.3513464992987245,0.49256912854841595
0.031931907277772176,-0.3813282866729617,-0.1112353486489921,-2.787813465835039,-0.08483070386364311,2.339685005088315,0.4690371760096621
0.01102313638965935,-0.4392486298471061,-0.1260281761593438,-2.8343404371413436,-0.10747972260743133,2.3235111036940506,0.44620882619745217
-0.011466218438168418,-0.49049338853318414,-0.14125320397070507,-2.8712861646681445,-0.13026659557000464,2.3038511618977555,0.4239633258743307
-0.03458113459002998,-0.5321741342360005,-0.1571863949166188,-2.895771161202103,-0.15144167105230366,2.282373634655782,0.4023199815428864
-0.056768218804488235,-0.5618470354157088,-0.17381897790465306,-2.905810207273144,-0.16933491043728388,2.260741094258659,0.38162135811659503
-0.076075584845257,-0.5776833340453829,-0.19052480943420935,-2.900398409115663,-0.18243148269744403,2.2404727986418305,0.3623860107785113
-0.09055328799582707,-0.5787979305300297,-0.20630515625210233,-2.8797279439553387,-0.1897245926225164,2.222525077745967,0.3452768150217267
-0.09871081734182052,-0.5653425393117075,-0.21988867894030317,-2.845033286264523,-0.19065455571729473,2.207214489455845,0.3308769910305145
-0.09995172417481424,-0.5386472365548318,-0.23016413860294538,-2.7984679291320758,-0.18543590551628153,2.19413516012726,0.31960553666681335
-0.09478811444181012,-0.5012347884495787,-0.23627415474164604,-2.7429356787798946,-0.1749657291907729,2.182374531350666,0.3115684462434505
-0.08445470886515238,-0.45640258447263893,-0.2378021523646865,-2.6815774916299944,-0.1603677262524945,2.170732936208834,0.3070874944936115
-0.07060710808012338,-0.4079984991299721,-0.23479261568698373,-2.617624364617937,-0.14336914621665642,2.1581201471971987,0.30617335851429495
-0.05491125616928638,-0.35996616568744066,-0.2276322626181182,-2.5542955460177357,-0.12557661402169185,2.143918192798182,0.309032100557193
-0.03862562374605272,-0.31618078196517807,-0.2171096150412204,-2.4946297851699075,-0.1085024100644123,2.1279247538134065,0.31586276409259284
-0.022635267298153572,-0.280083849941966,-0.20399754349016952,-2.441519845988731,-0.09323783501954175,2.110439758202981,0.3267719965196738
-0.007353661501971587,-0.25451269258685727,-0.18913523200605198,-2.3974814734995844,-0.08041022928850428,2.0921065604290376,0.34180146372242515
0.007033972898944363,-0.24181857781115212,-0.17307601227630265,-2.364920257470968,-0.07024079156607144,2.073527639442723,0.3608025177061043
0.02044104604716246,-0.24333553161410837,-0.15619138322228743,-2.3453438061272633,-0.06250347762270092,2.0550202089895535,0.38336901620223784
0.032911359549133934,-0.2594865557411543,-0.13856498240784276,-2.339487413571102,-0.056618182266024775,2.0366542895615574,0.4090597699827194
0.04447249238416706,-0.28980560133847266,-0.12012551839749275,-2.347249837830712,-0.051768754050647736,2.0180446388514497,0.4373029378033362
0.055273442806242024,-0.3327968128511811,-0.10081007264140585,-2.3673918984705997,-0.046914706812993145,1.9984899069340916,0.4674543523797565
0.06557688874543999,-0.3861529130860051,-0.08061222928646128,-2.3978266698282846,-0.04093070797680731,1.9772217545251838,0.49879059208524357
0.07579997334996058,-0.4467511099258177,-0.05966295668857935,-2.4355401821728497,-0.03281208469326291,1.9536092604846527,0.530567885566569
0.08639617498435115,-0.5109791404539328,-0.03815331703449676,-2.4771374167574356,-0.02183283666209679,1.9276493586161152,0.5622917839421255
0.0978603003885592,-0.5749961924337255,-0.016391701636858436,-2.519124821466977,-0.007769555486202506,1.899901533023943,0.5934249914437641
0.11045236118026569,-0.6347961560678579,0.005479648521459879,-2.5580432321929,0.00907601266489877,1.8717475275550424,0.6235845326357623
0.12417891678755666,-0.6867018613702962,0.027278122885171285,-2.590963150411725,0.027881501790068874,1.845252536222791,0.652354912854129
0.1386876296367081,-0.7273697906013412,0.048827672575965764,-2.615547303647605,0.04739158460793558,1.8228216923045188,0.6792540044817068
0.15324727858787046,-0.7541670170404648,0.06987076434717387,-2.630348236784628,0.0661864688222229,1.806709968421906,0.7036589187119207
0.16682853847925827,-0.7651074931260959,0.08986677976473612,-2.6345910780489508,0.08269953508022976,1.798675767703731,0.7248595449896005
0.17825316514580525,-0.7593052095248183,0.10812405218715604,-2.628433260869917,0.09574283064840916,1.7993109808261885,0.7423104234987887
0.18647284879003667,-0.7370929678110798,0.1237949022032172,-2.6127962113441363,0.10435497803174076,1.8081808475619674,0.7555919139542127
0.1907081003542226,-0.6998177398760532,0.13615496197342392,-2.588986951428895,0.10808652122446105,1.8239953534075148,0.7645257671871208
0.19066819579906102,-0.6498211214382499,0.14461537686077186,-2.5585924482842133,0.10687800366216216,1.8448347066566164,0.7691621236937793
0.18655259644271993,-0.5902478647812863,0.1489182559466169,-2.523375997955032,0.10127556027994622,1.8684655434735795,0.7698154737012111
0.17902616426241025,-0.5248569328081754,0.1490471731796994,-2.4852909439189332,0.09216882653824676,1.8927532730415706,0.7668931384935842
0.16899872440126096,-0.4577076273411862,0.14528838026913604,-2.4464753993335338,0.08073279996703064,1.916061414140529,0.7607452299683537
0.15742936993472334,-0.3928097412577589,0.13812282881202265,-2.4092006536598722,0.06824969032888184,1.9374620150833959,0.7516130211060474
0.14509689420210847,-0.3341256547285063,0.12817067845087848,-2.376068776849422,0.055829002164642816,1.9568034842798632,0.7395501955952177
0.1325218849945209,-0.28514160479867545,0.11613476389684152,-2.3497376132627945,0.044400761423643686,1.974522147820279,0.7246846737150889
0.12000407016223313,-0.24870172364570475,0.10268743264367508,-2.33276122821525,0.03449376233577084,1.9913584151409776,0.7071858614543274
0.10768757075115687,-0.2268270443386644,0.08838238027408529,-2.3273400194550247,0.0262226048954588,2.0081135707532916,0.6872554554160839
0.09568039538259043,-0.22052418281232722,0.0735140044449718,-2.334940203028416,0.019369226940538553,2.0252783497338207,0.665174842620031
0.09568039538259043,-0.22052418281232722,0.0735140044449718,-2.334940203028416,0.019369226940538553,2.0252783497338207,0.665174842620031
0.08366808224395683,-0.23035263110435178,0.05779026026347189,-2.3570991322642003,0.013254276606515347,2.043505940794299,0.6405413618727263
0.07232538788229981,-0.25461926340808727,0.04214994341558054,-2.391964715009096,0.007464736756038093,2.061287814432024,0.6152297953062877
0.061227534094346225,-0.291439908153472,0.02614137610838796,-2.4385489943732432,0.0010162605770869249,2.0784942630913523,0.588969125326738
0.05013989747776826,-0.3380832008944159,0.00980879185187078,-2.4945432042687044,-0.00698288443995132,2.094270315053917,0.5622619310057733
0.03869582947796957,-0.3911516449580281,-0.006727993730169857,-2.55677759252299,-0.017272947747404288,2.1078232985724554,0.5356552913106452
0.026420915425710234,-0.44684581608377005,-0.023341059695926702,-2.621683763115956,-0.03033708867880769,2.11886154499787,0.509590674102764
0.01283216269054499,-0.5013193015086008,-0.04003463145165753,-2.6855477565609407,-0.0462625098254108,2.1275878947940896,0.4844377241201947
-0.0024510547863663135,-0.5506437942374793,-0.05686142849550002,-2.7446857007508028,-0.06463457906394154,2.1349527636864156,0.4603986398276252
-0.019470390880611532,-0.5913283881482334,-0.0741260556961354,-2.795876135815365,-0.08461360391011219,2.1423138227740495,0.43766801723637094
-0.03794867642523059,-0.6202371322265732,-0.091988750238297,-2.836394411760515,-0.10496302041184613,2.151239450329669,0.4164241526454795
-0.05698392727252788,-0.6348913797075566,-0.11048689195047068,-2.864257763977826,-0.12420376788733911,2.1630969522542713,0.3969487286058264
-0.0751603433678536,-0.6335032613304392,-0.12916370087366147,-2.8781861877243893,-0.14075904696071184,2.178620210847569,0.3795220646063413
-0.09065660464829683,-0.6154935310120591,-0.14729444899385413,-2.8779676753474446,-0.15316660243793478,2.1977541060705317,0.36448564069363165
-0.10165311497838125,-0.5813035673294413,-0.16381243539562007,-2.8640839242155227,-0.16015615108197423,2.2196506847768163,0.35207961964185586
-0.10680370395808936,-0.5327739313487774,-0.17773891006463138,-2.837940151951287,-0.16102633411735745,2.2428200738943964,0.34230761260496045
-0.10569843559603953,-0.4729035434366571,-0.18810260604885443,-2.8016145647213424,-0.15562804268402974,2.265414462896242,0.33505839002666526
-0.09812406625844616,-0.3995771344045753,-0.19456540545349021,-2.7537065141759838,-0.14340603938819907,2.2872682582577593,0.3298844780305572
-0.08687778500421572,-0.3294671389482975,-0.19565326418096163,-2.7053051594094697,-0.12785461231185202,2.3034206953801597,0.32774146591771114
-0.073284512036361,-0.2614088246616664,-0.19204308443548346,-2.656088867757747,-0.11009608041551822,2.315276349462952,0.32847539391771274
-0.058713602393332565,-0.1995556262758411,-0.18430975843060793,-2.609364386805142,-0.09223188914579694,2.323128911008773,0.3326629829076273
-0.04356078501650362,-0.1461023594367683,-0.17305285585562302,-2.5672590948875973,-0.07549493116084705,2.328116290059114,0.3410823885439429
-0.029023227995058853,-0.10696079613085097,-0.16004932628050206,-2.535207855945007,-0.06193395615368402,2.3313157926545873,0.3535989960143828
-0.014720823777417458,-0.08234293606030185,-0.14594919458004796,-2.51433802868158,-0.051349600413409746,2.334159848883022,0.37027281963773984
0.000505960398608174,-0.07330089279313423,-0.13044352611252208,-2.5064942404454547,-0.043219741470888806,2.3377667811393277,0.392206637211185
0.013531535055734345,-0.08038730882363776,-0.11590160879214828,-2.5128601087137428,-0.03798524984139284,2.3418048889124083,0.41569993838835106
0.02691911321114393,-0.10238049901289781,-0.10048135634310285,-2.5329437148275966,-0.034073159519596885,2.346398224705082,0.4428054782530566
0.039883896497118876,-0.13767962960903457,-0.08441916736791555,-2.565466430803135,-0.030679298351469875,2.3505011813906407,0.4722317298916856
0.05250054900971968,-0.18405652296080444,-0.06753472113790515,-2.608297067613532,-0.026593349885964734,2.352829445286476,0.503118710664352
0.0650899501877591,-0.23860092639158115,-0.04983088616961151,-2.658356057209459,-0.02054460841823058,2.3520824904525206,0.5345745227836867
0.07829166022890366,-0.29796238858547586,-0.031551566716435886,-2.7118585192410967,-0.011455746862693239,2.347126966090661,0.5656874826114411
0.09282754525763615,-0.358576295673827,-0.012974186910060581,-2.7647714621228436,0.0012268251613365422,2.337447814561454,0.5957743552528667
0.10939980328415011,-0.4168854965458406,0.005625156056813907,-2.812995853119973,0.017273558240364473,2.3231356153894875,0.6244342527392668
0.1281683153572395,-0.46948624426307095,0.024265607003433942,-2.852780101652141,0.03568317514692332,2.305085084723647,0.6514896547724289
0.14875069929177798,-0.5133299447321908,0.042907614023928176,-2.880938882275829,0.05477538108023161,2.284618776671765,0.6767781208664356
0.17057756255331924,-0.5464768516650773,0.06200967945794389,-2.8952687722300547,0.07318434161820431,2.262842432040241,0.700722229750335
0.1905989791514786,-0.5651310142829109,0.07997456377033707,-2.893801856917703,0.08800673539234083,2.2425764873202017,0.7214830417378906
0.2074446081114001,-0.5693121773242593,0.09643200425583842,-2.8770548717161972,0.09831178905090532,2.2242520527390752,0.7391785832107365
0.2074446081114001,-0.5693121773242593,0.09643200425583842,-2.8770548717161972,0.09831178905090532,2.2242520527390752,0.7391785832107365
0.21933644657677842,-0.5588198817312753,0.11027034838200045,-2.8458857575319056,0.10324395391322572,2.2083525522116485,0.7531837185054693
0.2253040351004998,-0.5347438144624856,0.12032988152634694,-2.802263782029465,0.10271476117424871,2.194639128634474,0.7631256707342713
0.21999722054607407,-0.4543936197739322,0.12633135361496084,-2.68695161030381,0.08808951446490898,2.1698952577352344,0.770264565376718
0.21999722054607407,-0.4543936197739322,0.12633135361496084,-2.68695161030381,0.08808951446490898,2.1698952577352344,0.770264565376718
0.21124986031365633,-0.40772220412750926,0.12219686479046477,-2.625208194681975,0.07711880709699326,2.1574222214522507,0.7675547149910491
0.1997637298832844,-0.359217099697382,0.11385104557988956,-2.5613510435778064,0.06495105160535264,2.1430809623453264,0.7608009258428945
0.18689111668553426,-0.31412941283734774,0.1022403839972279,-2.5003379330080753,0.053117929709819656,2.1270171112933163,0.7502213721977293
0.17342994798132327,-0.2759838033715729,0.08834587577332176,-2.4450859381361525,0.04242048569874601,2.1094942528824667,0.7361411769214401
0.15986307698880342,-0.24784486488124724,0.07304896374321412,-2.3983703929960836,0.03320875799924128,2.0911033365134397,0.7188370538204927
0.14649927719417644,-0.23212865902088353,0.05700349843398467,-2.3625850406710747,0.025445044858696697,2.0724706067315886,0.6987815356538905
0.13347153974998083,-0.2303235048318415,0.04064406597405945,-2.339419400196876,0.018757676595604345,2.0540299443573105,0.6764764107123513
0.12088889587306983,-0.24321174864619355,0.024104091187257204,-2.3300385591070096,0.012617060339528585,2.035916248405549,0.6523234156426829
0.10869594973849939,-0.27050051244069007,0.007460823510291981,-2.3344502526446265,0.0062817324656085916,2.0177709154424566,0.6268446927520452
0.09679294303049257,-0.31106311226817507,-0.009307823841395724,-2.3518275385905136,-0.001002103810921362,1.9989045409490398,0.6004674163497219
0.08494271275563126,-0.3627701159982175,-0.026177852328303608,-2.3801562283955464,-0.009993857225334857,1.978416026252365,0.5736296069572129
0.07283227311154317,-0.42280714322053914,-0.043099111272733914,-2.4167863083343315,-0.02124430012165579,1.9555886630290829,0.5466538014905185
0.06011297259414494,-0.4877330318456101,-0.06000868891956035,-2.4584144218576887,-0.03507048721868866,1.9301067390312632,0.5197762543409672
0.04651919177304453,-0.5537853534746455,-0.07693408338907748,-2.5015315612099505,-0.051462793666487094,1.9022306686485742,0.49316185236613475
0.031943022518038156,-0.6170154407340567,-0.09397281713839956,-2.5426427037182107,-0.07000215524666853,1.8731178804493531,0.4669444989642857
0.016510469795838922,-0.6736501568316475,-0.11135507613930162,-2.57865471307358,-0.08998121790055702,1.8447106084396765,0.44134702988477503
0.00017304990338917747,-0.7213820381614235,-0.1297815136361402,-2.607697316109882,-0.11098201201403324,1.8187707834074907,0.4159879661068766
-0.015084313640387315,-0.7538126035429942,-0.14774509869048824,-2.625944659225431,-0.1300712952635683,1.799710071943542,0.39347579930982857
-0.02959012354920798,-0.7721814040777284,-0.16664980023398623,-2.634440602897201,-0.1477413621278698,1.7877105332056882,0.3723464583515801
-0.041777348152447935,-0.7739410041853487,-0.18548863515713077,-2.6322958819451188,-0.16223075544636156,1.7845646016103025,0.35392935301793127
-0.05057894970005439,-0.7588757138874405,-0.20346069437895853,-2.620137323742454,-0.17256365713631272,1.7902362027138636,0.3386142277478159
-0.05510347379916336,-0.7278371368946095,-0.21974355023958214,-2.599115951600453,-0.17801136165944964,1.803894522474323,0.3267724692127194
-0.05494161628520544,-0.6827850195571497,-0.23347116565514714,-2.570775034837677,-0.17829332814852172,1.8236709206881763,0.3182952711201983
-0.05015689100160792,-0.6265895861595769,-0.24404264948272125,-2.5368772332505625,-0.1735386388880249,1.8473698289484943,0.3130198987302064
-0.04142258889438377,-0.5628572518596027,-0.2509539225562909,-2.4994062816505984,-0.16423056889493282,1.8727201760327645,0.31068282179828355
-0.02935567599277089,-0.49364741496899267,-0.25411539362125435,-2.459325426651607,-0.15099573272993183,1.898402724414309,0.31101802440824855
-0.015900128704186223,-0.4271128133390212,-0.2532872187046049,-2.42126013406442,-0.13578065149717577,1.9216704763769723,0.31414281936733524
-0.0018549899735296194,-0.36542348068221475,-0.24886519856928313,-2.3865916884822784,-0.11971503408833506,1.9427039789008198,0.32018766537012233
0.01213090458506727,-0.3122805908440993,-0.24131778058651232,-2.35792503317806,-0.10420431072761094,1.9616280686500964,0.3294318080614511
0.025495941925830934,-0.2707536900260301,-0.23120962784061128,-2.337765395148849,-0.09040400675290616,1.979150907252972,0.3421991567652318
0.03816073108463858,-0.24322597112991318,-0.2191570167559247,-2.3284313687604827,-0.07907707338271397,1.9960279696243894,0.3586217185827607
0.050119966382188075,-0.23109113658678826,-0.20562988380350067,-2.331634467770411,-0.07048146146281109,2.012940567053839,0.37864545454744114
0.06137282886653139,-0.23466422304760925,-0.19087767516059628,-2.348226592398814,-0.06444375481682219,2.03018906739171,0.40203126451006543
0.07190692178884994,-0.25325106094489236,-0.17497909347693774,-2.3781295677754946,-0.06041737781903844,2.0476702988226645,0.4284645119763182
0.08173565233332081,-0.2852543632920117,-0.15791700034347222,-2.420364307000585,-0.05748636872755242,2.064811413546444,0.45735483327584703
0.09097659281892945,-0.3280830076786714,-0.13970942822969157,-2.4727760494799567,-0.05449516667841525,2.0808314022350007,0.4879455434863651
0.09997623265013011,-0.37844550224646767,-0.12053537648419521,-2.5323813736580094,-0.05021139195033353,2.0949890533242392,0.5194088925188343
0.10922465428419414,-0.4326674030977369,-0.10063901731971558,-2.5958583110303968,-0.043521379091291834,2.106923893952761,0.5509631994245261
0.11943756704566955,-0.48686744831879913,-0.08044400819740716,-2.659538991767655,-0.03375370089092833,2.1166449362368187,0.5817990644290072
0.13124704553131306,-0.5370080641687398,-0.0602366716581475,-2.719673065338239,-0.02076039549908515,2.1248522627143167,0.6113277688449363
0.14513514512120018,-0.579486869733234,-0.040230631216787494,-2.7728768348015853,-0.005050599913858811,2.132728554717362,0.6390502874480424
0.16109291549611537,-0.6109385998639549,-0.02048027667467167,-2.8161748505519215,0.012285148396489198,2.141767967416019,0.6645848048925895
0.17859578838579093,-0.6287375686656933,-0.0011896675706468685,-2.847397394054549,0.029744161956212878,2.15335875035764,0.6875269241011486
0.19646916628410072,-0.6309732761628899,0.017299526008745403,-2.8651209611458492,0.04572616637792226,2.1683679285881876,0.7074570428807627
0.21310737317280015,-0.6167517191772536,0.03427520914122262,-2.868846086880632,0.058687786438519574,2.186943222910724,0.7239269010002003
0.21310737317280015,-0.6167517191772536,0.03427520914122262,-2.868846086880632,0.058687786438519574,2.186943222910724,0.7239269010002003
0.2270738997555437,-0.5851144728571391,0.04928663842422054,-2.858349429203943,0.06765589718242726,2.2090588503172555,0.7369298278163186
0.236068807969815,-0.539386672710009,0.060561602712189355,-2.8353928663378314,0.07136177136196054,2.2320805060647686,0.7454624777810697
0.23984504747251467,-0.4816244615036087,0.06781866969063088,-2.801745537528233,0.07021609966741327,2.254803284581932,0.7501390536980086
0.23852963857476261,-0.4155768512433209,0.07062755591040304,-2.759882501467068,0.06475920281315428,2.2754233501016756,0.7509799187247319
0.23299255801655683,-0.34552109064687553,0.06890125765331412,-2.7126710196157875,0.05629469096201145,2.292534765683966,0.7482795034508447
0.22437464574184318,-0.27610766754564686,0.06294615022474659,-2.663413347560428,0.046246796082324515,2.3054294961323087,0.7420719437123688
0.21373556196170185,-0.21156704121407444,0.053484204506034416,-2.615415946415653,0.03608448889827809,2.314242322946569,0.732458880967525
0.2017667833192327,-0.15576724870574665,0.04152435176717617,-2.5720739821635616,0.026800923397355625,2.3198442452742256,0.7194947309273614
0.1889392238875054,-0.11175667652831844,0.028003282127667006,-2.536464411179268,0.018844435691948824,2.32347793910057,0.7034774180162708
0.1755441794531727,-0.08179099318861383,0.013727950781108333,-2.511338714128941,0.012152848205233546,2.3265234533566765,0.6847383931531761
0.1618375874633564,-0.06727685554945761,-0.0009080532878673608,-2.4988494583907492,0.00628921662645876,2.329995700595374,0.6637167067360386
0.14797830911444088,-0.06859829820370678,-0.015674098211132304,-2.5001539554372014,0.0005937463551104472,2.3343441247694514,0.6409258966607814
0.13408504541713384,-0.08533021516418238,-0.030602255693443325,-2.515493663212607,-0.005668372116054421,2.3394085946948273,0.6168365785324204
0.12014471865939136,-0.11618703356379356,-0.045733724054001,-2.544006463573944,-0.013340861432296514,2.344378721945832,0.591988975398702
0.10595379211485323,-0.1591632156633942,-0.061005429311649095,-2.5838676198525965,-0.02321746683446957,2.34814210398026,0.5668881544993374
0.09071325317456314,-0.21323948393526493,-0.07676962795111741,-2.633766756867481,-0.03642779361631643,2.3492090888832298,0.5413189057574366
0.0752312801149504,-0.2703485040879343,-0.09143859206288596,-2.68572732217594,-0.05207586092038152,2.346400580059587,0.5177885833969773
0.05766607834283022,-0.3319852990233212,-0.10623457622692101,-2.7403494796065475,-0.07132010510758935,2.3387619543316074,0.494290004705074
0.03750914234253422,-0.3947086769617467,-0.12121643836837848,-2.793473579689242,-0.0937024488818432,2.325679641158448,0.47081187339219266
0.015310776993064934,-0.452956243983456,-0.13631420557176277,-2.8392487311562293,-0.11740269806726733,2.3079340233384276,0.44787545640539594
-0.007632983986821884,-0.5019795300543173,-0.15154226100936263,-2.8731848914830342,-0.14004552473061427,2.287529822390688,0.4259932223490539
-0.03079238031073217,-0.5406387789974954,-0.16759897364659615,-2.8939878285189193,-0.16064141914498453,2.265734204003097,0.40463434274900667
-0.05249527855682601,-0.5666817565270943,-0.18426626374775523,-2.89994942276548,-0.17749112876120332,2.2442574533408894,0.3841825367189946
-0.07122685381240679,-0.5786720137041019,-0.2013508010639793,-2.8898958803921087,-0.1895079311028427,2.2239437296333584,0.3647363212771344
-0.08400835271681117,-0.5752625870842003,-0.21668602049526875,-2.864850668117314,-0.19499718649715536,2.206778034212901,0.34808197574544497
-0.09028679402627127,-0.5576463897474095,-0.22958863345844804,-2.8264315325390976,-0.19427936111274402,2.192266184004655,0.33405005844705027
-0.08973211416023297,-0.5274636517393612,-0.23896073929430095,-2.776965119445201,-0.18729259565922707,2.179770938936702,0.3233552205679002
-0.08302205105413218,-0.48737729255806084,-0.2440828104530457,-2.7193172411704394,-0.1752242194645195,2.1683088918182065,0.3159392615241208
-0.07044004060437636,-0.4366654689958738,-0.24444268243196898,-2.651102331176377,-0.15794942519545518,2.155574942642243,0.31179739919854743
-0.05587950329536451,-0.3877707893132545,-0.24014779215409465,-2.586895857411764,-0.1401315717050311,2.1426103690154648,0.3116813804446483
-0.040004359903330844,-0.3408015619254252,-0.23199148193683783,-2.524515886295492,-0.12208992224458193,2.1278693737001895,0.31542609711377523
-0.023943435502204125,-0.29947109894540525,-0.22071674952751508,-2.466967013501818,-0.1052437166448783,2.111393197350875,0.3231985250701346
-0.007483131396185172,-0.2655497426569875,-0.20630272735434652,-2.414462408768056,-0.08979043886196791,2.092544251709729,0.3359691215091525
0.00685196606452898,-0.24587931352129822,-0.1915812453347403,-2.376281473693026,-0.0782483935962075,2.0746217409316685,0.3516569810848438
0.020678222543659253,-0.2388942352460548,-0.17538348626744416,-2.3488523596432227,-0.06902261477924032,2.0560526375921313,0.3716173358794075
0.03355616896424163,-0.24642360847528177,-0.15835530876097526,-2.3348426005564793,-0.062151295877272084,2.037666666148283,0.3951021489289328
0.04549719604333102,-0.2684677384885257,-0.14051053798668622,-2.334544315052999,-0.05694266165578199,2.0192691024608784,0.42152774306996044
0.04549719604333102,-0.2684677384885257,-0.14051053798668622,-2.334544315052999,-0.05694266165578199,2.0192691024608784,0.42152774306996044
0.06695275729801953,-0.3515664511260903,-0.10206920518475027,-2.3718006316251605,-0.04764460955396732,1.9803196924979751,0.48092899528179167
0.06695275729801953,-0.3515664511260903,-0.10206920518475027,-2.3718006316251605,-0.04764460955396732,1.9803196924979751,0.48092899528179167
0.0769429899251648,-0.40823565254081995,-0.08143050052516632,-2.4054466049407166,-0.041314888880902956,1.9582718860092,0.5124603988103704
0.08699204366522029,-0.4707266950538651,-0.06004379016365835,-2.445076455630759,-0.03254720064906458,1.9338474465123703,0.5442953865919531
0.0979675830317257,-0.5372169574757022,-0.03753220953621561,-2.4884349952424136,-0.020342058372627925,1.9063673895528943,0.5767739921513284
0.10965628106357617,-0.5999065633943816,-0.01542176269847051,-2.5294577418617754,-0.005354775788328325,1.878352092982194,0.6075850104121008
0.12255458212005532,-0.6566484436177342,0.006705341771761297,-2.566037697851784,0.01218136304923334,1.85077592046785,0.6372901877844681
0.13652431925325192,-0.7038885608593466,0.028691182202085663,-2.5954625650022285,0.0312759638498461,1.8259053338496933,0.6654212466155531
0.1510652979334539,-0.7385784429276958,0.05027845469807879,-2.6157871720746835,0.05054614931728629,1.8060809874125194,0.691463509621201
0.16530501869029468,-0.7584044767088391,0.07110387600548673,-2.6259075448483147,0.0685069535902958,1.7933800075918747,0.714749409056628
0.1788559915317487,-0.7617070625057449,0.091623517638598,-2.6252643081229277,0.08453202161864759,1.7889681813545586,0.7357130529421845
0.18899807678793046,-0.7476365793089199,0.1087330576544634,-2.614342727462022,0.0954972076683962,1.7937547095690007,0.7513132830248823
0.19559096766748407,-0.7176825495999646,0.12284042163684727,-2.5945153733727064,0.10181537942419538,1.8062179299612193,0.762623477545942
0.1980905017437573,-0.673691524828107,0.13324338667645286,-2.5672344285320516,0.10313796178745172,1.8247756262000934,0.7695180450695771
0.19643963391720032,-0.618477697162537,0.13956469354510403,-2.5342227971151656,0.09982952200903306,1.8472221669598046,0.7722463943209554
0.1910735864111368,-0.5555239245020225,0.14165472768796405,-2.497337729366641,0.09252141491437094,1.8713806536990774,0.7711003635517528
0.1827430984347851,-0.48877548148453887,0.1397025483209191,-2.458631377818816,0.08234451462036141,1.8953140796419632,0.7665488512652203
0.1724055797785562,-0.4223122546282134,0.1340880588421225,-2.420284371813999,0.07051799112327117,1.9177104527854727,0.7588423177318475
0.16088982098472737,-0.3601350502829481,0.1253887368921145,-2.384763534991947,0.058240667488430375,1.9380104270822756,0.7482111450752686
0.14881004032340872,-0.3059898409850117,0.11431653414969212,-2.35473423166383,0.046554014747160366,1.956436479042722,0.7347503048225956
0.13657072017552085,-0.2630840477843046,0.10154990997744129,-2.332844185758523,0.036140554093266886,1.973542646001487,0.718657207708512
0.12439013798052212,-0.23379749589454235,0.08771106909098592,-2.3214052387569657,0.02728892817591877,1.9901419369241218,0.7001352997774397
0.11240932550517169,-0.21968418011534396,0.07319502006174083,-2.322365568393179,0.01994055926436822,2.00701208188452,0.6793573643527271
0.10066515205051996,-0.22129243854900604,0.05826900340290919,-2.33681499549699,0.013668096512754246,2.0243644406483163,0.6567221775023597
0.08922634356221248,-0.23814285318700446,0.042968692880965165,-2.364917207271727,0.00788474689869112,2.0421352815243665,0.6325334741608604
0.07801888567199544,-0.26877716423137965,0.02733319476786278,-2.405787144636058,0.0017867428719853251,2.059761992186953,0.6072295330302762
0.06690488816706175,-0.31078016619981863,0.011375604094396863,-2.4573756460743734,-0.00546571023302711,2.0763603823079215,0.5812996969702802
0.05558289048930387,-0.3610665537332354,-0.0048405787285776825,-2.516952089872433,-0.014684593681060676,2.091146397560479,0.5552035384858094
0.043623044723472226,-0.4160232864748066,-0.021175873924935473,-2.58110328045656,-0.026467439920828895,2.1034911028810157,0.5294274344523249
0.030575024420641306,-0.47176875798904394,-0.03761346171413038,-2.6461396913855477,-0.04109063975301375,2.113351551286332,0.5042949344479677
0.014605024966866331,-0.5287620683305088,-0.055622755690411196,-2.713557718120617,-0.060049075105331085,2.12184936762419,0.4779993079784379
-0.0019053155068027294,-0.5737837058244368,-0.07256007108461127,-2.7687344913013163,-0.07960524878900976,2.1288992326092693,0.4549872443185361
-0.020049896049562754,-0.6083546273374401,-0.09008999583970834,-2.8143665626588614,-0.10009796348329658,2.1368025431563638,0.4332262858607301
-0.03918921625137717,-0.629701318964238,-0.10837662046798435,-2.848132733861201,-0.12020751014795827,2.1470507714943388,0.412932436422377
-0.05812673304091032,-0.6357538812666359,-0.12716707732744226,-2.8684795559660987,-0.1383264775446964,2.160747175318967,0.39442984461631525
-0.07652360605920538,-0.6235631991285562,-0.14747647588541746,-2.8745051756999285,-0.1540049087603439,2.1799437190733357,0.3767364455675004
-0.08906704580411517,-0.5961911458218196,-0.16450311344577706,-2.8659078002631713,-0.16302691773247524,2.2003085728234666,0.3633821473528158
-0.09663595211128406,-0.5530316143112266,-0.17988404252132817,-2.844370236253031,-0.1663927510058265,2.223244198303952,0.3521815980636678
-0.0979343465983975,-0.4971900687991795,-0.19213221834824346,-2.811719563318242,-0.16334240941554512,2.2464135650063195,0.3435269877742275
-0.09323557975760721,-0.43235206942302984,-0.20038681766004451,-2.770494274958021,-0.15418154862307887,2.267947278355182,0.33723343509696235
-0.09323557975760721,-0.43235206942302984,-0.20038681766004451,-2.770494274958021,-0.15418154862307887,2.267947278355182,0.33723343509696235
-0.08371769497682013,-0.3628766859578789,-0.20412936106331436,-2.7236635940803717,-0.1400434516907172,2.286247329186182,0.3332984748510768
-0.07104528336306792,-0.2933027383670863,-0.20311167250030238,-2.6744457359295106,-0.12260275098639717,2.300363914537673,0.33201555788013515
-0.05682708166596129,-0.2279950652286269,-0.19761496294365877,-2.6261488156595076,-0.10402340455482495,2.310238856466537,0.3337917156258561
-0.041741290021456656,-0.16931908374782534,-0.1880877178661855,-2.5808798297459896,-0.0857800543644105,2.316659835639296,0.33958893781110344
-0.027615621016093606,-0.12501863346230202,-0.17654888241384548,-2.5453311831674386,-0.07079797460021453,2.3204412252109083,0.34905483778573654
-0.013320514517295656,-0.09295841984760145,-0.16309610310586375,-2.5187233061775016,-0.05834446915835745,2.3233979208507467,0.36310822874407833
0.000896935212165495,-0.07609849041511207,-0.14884981559656918,-2.50431132320771,-0.04900498815639942,2.326434076899778,0.38129420840941286
0.014553274261616345,-0.07501536341217285,-0.13418576809267435,-2.5034603900583514,-0.04241092761275311,2.3301871548649125,0.40331026733889264
0.02879667693593202,-0.09071830591891317,-0.1182374433673612,-2.51777882232708,-0.037727733987956036,2.3348858374462225,0.43025422227473165
0.041805596314825166,-0.12017097503208074,-0.10257121586695916,-2.544845018324792,-0.03452035030180767,2.339317757911747,0.45851670443057735
0.05475217239314123,-0.16319338974192643,-0.08562050672583599,-2.584545476122078,-0.03126875467635326,2.3426371320052013,0.48965407858238397
0.06708674071342902,-0.21461763343974471,-0.06822944413535925,-2.6318350554339505,-0.026822500375975444,2.3433471315651833,0.5209840629611753
0.0796713533876714,-0.27235651539326167,-0.05004135758960615,-2.684251273246745,-0.01983569376702743,2.3403441590854612,0.552460204922915
0.09367757870000215,-0.3347096721484766,-0.030814441433952844,-2.7394114093270483,-0.00906835080904056,2.332463171240068,0.5841529734001485
0.10908641279667641,-0.3944455468595871,-0.011957575706734502,-2.7899920154801654,0.0050660717902726304,2.3199801442691186,0.6136705554067197
0.12672683498051374,-0.4498112048598282,0.006947686522981833,-2.833598415351834,0.022192977041217254,2.303260899916671,0.6416618892983905
0.14649381482338697,-0.4975963937913841,0.025862676027851528,-2.8668477848352962,0.040942925062154245,2.28357564741591,0.6679842208788136
0.16754439710897806,-0.5349442309498817,0.04472698159589772,-2.8869910118628654,0.059469019491820596,2.2624768129739774,0.6924367148727271
0.18835631877300418,-0.5596124730866245,0.06323019131330909,-2.892353034683665,0.07588930660613169,2.241632172656626,0.7146132186450309
0.20695747347608062,-0.5700091470806887,0.0806029345477075,-2.8822231021855647,0.08843899973745106,2.222356691576536,0.7339256634091411
0.22142583556640716,-0.56555226849901,0.09581162912075136,-2.8570942245580753,0.09603480607448134,2.205446659525853,0.749774518005542
0.23044037955626262,-0.5468957347442371,0.10767816687525933,-2.818601921598167,0.0982798151308053,2.190950817457235,0.7617460709709336
0.23352017154795313,-0.5158102852294446,0.11529094717038202,-2.769122933529286,0.095326472376005,2.178252204344931,0.7693762380738898
0.23109517738451135,-0.47504313730073555,0.11805963325038249,-2.711514982235591,0.0880938687579178,2.1663484761943703,0.7726592909743379
0.22426070956197197,-0.4281827888172822,0.1159504800637512,-2.6489824704087033,0.07797414326898888,2.154108175468526,0.7716954559500904
0.2143393153916806,-0.37909670100865167,0.1094044128091971,-2.58474863465203,0.06639649544960768,2.140623606243519,0.7666561565672128
0.20252124866369048,-0.33180017883717916,0.09920746420387072,-2.5220042945935868,0.05463674143735098,2.1254426055574953,0.7576944874684974
0.18973073534300955,-0.2899986585423173,0.08633291837159174,-2.4637525441106547,0.04369478775919866,2.1086102162464258,0.7451418560151071
0.17657158129078798,-0.25705386244464634,0.07170569880372302,-2.412933958673519,0.03409113382025453,2.090599166560816,0.7292771140325973
0.16339341455862577,-0.23568904581686922,0.056097194219680624,-2.3721664669571565,0.025926486106794044,2.0720751583866654,0.7105675940331428
0.15042485655966065,-0.22777481142109224,0.040036920528733866,-2.343416866837284,0.018950407510338607,2.053576543254014,0.68949348828703
0.13781054476886734,-0.23437392563614523,0.02375684534646272,-2.3280675735673464,0.012694701921377671,2.0354057307805746,0.666485028474173
0.1255452902621501,-0.25557916222962795,0.007383034042425685,-2.326538013024983,0.0064658164130761975,2.017356728239962,0.6420663806626381
0.11357974850048169,-0.29061099867664986,-0.009089721223856095,-2.3383608113322456,-0.00042318383436601437,1.9990048221055403,0.6165993753877794
0.10172580686367194,-0.33785719652119184,-0.025648694468517697,-2.362178736609442,-0.008763164141852187,1.9794134428787409,0.59053745988487
0.08933445972676157,-0.39655359373575827,-0.04273680514034606,-2.396663147525878,-0.01949175247241719,1.9571349163533949,0.5634345863399028
0.07676454085852757,-0.46004922440013196,-0.05931649304114206,-2.4366925797830348,-0.03243303364989458,1.9328226986540678,0.5371012814968728
0.06340715748383641,-0.5262443024858232,-0.07591926249871062,-2.4796577602629792,-0.0479393072433254,1.9058729569420656,0.5109234264582012
0.049038605527917944,-0.5912211815005417,-0.09259906233674453,-2.521993964115188,-0.06577172643592633,1.8770804965563581,0.48499782403465463
0.033724828528064243,-0.6511544321070364,-0.10955542888359115,-2.5604389737550868,-0.0853187551049821,1.848053594572706,0.4594644035711033
0.017754039935875987,-0.7023699457274883,-0.1270426148577224,-2.5921624674191968,-0.1057388767829508,1.821091409305442,0.4345915527480537
0.0017046697938551958,-0.7416792867039508,-0.14518491561345304,-2.6150380129931374,-0.1259036133971403,1.798716409019395,0.41079669260853624
0.0017046697938551958,-0.7416792867039508,-0.14518491561345304,-2.6150380129931374,-0.1259036133971403,1.798716409019395,0.41079669260853624
-0.013547697055462216,-0.7665633961844041,-0.16396588613509788,-2.627762886036262,-0.1446304792436468,1.783223864547427,0.388686372622014
-0.027302170451190655,-0.7753148958620617,-0.18354438801687056,-2.629764230915562,-0.16108780903815756,1.7761370915703623,0.3683585002891592
-0.03759247177556002,-0.7667200878493308,-0.20214816192928442,-2.6212398173016016,-0.17322412827880207,1.7784109973864624,0.35157098964912326
-0.04402055899478707,-0.7407440424766989,-0.2199387098794956,-2.6027184434137833,-0.18087643191699954,1.7895101505096598,0.33770211615655565
-0.04556735748120566,-0.7004245185434321,-0.23504666582060363,-2.576679348609007,-0.18308864300489702,1.8073745053566554,0.32767433384351907
-0.04242119181663284,-0.6478341263758338,-0.24722184732897556,-2.5444496142638426,-0.18009927641505374,1.8300334895190211,0.32088474436932746
-0.03502208061389478,-0.5863766518721762,-0.2559861992980368,-2.5079475916076595,-0.17235887047823084,1.8550822786316488,0.3169723872771373
-0.024326306314126356,-0.5199594459880839,-0.2609840471810694,-2.469276865014484,-0.16054949356744075,1.8805056647763614,0.31586198612485106
-0.011052372862828008,-0.45075447409199665,-0.2621353284278003,-2.429494062770604,-0.14541498681373977,1.90531148878725,0.3174322082433818
0.002846746135641176,-0.3869342406381806,-0.25946530633054987,-2.3933659416175903,-0.12922508116451148,1.9272821666221063,0.32184996597951354
0.01679301822383028,-0.3303394826382755,-0.2534353157732374,-2.3622776943061314,-0.11309538919585282,1.9469451098642843,0.3292805201799238
0.030259950558178872,-0.2843526207423075,-0.2445635126241008,-2.3388647754484113,-0.09831488911965014,1.964948418382983,0.34027951659819866
0.04303441344153214,-0.2517045265934472,-0.23345827175901412,-2.325613162063462,-0.08584858033452569,1.9819420352255968,0.3548815884786167
0.05508941397446243,-0.23403743068185445,-0.22066250413054345,-2.3243134533347716,-0.07617095623875869,1.9987093976947747,0.37319275079209024
0.06645344408525045,-0.23203278162211483,-0.20652817208169605,-2.336104029513467,-0.06925188941650617,2.0156824256453856,0.39501366285564554
0.077068783972849,-0.24543557051682008,-0.19114031902033624,-2.361389910108074,-0.0647226996008019,2.0330565985373124,0.4201802858246424
0.08696402116994673,-0.2729193318048022,-0.1745432965533995,-2.3994114682020795,-0.0617729616071232,2.050246959360134,0.44807730270949087
0.09618538144426036,-0.31226108590646007,-0.15670801163064496,-2.4485030480762626,-0.05930775330500371,2.0666867047103583,0.4781309981481172
0.10525022397942241,-0.36193832669723847,-0.1371766993057708,-2.507766496677715,-0.05595418532075147,2.0818872337143013,0.510334998374506
0.11410575013447666,-0.4154205351033866,-0.11731590144183901,-2.5704538495925258,-0.05065540143017522,2.0945006940202724,0.5420636787647659
0.12368293000826114,-0.47012348705529483,-0.0969675323388417,-2.634534455130823,-0.042446493812501096,2.104837293050494,0.5733561166447441
0.13506350901896713,-0.5235476140029842,-0.07589427018705486,-2.698010490258395,-0.030543762068483638,2.113594742888033,0.6044226370272323
0.14815767390464352,-0.5687379505135457,-0.055555419927816985,-2.753642870204888,-0.01593361734347365,2.1213297318039075,0.6329548388039861
0.16344145424279333,-0.6038186513994024,-0.03549464190884066,-2.800185479740617,0.000778159701705583,2.129798973774008,0.6594444970158646
0.18055960323120868,-0.6259158904447624,-0.015880882016666042,-2.835203707918656,0.01818071030111401,2.1404422112730472,0.683500028225617
0.19853569647578695,-0.6329337295020716,0.0029977186721117377,-2.8571138331659,0.03470040809936936,2.154334886941207,0.7046608953933076
0.2158595122122744,-0.6235584188673,0.020504730996590226,-2.865029877732483,0.04870208483105554,2.171880031002832,0.7224674284602415
0.2307835094947288,-0.5977310585092654,0.03586383937957471,-2.859107640285168,0.05896568427520954,2.1926227162754444,0.7365354112108804
0.2417013148970124,-0.5564628100128122,0.04813998236951722,-2.8401414084304477,0.06448124110526088,2.215416625715701,0.7465062615036766
0.24764413105005545,-0.5021338503780868,0.05660231453359099,-2.8098073552116407,0.06519999103441965,2.2385552345130257,0.7524595424222884
0.24844429644801203,-0.4381687825892069,0.060685314362189935,-2.770352119900421,0.061390678803980414,2.2601760270863203,0.7544097742813936
0.24472550510806634,-0.3688040628299847,0.06023044678442613,-2.7245832543197004,0.054213146387497524,2.2787057542243545,0.7526352873017697
0.23755317357465877,-0.29855598503245595,0.05544912361706533,-2.6756582629219015,0.045064196417246016,2.29315771623253,0.7473272990634197
0.22799580656035445,-0.23185196893064308,0.046960739214241265,-2.62687552003076,0.03538665901236637,2.303368695381982,0.7385468496540053
0.2168215161656306,-0.17272842064955096,0.035728971921753505,-2.5816530804955065,0.02630919265029963,2.3099985870030277,0.7264923678706339
0.2045686331408607,-0.12442115501768569,0.022708455855002363,-2.5431186693304744,0.01841820283438711,2.314237201585195,0.7113155353086054
0.19158394659120503,-0.08962691124244238,0.008726340958454593,-2.51431094906866,0.011731459297705804,2.3173798005577932,0.6934189045543544
0.17813051111830802,-0.06988463116989685,-0.005685582031476066,-2.4974630626698815,0.005896203238173747,2.3206750966993273,0.6732385491883424
0.1644289414977429,-0.06601814459359545,-0.020290340282120845,-2.494182113189794,0.0003116543010639461,2.324726729034758,0.6512558157982475
0.15062645748577275,-0.0778327116064439,-0.03506042741359838,-2.5049888346104527,-0.005765979596342952,2.3296246093710486,0.6279453285506786
0.13673334691694983,-0.10434689354989501,-0.04998748318165891,-2.5294556309867424,-0.01312263250355361,2.3347911692737853,0.6038133946333772
0.12263407432521056,-0.14376320261136932,-0.06509211344408516,-2.566015743911791,-0.022563005644685497,2.3391259884603084,0.5793707946706608
0.10798081683172533,-0.19356734641946005,-0.08023047347028633,-2.61209976864518,-0.034799251100479545,2.341256512073251,0.5551089092211807
0.10798081683172533,-0.19356734641946005,-0.08023047347028633,-2.61209976864518,-0.034799251100479545,2.341256512073251,0.5551089092211807
0.09228143034360059,-0.2507651354259064,-0.09519987836476762,-2.6644464390363467,-0.05027528871271958,2.3398563426813546,0.5313788038279252
0.07502355487476642,-0.3119491939238781,-0.10984064681737937,-2.719186856809669,-0.06900492416923587,2.333826790030363,0.5083250692721464
0.055829371397560834,-0.3736088735880685,-0.12419214561310365,-2.772286598301946,-0.09043865045652222,2.3227500062293007,0.4859051332627242
0.03461593734592583,-0.4322414480878436,-0.13852860918834065,-2.81980330253179,-0.11350147299794155,2.3069633120339272,0.4639192496538218
0.011776283804829646,-0.4845751318164666,-0.15332298043377346,-2.8581462033273084,-0.13677322346510135,2.2875020229168985,0.44218278052624527
-0.011736470580787639,-0.5275656310577403,-0.16890793805060067,-2.8842765331003104,-0.1585382073986361,2.2659045394953523,0.4207234839525995
-0.034428817195447436,-0.5587538981485096,-0.18534529486668117,-2.8961428862849807,-0.1771855562325273,2.2440179124729855,0.39983014514477233
-0.05490941918049508,-0.5765026163357838,-0.20257370764769878,-2.892230313264256,-0.19149010826742785,2.222793204306857,0.37951681986305985
-0.07003248421779062,-0.5788368393425714,-0.2186059025270568,-2.872882729421785,-0.19946753290536012,2.2045674370151076,0.36166936625540735
-0.07920002950537075,-0.5653139366110409,-0.23347263673149055,-2.836917855846191,-0.2009121887408547,2.188255012125712,0.3455145499078274
-0.08078151456172122,-0.5388213050686064,-0.24429981806376855,-2.7906052288178707,-0.19575423517302504,2.1752952792246383,0.33334352971313663
-0.0756825550118485,-0.5002144877524906,-0.25122544096940214,-2.7334027613663263,-0.184647436160569,2.1634501783243785,0.32415014060791236
-0.06549893239134263,-0.45512040507081686,-0.2534310146418699,-2.671864510451819,-0.16958302975600947,2.152147711664128,0.3185817756856206
-0.051866255157729135,-0.40643334615602456,-0.25113080199253357,-2.6077467918791086,-0.15191929227633416,2.13992016598905,0.3165256374588399
-0.03636758106226967,-0.35811885486912054,-0.24474824342516488,-2.5442276816025817,-0.13334580939557927,2.126057109345613,0.31817833387285255
-0.02033576627272904,-0.3139952994064785,-0.23490903348633374,-2.484364445129759,-0.11545575705755429,2.1103813809972287,0.3237425289349263
-0.004602791370166948,-0.2775951572021329,-0.22244468880698065,-2.431078880581172,-0.09945016262959427,2.093153006013626,0.3334672129156093
0.010448549693652609,-0.25185930040147575,-0.20812090851118725,-2.3870140833391824,-0.08605147881727415,2.0749648653689547,0.3473526099900459
0.024553153857450383,-0.2389755889184304,-0.19250893521910228,-2.3543426485040726,-0.07551317639966104,2.0564696457995844,0.365288894692009
0.03807484299849495,-0.2406366323825777,-0.17545662608022905,-2.334335904455272,-0.06747913893043389,2.037495247201001,0.3876983930273319
0.05022187219930796,-0.25719355380649045,-0.1580075215023271,-2.328923773142038,-0.0618237126039638,2.019198303383501,0.4128173226583689
0.061778112428469534,-0.2889488618125595,-0.13909838867606172,-2.3374102369892027,-0.057299842151707914,2.0000391503387256,0.441480015011793
0.07216980720528543,-0.33255595938745675,-0.11967548654350502,-2.3580775814599813,-0.053051463716148994,1.9805484979467423,0.47143475564307114
0.08202539904656714,-0.38635123914314473,-0.09923327217420042,-2.3888059417050735,-0.0477788821909515,1.9593364675227747,0.5026743987387041
0.09174818579891753,-0.4472273484962175,-0.07790130664834294,-2.4266712986689187,-0.040383565602238214,1.935879448411292,0.5345206163869314
0.10185927772188919,-0.5115548147337732,-0.055906603403182764,-2.468290426389106,-0.030075772251900723,1.9100750384796186,0.5663141197220574
0.11319341412676298,-0.5772684389871516,-0.03289653322102648,-2.5113013694285593,-0.016154983489862218,1.8817148691893522,0.598467756918887
0.12543634919668456,-0.6365507249944313,-0.010434083500384439,-2.5497557038110257,0.0002934321948435681,1.8538589829757548,0.6287274247821824
0.13890443529709806,-0.6875880030489219,0.01194764429857642,-2.5819590325720823,0.018816779241831227,1.8278131291809654,0.6576157594806231
0.15325138387394244,-0.7271626726102847,0.034002058848713546,-2.6057218682830117,0.038117338984141824,1.8059272715473185,0.6846464274100654
0.16772563618589853,-0.7525785157996312,0.055404307284710796,-2.619554659916001,0.05672483436687603,1.7904890394921154,0.7091821444853972
0.18130613642419569,-0.762045491977946,0.07556882690673916,-2.622869506608624,0.07308647458681072,1.7830864711906642,0.7305350826128976
0.19283760686054752,-0.7548650146124771,0.09379463516717035,-2.6159566993313685,0.08599644752566693,1.7842364601773433,0.7481244979683748
0.20126830487994685,-0.7313074780066504,0.10922978761351043,-2.5996311019909015,0.09436514586735356,1.793671281010493,0.7613769734272946
0.20584086882049046,-0.6927819888059208,0.12116607083252262,-2.5751929934038955,0.09787576024055156,1.8099377537113046,0.7702064992525557
0.20630652414774975,-0.6417795490516882,0.12906436538520083,-2.5443089038909967,0.09655398507960822,1.8310291549018913,0.7746849839352796
0.2028819096985499,-0.5815439784283569,0.13273705283362158,-2.5087852995792668,0.09100729775324279,1.8547000762798707,0.775110140970793
0.19619126734892145,-0.5158662320723373,0.13222690418336303,-2.470573491430172,0.0821044441642984,1.878909561597597,0.7718304353559917
0.18708098365086823,-0.4488259864239712,0.1278853730207823,-2.4318284456674446,0.07107823957541637,1.9020358115777434,0.7652735243435673
0.18708098365086823,-0.4488259864239712,0.1278853730207823,-2.4318284456674446,0.07107823957541637,1.9020358115777434,0.7652735243435673
0.17644181940591874,-0.3845023691013125,0.1202237332955578,-2.394917071965523,0.05917625468987442,1.9232170034747682,0.7556675860464077
0.16493731386216037,-0.32675399425401075,0.10993730934101631,-2.3623906865015183,0.04749766524176291,1.9423198627325462,0.7432760749261567
0.15304437774617607,-0.2790238312262474,0.09774323859247591,-2.336934222431543,0.03684285929108544,1.9598306062496498,0.7282345612121288
0.14106574447928732,-0.2440700666584963,0.08426904797899315,-2.3210813614746595,0.02762786543969309,1.9765188746919407,0.7107129561007559
0.12915992201862903,-0.22375522798147163,0.07004013175868185,-2.3168706728405137,0.01988298429434554,1.9931189572433041,0.6910116433186433
0.11743557833042484,-0.21901931648701822,0.05532571460171187,-2.3257615336111943,0.013302814775769,2.0101437275673675,0.6693863712316626
