LeonardoMarcello/base_inertial_parameters/src/data/franka/tau_identification.csv
eff_panda_joint1,eff_panda_joint2,eff_panda_joint3,eff_panda_joint4,eff_panda_joint5,eff_panda_joint6,eff_panda_joint7
0.4588818799120624,3.6723044863525662,1.850747811892758,-21.341769706597297,-0.5524929747353304,-2.086111368429668,0.01731891596148615
0.8304141190479633,2.301872985960648,2.066001858321722,-22.132626532223835,-0.6475595036276436,-2.2623204031417474,0.017842443542017777
1.5602785601295788,0.6052212719917758,2.9046371461149043,-23.142688429178857,-0.6083991259027741,-2.3222735829199643,0.022940729033329398
2.4653470573888017,-0.19458124463261028,3.505686010100663,-22.9996362009684,-0.7500119416233787,-2.2913447701852583,0.014220184581032583
3.3192909934922823,-0.25679544213254957,4.63216930109949,-22.078380393317445,-0.7530079508910185,-2.1916778867704134,-0.004183348807396157
4.147675835646428,0.45550291661417663,5.424334624922373,-20.729711869597523,-0.8689991570899307,-2.0427567177215105,-0.021620264431623536
4.526628252498517,2.0863514013493782,6.413767572500026,-19.262125432823243,-0.8478192522716927,-1.8154944462986748,-0.020124173596809448
4.92478022671576,4.612992901047005,6.706232556941666,-17.729544106509124,-0.8277471678728381,-1.7236413886489212,-0.03674422327344583
4.470583638771991,8.102055992282928,6.716749027904664,-16.695977529021043,-0.768492970556223,-1.5430575654593217,-0.03365276760754537
3.963067705935427,12.0459915793496,5.865507622310324,-15.963402018983182,-0.6959625666606435,-1.5116107527337501,-0.04018644744667156
2.89381415214705,16.57021830468968,4.790939764078024,-15.793194900824151,-0.5343088232890926,-1.3842032853763702,-0.02497056177600686
1.7572325987474509,20.44721322339842,3.3067962150176355,-16.182415571383157,-0.47623569146695854,-1.3911526351973806,-0.029303732392395962
0.7497161894147195,24.609728101098458,1.8064506432821386,-16.02233546153465,-0.45543117632954055,-1.4649908960607583,-0.014890299854975919
-0.2264159677920432,27.45034226615528,0.7534049966633272,-16.159982337714577,-0.41110709492147973,-1.4095119937275444,-2.3212459528322614e-05
-0.6884044584447739,28.695950709764823,-0.164503142399199,-16.188121950723744,-0.35327542135108475,-1.4569870616395144,-0.006842287056529226
-1.0620759231717292,28.390101481540846,-0.6417952672646295,-16.238612060985652,-0.4083431758742757,-1.4193797240238202,0.0034710323065220445
-1.2600500105545525,26.716748757263694,-0.8128278841435752,-15.98850595060844,-0.34400109470604096,-1.2381369870199668,0.0038183345721312274
-1.0349176030518712,23.718466746320896,-1.0961366817458837,-15.673830071995257,-0.355880633018161,-1.2636654121668314,-0.006141976053538565
-0.9592664938879875,19.89989397080322,-1.1810668772467556,-14.977034819938261,-0.3584031486708699,-1.2407964422691733,0.0016394550076345774
-0.9592664938879875,19.89989397080322,-1.1810668772467556,-14.977034819938261,-0.3584031486708699,-1.2407964422691733,0.0016394550076345774
-0.9557036812023316,15.158600306234836,-1.2246599661722681,-15.315652024444088,-0.4003762936236247,-1.1597438691870312,0.008044278770818699
-0.6456409486125436,10.468578034562016,-1.2858397487059405,-15.469603625968958,-0.4329355334659082,-1.3591358766180763,0.0041526449487611986
-0.43557306136371027,6.057463374919531,-1.480146064083425,-16.395941388701054,-0.5012647195598712,-1.4301837031003037,0.0013868815920186134
-0.3844027871676144,2.0485715506407467,-1.2425124912831902,-17.51481064905129,-0.5102227565531039,-1.5971794117440057,-0.004824621416905936
-0.21554076611481543,-1.6443128018843294,-1.5352078140894592,-18.867320408079642,-0.6518826196672942,-1.7963994567293782,-0.002776892262980296
-0.4341364094159478,-4.386779401232521,-1.6351189152188073,-20.074862559872443,-0.713805220834884,-1.8397868162618283,0.0017859179050406006
-0.8351369997459595,-6.884727722296068,-1.8962470536666824,-20.849472373584938,-0.7997239877252887,-2.0310268495586086,0.0024390181574940927
-1.3391941331422659,-8.468684061271007,-2.1360107043731844,-20.861521220645674,-0.7251306816263318,-2.105745021292545,-0.012746806837307294
-1.9822111321857174,-9.541247528835807,-3.043983201594874,-20.509007543875512,-0.7996195437646624,-2.0992616218839153,-0.006692195357042092
-2.7438903711850564,-9.328205580438503,-3.685016659245004,-19.51767645743628,-0.6758204849343896,-1.9665063926348303,0.001997011098184472
-3.3149011977515337,-8.451622515121656,-4.912170174729665,-18.50592276527552,-0.7537846613009689,-1.936544673985594,-0.011907760693016257
-3.806048826787282,-6.119736737135937,-5.619646053361385,-17.3284235782223,-0.5835819858930933,-1.7462166327287216,0.008402015444053305
-3.862634893925708,-2.809603767980172,-6.583402618764192,-16.479424390802592,-0.5797812956143794,-1.6035215926857207,0.030176497063326098
-3.803498940560533,1.5925753010378947,-6.944682224465519,-15.924213208460369,-0.53829218442523,-1.5267500525366136,0.018377845202497384
-3.5130113874693096,6.606557692369434,-6.699911783102403,-15.807804659065884,-0.5007957679269828,-1.4699858338671021,0.036109818394725254
-3.026316241633273,12.28595818978687,-5.790377861225773,-15.878965346993752,-0.38912977766599793,-1.42038669414572,0.01707671334220482
-2.2834833302918986,17.849801193355383,-4.759695667540598,-16.418804130901997,-0.44272264773113823,-1.3599524683110913,0.017611719176322805
-1.4332181496878704,22.78080864054476,-3.557962477313014,-16.72508210697633,-0.45919903385410393,-1.4709381122337246,0.011998635033945496
-0.5832469347677144,26.958492437807035,-2.406328526399483,-16.987217348575026,-0.4168772256027407,-1.4900208631194294,-0.0010817486440457907
-0.048324969609788694,29.479132720109984,-1.2772898884841608,-17.331390928114512,-0.42968891293469413,-1.4052772625139496,-0.0003707055927720344
0.39089175096979756,30.40798056442405,-0.6904397009385426,-17.078494193912842,-0.46617821607473264,-1.5035808618939592,-0.003630627223594971
0.6630540843677649,29.486170323426272,-0.321763635451473,-16.909818612211208,-0.42398952704333187,-1.460661090466807,-0.003041124323459707
0.6732233916479554,27.464379554071876,0.06551093636540392,-16.261468575674154,-0.40754243550134966,-1.3051480529443678,-0.003958509784942051
0.7534887320391407,24.186334224852242,0.1305662967592203,-15.500181241115925,-0.44215537858736526,-1.3688044198923097,-0.011907838057764002
0.7268152265531389,19.770739685523733,0.42460879406470675,-15.447037758219604,-0.4216006958764955,-1.249343721486369,-0.005109762336921519
0.8246571905455952,15.372940104944458,0.5762807529299695,-15.2800942338967,-0.4785038646634365,-1.363655846749243,-0.018758510481112014
0.7491761502856409,11.021182107816188,0.8709492947090385,-16.202793824639375,-0.48224580938868755,-1.3517510571587872,-0.010590559388558914
0.7110413400975872,6.9580704992762135,1.0866378636378096,-17.380205304166637,-0.5674387114922053,-1.5087025011482085,-0.008276899397642928
0.473132432566647,3.840045339554172,1.2245614709123536,-18.72007307121358,-0.6305008133332148,-1.7091614092679384,0.0047792783562810685
0.4303851397666215,1.0215113180130693,1.3580589912378018,-20.408893373336575,-0.6249761861515967,-1.8539780737694584,0.00890729940078735
0.40100144431363544,-0.8043544548318519,1.534179908145135,-21.58611567629655,-0.6627528456367783,-2.0259592515748177,0.02000737198440824
0.706770390280264,-2.28044131279377,1.77759504200428,-22.49919540364781,-0.65726071658422,-2.086277731696469,0.014320107748302602
1.1879100559091418,-3.046544453496858,2.1994894949894275,-22.693146593916364,-0.7024327249493444,-2.140775737874859,0.0195319920675575
1.975766568815661,-3.389114729212275,2.7891146723036453,-22.530607141644772,-0.6734831856100273,-2.08657935550419,0.01828290303559809
2.65000950040558,-2.449447070013339,3.4735819095705533,-21.415444923848632,-0.7631206350774746,-2.0010578237134418,0.0039950784027290055
3.35457987357448,-0.7507380885091195,4.249209199267918,-20.1179404917266,-0.7705689049480924,-1.8429879730769825,-0.02115508574324769
3.777900168839448,2.094144139411841,4.949995864067763,-18.510480140863574,-0.8342214454730054,-1.73649215381789,-0.033665867177535974
4.1619220544879285,5.7791146217770955,5.436774263841137,-17.136210191658268,-0.7609543077324954,-1.5991792163988225,-0.03535220677650733
4.034788621974784,10.501963381207183,5.39059137754665,-15.933161912490096,-0.7077459008670131,-1.5245978705075167,-0.051327699809057055
4.034788621974784,10.501963381207183,5.39059137754665,-15.933161912490096,-0.7077459008670131,-1.5245978705075167,-0.051327699809057055
3.8632405491422883,15.71611472025704,4.7384620267128374,-14.805809548632569,-0.6298404019230226,-1.5467515230978444,-0.0254793482405982
2.9667724470898893,20.72826861521562,3.9655383455546427,-14.317401052070956,-0.5510940198383482,-1.5111066657838046,-0.019735270148620386
2.0849816551732885,25.180740933315953,2.8125886775404787,-14.192142321887196,-0.4109988100348922,-1.5062922846237587,-0.02137882715111843
1.164212398642595,28.7343558949522,1.6589643918595949,-13.95507125922801,-0.37367987090568244,-1.5761566612688789,-0.009583303232981129
0.33714604005524,31.074145622731248,0.6722705171231423,-13.88519575726115,-0.30739618779474276,-1.5846195851003442,-0.004918306271260796
-0.2400644544683715,32.259067802856755,-0.18912475786515207,-13.2920914676778,-0.2178890256258405,-1.61964563476373,-0.000752373144733476
-0.7240376101944626,31.82314737506124,-0.6933269066823482,-12.951929205376063,-0.2402866878732031,-1.5568411111969276,0.013779180605501118
-1.0698877407425857,30.016860683849206,-0.9007061327712719,-12.647447436805471,-0.13505217193912783,-1.3926662094181614,0.0035425903967290905
-1.146546067233765,27.23967662454814,-1.35627776707552,-12.236191219163523,-0.1469348700044002,-1.3958439556373055,0.006816224643601518
-1.3767120492474512,23.58589373759012,-1.333448166051346,-12.320288014800736,-0.1307385869680645,-1.303697652785309,0.011024327522085833
-1.2771209845257743,19.707056348125327,-1.5949919456036634,-12.722090858155509,-0.21929628899549977,-1.3699548473351122,0.012715593251240232
-1.0428799989372903,15.71174837878449,-1.631461432734376,-13.671406480257474,-0.22914939957296357,-1.4359796570086742,0.006062069742420131
-0.7352530991089246,12.080107437818578,-1.3664384368707936,-15.215799953180035,-0.293134969876705,-1.5421412273776471,0.0011327840981915059
-0.479756825209028,8.722205884205058,-1.231893446875984,-17.172349379595456,-0.44409073165234775,-1.6594080846050918,-0.006457303985675547
-0.17832248423186645,6.062789651141379,-0.9754499970326949,-19.15080717324754,-0.6121823596754087,-1.8769655921885324,0.0002639617622366636
-0.03887199610308286,3.485996392936778,-0.9845874521320584,-21.173373865968223,-0.7110304678162547,-2.034590765948828,-0.019285843145476572
-0.27142634409521726,1.750220263017328,-1.0469038088898137,-22.41990709427096,-0.798597221721774,-2.2049569440398957,-0.009684628604675276
-0.7560930840163321,0.2939944548798157,-1.4996273305693584,-23.173777689725338,-0.7925472318245552,-2.2446577845552147,-0.01337897298771259
-1.6012113773937438,-0.5658258608350629,-2.1032727700532883,-23.097038971285862,-0.7552207359135834,-2.2796728418006333,0.007869351916784343
-2.458473767004023,-0.8844166974954246,-3.1161201512734387,-22.384990204572034,-0.6562174234989686,-2.1679093003238976,0.01331099046920539
-3.4657475186595006,-0.4484712058515003,-4.227154405287374,-21.123486386732814,-0.607041131137991,-2.08553344939383,0.02416793611798145
-4.048359440482207,1.0201088492045254,-5.340270192329251,-19.49887186636177,-0.43557060861026387,-1.8811220723555397,0.03376238546023925
-4.513695264913165,3.4334891002454597,-6.204494331430178,-17.91123300807494,-0.41067415748034164,-1.7705755219614114,0.04575069246591497
-4.489901375579928,6.686854462490338,-6.601881887364007,-16.650453843903765,-0.32339925753502313,-1.6522569669743807,0.037149247861939606
-4.169397416356892,10.818766309569611,-6.197758387099906,-15.729436500243096,-0.23171676412729675,-1.5516622417647654,0.027821522580769184
-3.427982390458273,15.157934151317507,-5.499494341084975,-15.516750062501314,-0.3119817685424115,-1.501699044032694,0.029111829882345976
-2.5523649465841083,19.675659316514498,-4.177439615593983,-15.732515465749067,-0.3269711364740759,-1.3937809637889789,0.018105401834682577
-1.5105737923532754,23.627378979133233,-2.941577463736332,-15.893298336714246,-0.3930580217812782,-1.4847192402003768,0.007626888352801305
-0.5641732759838981,26.746844941331933,-1.8085442035615324,-16.227655095281843,-0.3850444041687017,-1.4746127338421005,-0.00439923949118597
0.055856489654540355,28.648804795141434,-0.8554669152877811,-16.428728410429244,-0.450821766195453,-1.4715373565184597,-0.00873112240599684
0.5029052016010749,28.961969513986958,-0.3194350162224985,-16.412663413127937,-0.4145443996731611,-1.4144423913851403,-0.013224746891999182
0.5552521385688288,27.62993249242732,0.12736386297041682,-16.393023841089366,-0.4272431377254516,-1.2618516262834107,-0.007561261000720197
0.6507822139598299,25.226793023542417,0.19503082426999482,-15.678309026497363,-0.46529365651304544,-1.3290164616899913,-0.03168537428040098
0.674257479048378,21.361042757898176,0.3410968501041192,-15.478681978134363,-0.42647357974890526,-1.2635421144667889,-0.021435805173803626
0.6024691221278314,16.863053818071418,0.548981461228897,-15.30363981277407,-0.49242203246968974,-1.2478429797367951,-0.019081817085507515
0.5101185442130847,11.867417161098018,0.968339131408846,-15.816862668225678,-0.4979156120801233,-1.2004394655157857,-0.009105281397498052
0.6009387127321959,7.26305999105054,1.2707050264378867,-16.292729413573497,-0.5469574312135708,-1.396025396745209,-0.012841816586433647
0.540781859985663,2.9761919267441277,1.7063798659024778,-17.44909622463113,-0.5953268302455847,-1.463378160972974,-0.0006078021233818569
0.7065054136165062,-0.6959823445847684,2.1084541074631176,-18.459760312084025,-0.6192287892287632,-1.7372303353675236,-0.0001219707784929486
0.7571125838129081,-3.69694177883263,2.6847328969549205,-19.51190578804585,-0.6030436142630587,-1.898618141333221,0.0008436592599846194
1.1346731787756597,-6.223898257197251,3.0071309738514995,-20.349728598801992,-0.675744328232333,-2.0157414935240947,0.011234341464329271
1.5520554289365087,-7.967210156899005,3.7335743324399187,-20.56188337419491,-0.6352301184828051,-2.073396556978599,0.0054609441270842395
2.261030370436254,-9.002078880219527,4.254340695068537,-20.318814798334824,-0.6935342459303877,-2.0278336680030122,0.0021015674013430386
2.9903908318344543,-9.522841425650746,5.272908111354944,-19.681196052030757,-0.6090962255197494,-2.024485845754106,0.002172918219212408
3.7099921100029785,-8.70350640516029,5.9277442183459055,-18.721699538897067,-0.639126970866132,-1.8932793141921311,-0.0008119055220093838
4.15920214010385,-6.842289545910682,6.859949042680367,-17.673758144676796,-0.5720325295697997,-1.7806746818874322,-0.014003352175293735
4.480555113259024,-3.811375329713067,7.204413944564296,-16.90921258581329,-0.5749962141346957,-1.6711868614660255,-0.01758339725241422
4.480555113259024,-3.811375329713067,7.204413944564296,-16.90921258581329,-0.5749962141346957,-1.6711868614660255,-0.01758339725241422
4.209532286785684,0.5074592946321792,7.326901258114584,-16.468556154104125,-0.6100675664516397,-1.4725376093706444,-0.024515134430557278
3.8323262056355647,5.583002732449059,6.956557688801226,-16.314175884883852,-0.557026309573295,-1.3683669341653855,-0.030275126558507247
3.1490769692133593,11.089634350746694,6.088006225547319,-16.541214339336292,-0.5394011911927439,-1.3275117302917858,-0.029156491377812024
2.437901643452059,16.999227471942856,4.714701159529508,-16.600223290170184,-0.4978749031405076,-1.4249974281834321,-0.02562757408939411
1.3982260124096388,22.317087193154624,3.3224753116062686,-17.11987474650477,-0.5260408014562323,-1.461292231796584,-0.011165526533059002
0.5488300955946273,26.740361159793547,1.9496609800428522,-17.40498475729028,-0.45814737346062984,-1.5284632220021186,-0.011563632347119632
-0.3785034226167432,29.531665832294923,0.9790943709464,-18.0633509878657,-0.4193026328895035,-1.4067980992821887,-0.008473906264709554
-0.7860188588541736,31.27490235423844,-0.03494260186591919,-17.548344030070957,-0.41713323329877566,-1.5064864497985813,0.0014996729776835512
-1.284596514832818,31.01322647629863,-0.40965954544959093,-17.153184847116496,-0.4277061702843884,-1.4228724502794712,0.006956679028785865
-1.2803071207669752,28.946639615510797,-0.8057270447954895,-16.553349055391276,-0.3666748175890192,-1.444291299003275,-0.0028360467371417184
-1.346965528906077,25.605700394174956,-0.9560574752371045,-16.253921266822736,-0.4130488857595488,-1.3887722774006979,-0.0002851410792935104
-1.3058693525298648,21.71647700487108,-1.0629522882389904,-15.341736914050369,-0.3952149940356461,-1.334908999729095,0.008415692381930238
-1.1250723817389379,17.12290004374131,-1.0984650282929989,-15.109190564265212,-0.3497127491598661,-1.3473523677482886,0.004150716503452948
-0.9734514796944412,12.5099694804701,-1.1293311414450768,-15.618085907468055,-0.42196503916645073,-1.387360230830786,0.004603288655143394
-0.7188446375922051,8.46447465523019,-1.0558424086537723,-16.582184402821525,-0.4948526467020898,-1.507715066744996,0.006908803473632051
-0.30853041515038326,4.8306895758693384,-0.8511978260073734,-17.892684465519373,-0.5108169952273552,-1.677623755678349,-0.0055783717646900694
-0.23476234895884002,1.7307281945223467,-0.6345646977575772,-19.722365569784575,-0.655095397735446,-1.8212033466706725,0.0028403203898692184
0.08161195585053059,-0.255204236144581,-0.2740610008932794,-20.906125818745057,-0.6495766042351098,-1.9920989542721625,-0.014699520142129576
0.013962368751482077,-2.083313919345184,-0.5460167249972531,-22.10007587925734,-0.7825734741581779,-2.121313915082876,-0.00921527602033862
-0.44169637979737814,-3.125184472559065,-0.5341194851855154,-22.589694251196747,-0.7318891824012002,-2.1695605163716127,-0.018477006696385107
-1.0360798144789005,-3.707300670781008,-1.2753728679848326,-22.559014958289218,-0.8073625852441605,-2.18220312563084,-0.015633839756650662
-1.8368043020689704,-3.2676679198665903,-1.7571983536289877,-21.741433924894057,-0.6497148820768094,-2.097448957668624,-0.013784523633508473
-2.4850602857387645,-1.9338323459146076,-2.939513594223724,-20.488000365946398,-0.6300510899792205,-1.9936757179691196,0.004062147983223009
-3.2128316524295237,0.493106310895137,-3.709957064379137,-18.91829488687356,-0.4283015232435845,-1.8577248950978411,0.002405543832909367
-3.489564213186778,3.947599975195545,-4.822981638520881,-17.331811442346936,-0.33999519609879286,-1.7428093380452665,0.036030232000398274
-3.8360348846761823,8.144291251055238,-5.3565120178963275,-16.024604118886266,-0.21699100465543592,-1.6611086374556665,0.02779670497291621
-3.9602595166492467,13.068571907680823,-5.2580045012990935,-15.21467131885062,-0.17155958536207258,-1.532943921282907,0.024527927920518708
-3.636424474428397,18.078080003846,-4.643773236624643,-14.573859934173202,-0.12670909614560255,-1.5120137795226412,0.027544387914029658
-2.9206980944513217,22.92242318699028,-3.8366900848800336,-14.109260735179921,-0.1751539915060566,-1.5932040143440267,0.025021672357997557
-2.0689690438067716,26.98471142320144,-2.761456115723355,-14.00830137469865,-0.1601012490878888,-1.6167261487889142,0.007623634004865886
-1.3331207564112517,29.97450587354504,-1.576217454549039,-14.097407829311953,-0.18762461717289036,-1.5376035342359842,0.006273876079897743
-0.5880005240184272,31.910773949254217,-0.8856140385275821,-13.632633354024112,-0.2683309590870272,-1.6332427751284704,-0.010589847252450596
-0.058823048862166084,31.99516159386417,-0.30048461042353414,-13.488952019176605,-0.23774923526844982,-1.5758404030612085,-0.012844233128928668
0.21614930251156017,30.848075363645968,0.2352424887143111,-13.260141863549418,-0.237398573651903,-1.4222026292937053,-0.0041037866292584595
0.4885896910841004,28.572481147079152,0.35082224991284144,-12.777002908064011,-0.32123126385674455,-1.4457217770447073,-0.007527272049839516
0.7259363641045307,25.307132826922548,0.5724241772517389,-12.605369845894968,-0.29297755708177015,-1.394896344937344,-0.022184840670377057
0.7987959075162394,21.388843873011723,0.8191746975936292,-12.853123076818715,-0.38847710545587555,-1.3627847049851156,-0.014174816145122495
0.9303191290913361,17.331377931412405,1.0614673947472784,-13.536974453915805,-0.3903632839712853,-1.4082520016292144,-0.021262635015425288
0.8379493159843866,13.477599837736275,1.260757106979569,-14.867695270724896,-0.49587757613435324,-1.4780715871270045,-0.009817305527152327
0.6672639836932379,9.862107989835676,1.5605955293503222,-16.74096487256851,-0.49258229848873797,-1.5739274457946897,-0.00863380443057828
0.6251276649654559,7.039863718637231,1.4678929707140136,-18.54635953972285,-0.5734504730508833,-1.8359096211168433,0.009223182476692945
0.5926813331731696,4.359512561014715,1.629616964725865,-20.581997513698493,-0.5894754235762183,-2.0314513231685956,0.019706858716218266
0.649257071009325,2.4945774075337566,2.0773206069400483,-21.97411529165363,-0.5560665435218536,-2.1827474713564463,0.02113446309914351
0.9422180743496262,0.9976233099913576,2.3868914294923522,-22.903934834229535,-0.6599693763354328,-2.2165128510300907,0.008005907149393022
0.9422180743496262,0.9976233099913576,2.3868914294923522,-22.903934834229535,-0.6599693763354328,-2.2165128510300907,0.008005907149393022
1.7493004531563525,-0.4724741885603368,3.1252149989711513,-23.50018161734143,-0.7003366496304723,-2.276491072342403,0.02631247486042435
2.66269123777666,-1.025705243740147,3.9696159649818674,-23.01769924091263,-0.7211342761881827,-2.1772591671930983,0.009249779223184752
3.4551387693802402,-0.65939444764079,4.936152753843178,-21.775320106121075,-0.821534336672396,-2.0748167226906173,-0.004603729660128664
4.300320913607014,0.5905437766885637,5.985611432779438,-20.08847927116592,-0.8056257566152327,-1.9565332163648346,-0.031988672663605666
4.856023547952194,2.68214614831122,6.56400282283675,-18.661587843896577,-0.7989785935860971,-1.795970443152795,-0.020656236346113625
4.8003611038665674,5.918195574116348,6.942727260714425,-17.278526489239926,-0.7106411656850832,-1.653884613261051,-0.03235995906542231
4.334188442495294,9.937746949125813,6.479201727221672,-16.51004532266333,-0.6925127482500014,-1.4691278774057592,-0.026658785563300473
3.6107239300983305,14.493450325333841,5.427524290421231,-16.08332836878467,-0.6349185369454131,-1.4908440508314245,-0.03115055354761925
2.4714108495715825,19.06164563211598,4.2247427767290775,-16.279168331603056,-0.5027420581625067,-1.381954631149212,-0.03077391272696462
1.3421487871221514,23.507471838663665,2.794654938840145,-16.4425854139096,-0.448750567109001,-1.374434405185899,-0.011012730437288966
0.5217577179605942,26.893208930126665,1.3672352743240266,-16.59008519633705,-0.4082869725550392,-1.5016008806179815,-0.013920129566281466
-0.3386321422574445,29.219564541888378,0.3593936566295037,-16.778867025177842,-0.44670415848810135,-1.4851728234299137,0.0023855698849314035
-0.9145594854545822,29.65998667079481,-0.20250894192469673,-17.06259226406377,-0.37060620589205584,-1.342861747542608,-0.0015525210860881454
-0.9930201536253238,29.0418383100278,-0.80129309760074,-16.476316276184168,-0.3708656096840365,-1.3564159470158768,-0.0008242586840502441
-1.2048195153275663,26.63046093062916,-0.887394161517259,-16.16548578760747,-0.4135161380187577,-1.267145311320397,0.007222068328231556
-0.9971916069523563,23.003609235712762,-1.1043614372076935,-15.628937016645809,-0.3788706988633713,-1.2819326004971663,0.0006773842481047948
-1.0296681169011366,18.45503518987466,-1.145911790198743,-15.44959925069432,-0.39838727526900447,-1.1364738301128723,0.009404964042836191
-0.7937564226089111,13.718312813291666,-1.3108277950676233,-15.396410957371637,-0.45617389429540706,-1.2571847974857966,0.0028930890022345087
-0.7295483273623201,8.691919663994806,-1.3979126565026596,-16.036547396924483,-0.495659656976428,-1.2770350160705615,0.011712065966347609
-0.5880284935248853,4.242992765700993,-1.4971733568116072,-16.80029652832886,-0.5726168373140658,-1.4423334951413702,0.013181538221867854
-0.459120504402731,0.16113355975616483,-1.5952793531720344,-17.99007769945182,-0.646090860512561,-1.6529278257051792,0.008539943966035727
-0.4293787756804209,-3.0879694309155017,-1.6425892572540404,-19.18420735292972,-0.6769220562638975,-1.7501695648824278,0.002004142676689881
-0.6279930486240903,-5.695152899942365,-1.7934262185556833,-20.055443479348586,-0.767983685602898,-1.9439776817725334,0.003299200179432458
-1.0413776980730496,-8.007987716325397,-2.1263289340127107,-20.702393757501124,-0.786769247387181,-2.017509736966939,-0.005481339449530904
-1.443358257299433,-8.995007060335116,-2.605135664292946,-20.346712322838293,-0.7774532915298229,-2.0572595836709584,0.0007282777079252705
-2.2640291629195244,-9.719721960267387,-3.1727818311003153,-19.844982151779373,-0.7074268911694968,-2.035706232861296,-0.005176877644002362
-2.9803648402249956,-9.435698427132886,-4.331571220741062,-19.088404754722774,-0.7480577831808577,-1.8529741395164439,0.014676822603703123
-3.5440828417759467,-7.870177248360197,-5.3015121983299816,-17.943633601368354,-0.7355640712314921,-1.7814774541869396,0.0286786494734929
-3.895509887133467,-5.260933613853313,-6.128779428050799,-17.07527495402596,-0.6307491936972192,-1.6010103933767754,0.030332364708289594
-3.9679754629566264,-1.455454847460306,-6.695257124826007,-16.370299639314513,-0.5778032331587554,-1.4864425181106056,0.04130738914687621
-3.843799382160617,3.302576584622085,-6.854545577194218,-16.050866720453698,-0.5258364458023584,-1.4171226774922543,0.030954996090309047
-3.4421457973790495,8.698291677723947,-6.490613608493364,-16.145271071909804,-0.539102662161861,-1.3924893019714293,0.03776080437961286
-2.8224934298788527,14.483659136473202,-5.6208575798633,-16.48058216221641,-0.5139496944194487,-1.383306276388006,0.02854444056836249
-1.989591143416932,19.931904319431236,-4.50896478088139,-16.781866177317998,-0.4875016954572163,-1.4621917339810373,0.014894986675944567
-1.1288097858594188,24.73991511751379,-3.294408562895255,-17.26353944944424,-0.44668625409305135,-1.4891280689216233,0.000574060490037445
-0.48567408462449774,28.31095606546383,-2.0130849842063308,-17.833812472092394,-0.46448384756387745,-1.4026440707547365,0.009216578141100088
0.10827658635337548,30.541941608255385,-1.2167740325033702,-17.675863706007704,-0.4909129598756067,-1.5150509321284313,-0.0005143276078997375
0.5226832419832511,30.931844203876537,-0.6720661160626281,-17.471634965168754,-0.43901210931513035,-1.47989326618123,-0.006611246375213194
0.5740459660586239,29.381654163584887,-0.19285218291999504,-17.402622452903916,-0.44792096195862807,-1.3451931887681075,0.005886026344699984
0.6975576605194861,26.99851443709288,-0.09391828094089694,-16.271559785530194,-0.457236401493909,-1.4012726997564127,-0.009756518560840227
0.8090067905510961,23.212488805907647,0.03801234782027364,-15.591550731327878,-0.4065367617295316,-1.3461192317293955,-0.01860085481416452
0.704271350501754,18.62871338175192,0.3568074591522078,-15.605959761303447,-0.43850878013607053,-1.2465768813124822,-0.01029556378715857
0.8373019965703131,14.103012264171362,0.6561245800802207,-15.60108562720655,-0.45090836579385335,-1.3929492124344949,-0.016204193090158688
0.8586335822396944,9.661032867641358,0.8138443454273531,-16.348916930330656,-0.5189511363667321,-1.4946753575298168,-0.022317511689849745
0.8586335822396944,9.661032867641358,0.8138443454273531,-16.348916930330656,-0.5189511363667321,-1.4946753575298168,-0.022317511689849745
0.5613079789264088,5.938153464133,1.0795325291721873,-17.677974832422475,-0.599792969524131,-1.551178217830729,0.0005667145626757797
0.4562493932334241,2.5479147493853582,1.2499636978296622,-19.28752706294557,-0.6426346419239788,-1.7520847452315855,0.008101346066662506
0.43913169949360853,0.05240171577475147,1.3710664702368822,-20.849299103255525,-0.6418827366187384,-1.8897692132664168,0.010708389767786953
0.47307211301037183,-1.6315929954589004,1.5768905672429268,-21.92775400240718,-0.6843312714027168,-2.0538840991395633,0.019194762320293372
0.8586083070602628,-3.0305368056134165,1.8820924399134311,-22.758518699683865,-0.6662680970695413,-2.1040820169362737,0.018156729224074915
1.3589116826807113,-3.4550837316325804,2.3181228619900818,-22.680307856997388,-0.7248095210704517,-2.1303590404331065,0.014942097523460953
2.0518483896846624,-3.2132453524670557,2.884577391359594,-22.084380992666237,-0.7272115353160951,-2.0214820177216146,-0.004523273259498047
2.795266794293061,-2.2741142242595376,3.6504077946749747,-21.09556921983034,-0.768324134557808,-1.9594104204407135,0.00105291852010777
3.4531476773243863,-0.22784493120011245,4.410908009011744,-19.760305709616045,-0.7678319939925594,-1.7976739832133615,-0.02529835288305176
3.903793531118415,2.906965320494511,5.114626996403702,-18.27687648940231,-0.7744479961393993,-1.6973999834534623,-0.01609453533683821
4.115949334546812,6.9972127764669425,5.359584437097925,-16.915389118440253,-0.7627063266733577,-1.5871481810657164,-0.03563500526977301
3.99629995500194,11.856213072099072,5.327344985983384,-15.918312399532903,-0.6591608306914443,-1.4918520159826532,-0.030031959942859815
3.7166002792374147,17.021355337316276,4.517100622968101,-15.030318000500316,-0.606795577554518,-1.548463279344993,-0.030008797705947998
2.8009087596183457,22.102368881896737,3.7600501914529345,-14.787306886558214,-0.4976035577886061,-1.4878130578908895,-0.025936814713636826
2.0811084533078037,26.59550232392866,2.4043175472763907,-14.4950575544836,-0.4250171217635547,-1.6301464973245343,-0.022887772425302953
1.1125147597722214,30.0025401548072,1.3475297602312368,-14.470597741187621,-0.4003350198515494,-1.6320838423066286,-0.003148893492782776
0.26998923214173504,32.02134878039911,0.5859725558329667,-14.433178855486661,-0.2608819118137538,-1.540211965490638,-0.00874368173296582
-0.20942723306355568,32.5667262055771,-0.28404933529539367,-14.114928491512826,-0.24767419102829952,-1.574152247459336,-0.006688789719238859
-0.7770981587170098,31.948846704880836,-0.5742048046379012,-13.46476240154189,-0.23286869371607596,-1.4877066455641845,0.0029959537343522895
-0.9538635862758122,29.66665943346178,-1.0293682603618333,-13.123246092890753,-0.18973810393451288,-1.4884301256267634,0.0012513506157552348
-1.1868427798473904,26.654674210424904,-1.2898791514898418,-12.710963821782801,-0.22466378277953578,-1.4026660392425494,0.012180636215484092
-1.1911350275064616,22.897478874664753,-1.5060865383581197,-12.661044520384756,-0.17702461035709854,-1.3674257990376248,0.0023554835043217994
-1.2887113502490621,18.740334813197272,-1.503148994264904,-13.28082753423351,-0.19004050238995263,-1.2927820029193835,0.012535250444542418
-1.0231975411746546,14.800462034110318,-1.5998209900304718,-14.246712580312556,-0.30931823259718383,-1.4414098266196467,0.008913799360208146
-0.6478903461865156,11.179920374868036,-1.3285054918364951,-15.798958106154274,-0.3347389068276168,-1.5708612045307084,-0.000216009489579409
-0.2326224317163569,7.9477047582232565,-1.3533106509983446,-17.7267852394739,-0.5204096786196699,-1.756264524449562,-0.00155514566251867
-0.08624350093630413,5.12208831915963,-1.090362958346399,-19.808742756830167,-0.6185806350638787,-1.8870102905568524,-0.013155404855194123
-0.10340064816365778,2.915013519168426,-1.0050074747525843,-21.524668553329413,-0.7567383507173352,-2.09756235081932,-0.007724959545664708
-0.3237403769829471,1.1339400171742715,-1.2320294648331958,-22.76963985787216,-0.7785497701632833,-2.1918094610781838,-0.012855510324949509
-0.9487702618269486,-0.044796936938977405,-1.6106532197603745,-23.170576646259505,-0.7964670214277977,-2.2726299079258174,0.0015684430846688246
-1.808084178560751,-1.0997187735529723,-2.4689344745768107,-23.2017341812987,-0.7605758480409679,-2.231016565162557,-0.0026355868007649067
-2.7288232362383447,-1.0385830037372978,-3.392891878551957,-22.142095566945653,-0.6899887312014642,-2.171757733089503,0.017786439855558327
-3.5115907993196656,-0.329696708035692,-4.5775623980774744,-20.76291607096003,-0.5439970613160316,-1.994016853470532,0.026490672901388596
-4.213699785134459,1.412479700690446,-5.650109684351664,-19.11761519268751,-0.4937045191749893,-1.882037520911012,0.042076388570554145
-4.54206459264687,4.096503456997993,-6.385172240796857,-17.68548220022936,-0.37288644177891694,-1.681807929858696,0.03629396926195881
-4.358333022732178,7.687574453958107,-6.756186273851334,-16.458694778948587,-0.3035110014630641,-1.6339702920708228,0.029074452288893046
-4.144917974582155,12.101606662430497,-6.218250969070413,-15.871938474554383,-0.3560025272569277,-1.5051408228284393,0.039839903793604504
-3.291950294889058,16.708574834882974,-5.304842884197754,-15.656794318091986,-0.35392080874528487,-1.4940937383973232,0.019039583700904326
-2.3275780449804224,21.055517747945586,-4.027464480610922,-15.919836700207043,-0.38256825527513255,-1.483097377108043,0.021995865307077492
-1.2628268332585522,25.10607489619713,-2.7631569125999715,-16.212067352191678,-0.3741937332274749,-1.474719449250802,0.0014630719675295099
-0.5161659085696175,27.75180155128909,-1.514336591914875,-16.8512253312931,-0.4179494252238398,-1.3798602850074964,0.0037483607445373906
0.15379565117621855,29.17305558610472,-0.7372769856134485,-17.040057646561763,-0.4824615297392333,-1.485688655666914,-0.0035264625250435895
0.5802394808773074,29.44771922366385,-0.2645408700559576,-16.54773625328944,-0.4203912229387581,-1.3997420032871146,-0.020038768428417515
0.5701989885114941,27.502665182556694,0.12586323528377327,-16.584414046019432,-0.4368630276270779,-1.2366139390484352,-0.005141076664709091
0.5701989885114941,27.502665182556694,0.12586323528377327,-16.584414046019432,-0.4368630276270779,-1.2366139390484352,-0.005141076664709091
0.5907835416444627,24.057512046849936,0.1783233636328874,-16.310759520779808,-0.4846454044706522,-1.310994176133154,-0.004530036140401116
0.6447328523787865,20.032897330255235,0.3285959668932328,-15.5967108265119,-0.4368374452814543,-1.2536371093908762,-0.018553918919238983
0.5104756408942036,15.06567554687011,0.6521165771376816,-15.660663779571031,-0.47295969740032684,-1.1636665668901833,-0.015555998818155899
0.6616352203893004,10.232094242555872,0.8976001213789381,-15.823353435538069,-0.49256681278370773,-1.3059052077158881,-0.022225066212250493
0.6395465575034537,5.734701350584241,1.3203364337501249,-16.60024141687128,-0.5502291822992335,-1.4410951188845962,-0.011419051014344225
0.5461386767403122,1.3882667497883932,1.747185697411629,-17.787070074468964,-0.600122816208336,-1.516153967076049,-0.0005341417040120137
0.6021839746751796,-2.2617850992917483,2.208603363286607,-18.9209050648084,-0.6622424260624814,-1.7545972240199679,0.009939802477140679
0.8088730042804172,-4.886349480788881,2.6259903108247706,-19.839676664402738,-0.6575951023010482,-1.8338293512893717,0.010387177956155054
1.1838193516257915,-7.211369911596044,3.169465071792511,-20.423701151116816,-0.6975844053534835,-1.9948139684545783,0.017745733942436146
1.6727064309628275,-8.338942354851072,3.7381634501088588,-20.363825356100293,-0.6956864855321346,-1.897087295501332,-0.0010621093721830646
2.4410527854307653,-9.52381846294385,4.552424758439016,-20.073331993620165,-0.6929511099427358,-1.9841082049926921,0.010102378220313683
3.1605522737836167,-9.428213538370882,5.398692659559337,-19.359455130155467,-0.6459865184228148,-1.8487683035097977,-0.006432023763818796
3.7497594237127116,-8.13282201557357,6.193804158574867,-18.31725659034603,-0.6584704680825125,-1.772845447810841,-0.008164735653076242
4.130370650637928,-5.72187617696534,6.832985734051574,-17.460568140047172,-0.5957063276956519,-1.6101437761840598,-0.013749975063930995
4.272942201618613,-2.1660931401138814,7.256553652955685,-16.754957732597617,-0.6019589114112182,-1.5430256589289881,-0.015024234186755405
4.104010917733179,2.448232532120082,7.152556342402686,-16.436582609639153,-0.5626269774040066,-1.4107182180659652,-0.024762892043364543
3.7088000751834005,7.815342936309855,6.516933607190797,-16.30323384652486,-0.555465969587405,-1.4713969451108284,-0.012022306051905254
2.9624772457711988,13.69579373864924,5.509653549133721,-16.533975349675625,-0.552234417606204,-1.4273502175111652,-0.020418046705952247
1.9702836385450857,19.175161692421508,4.316133536657203,-17.28691645506234,-0.49232720289771376,-1.343375793048302,-0.019878007792941365
1.008843280598205,24.44092400823629,2.9242015979173805,-17.721003489270846,-0.4766735369792947,-1.3659733689777125,-0.007844969476740191
0.31823851406570913,28.37953195702126,1.547488697467488,-17.86032421944925,-0.45104530751759353,-1.5221577842419538,-0.013281918302198723
-0.44175296156702404,30.880343478685248,0.5499243711478344,-18.088529269213257,-0.49191966829825273,-1.5232169233588642,-0.004412094671800498
-1.0040353597791887,31.66177527686364,-0.023852994806881717,-18.00503466953425,-0.412472556278049,-1.408865692098611,0.0021211951463539925
-1.1078633701509764,30.86370250777087,-0.6561881057582456,-17.28994950347244,-0.39063693829040147,-1.4234077591965357,-0.005474868754779703
-1.387776938931336,28.424719205338025,-0.7570521727269149,-16.600276878249776,-0.41119430742253094,-1.342979429921422,0.004569746603029776
-1.2402478591738757,24.70083714882316,-0.9912830439290568,-15.832874783995766,-0.3602204874400725,-1.3650785303468138,-0.0019408168750268643
-1.156550525666362,20.198799961895944,-1.0729290242072969,-15.35795509451574,-0.3565061904146034,-1.3336864413813978,0.0006778077301789826
-1.177916828338755,15.402417697263315,-1.0335367864077494,-15.575088382791648,-0.37848057882852204,-1.2612185710446595,0.010736001769169478
-0.7471294820878649,10.962958512595408,-1.1164205889723928,-15.925984354144537,-0.40483642199633685,-1.4372751574080516,-3.7966993056105726e-05
-0.6557675946859763,6.700527333544142,-0.9536780830199131,-17.335314190830623,-0.4878175054756802,-1.4934915253879069,0.004616386521853745
-0.4160059757207071,3.4707700089828135,-0.7274846665888186,-18.73765114915763,-0.6035845886540845,-1.6907303317797506,0.009562099099825618
-0.10159838004141,0.9304354452646773,-0.6066417461391358,-20.197678810909583,-0.6511765076338795,-1.817406710608863,-0.004396625553855237
-0.10000706161633563,-1.1791258396768443,-0.5181486068627597,-21.584169520777404,-0.7653532586284565,-2.019041089332418,-0.003711586109256748
-0.30363187820049575,-2.827117847560098,-0.6628342921809318,-22.645194220879258,-0.7967779263644594,-2.0932315670138353,-0.015229161019567495
-0.794847013817465,-3.4666759395878968,-0.9303610462648472,-22.75486645666775,-0.8240752673632272,-2.154702332169494,-0.009443358166753327
-1.4507052400813227,-3.756094567996012,-1.5627658949045653,-22.52680915209444,-0.7718921711062869,-2.091822799722911,-0.009194847913984611
-2.247018019569679,-2.9665241633677852,-2.3138837091748528,-21.498251930999853,-0.7549001991717386,-2.0515627715099427,-0.01711727733816582
-2.7781149618851066,-1.0261482236918698,-3.2434392113135906,-20.00721617655737,-0.5394651195977834,-1.865795911946005,0.022627712256934662
-3.3716093488291508,1.8232388035106808,-4.159255913699035,-18.388593906196377,-0.45111152326041304,-1.7820562359137235,0.043637129549544754
-3.828103116547802,5.516913485741534,-5.007663497736738,-17.028341483939755,-0.30648015719922084,-1.633973741064378,0.02727192029894194
-4.067518280106943,10.160765737776398,-5.341014207333791,-15.774337993988471,-0.2301989988803129,-1.5365813503616503,0.0071941478958777675
-3.9012541695495275,15.28375184075553,-5.161256284913942,-14.908645271430046,-0.15690613801878778,-1.5105035579665662,0.02411212254048176
-3.423870019047142,20.173749919966127,-4.401509386317842,-14.627783575929906,-0.1456129102322038,-1.5047482994353467,0.026781717818075444
-3.423870019047142,20.173749919966127,-4.401509386317842,-14.627783575929906,-0.1456129102322038,-1.5047482994353467,0.026781717818075444
-2.653064290699515,24.838760577069277,-3.4804687065404605,-14.299054543252119,-0.20332831171461316,-1.5968239563085156,0.02636288011902595
-1.7825971782566243,28.599924385159003,-2.404008279908667,-14.249384074972502,-0.185713746731622,-1.6172047870981638,0.004984262990627977
-1.0752332769143396,31.165875165178637,-1.2823436605701077,-14.313913762835089,-0.20901224997283868,-1.5255456321277234,0.004920253797358693
-0.41439198443075803,32.3772167657062,-0.6692148605494604,-13.985093497323357,-0.29600608805979167,-1.594563561708028,0.005715618639148029
0.07651308022505655,32.092778244000044,-0.16777467114024186,-13.637198857930091,-0.25061457737747644,-1.5486084209596886,-0.012562500643657357
0.30583358437358704,30.41760648768449,0.3210247092505971,-13.393411733872522,-0.2526997117071568,-1.394703398751383,-0.010809430883306064
0.5477648014515225,27.739368906306147,0.39883716855544094,-12.917125994953027,-0.33381409554604236,-1.423144640360551,-0.012314140306915675
0.7635150905968588,24.126677069617134,0.6080644942383387,-12.858442265524022,-0.3090207459750671,-1.3704515832911282,-0.018084460850123284
0.9072675354363358,20.154388210917496,0.7387711897895968,-13.241567312744841,-0.37926152310103095,-1.3498764514577524,-0.021785835560269372
0.8498034669950884,15.96660706803012,1.1600227239215288,-14.256377565753112,-0.41848257756795476,-1.3282763366198007,-0.02514222223064048
0.891557998512966,12.182574209903695,1.2646594754830796,-15.52153091904194,-0.4822348239056686,-1.5418501310002053,-0.014780209040287427
0.6862271231418169,8.964628960670057,1.5446231933926513,-17.288053421408797,-0.5045252871414617,-1.69800851395716,-0.0030326044967069806
0.5985141781832812,6.130605018402243,1.4600066471203492,-19.29770465468856,-0.5913969787190715,-1.8998336959352384,0.012992149922904926
0.41988169487779686,3.52800930928371,1.7915340440372427,-21.33055363607765,-0.6116441048708952,-2.0507506177363752,0.02286207317358946
0.6821326335861334,1.739566161432368,2.056084891072653,-22.611346614376576,-0.6263876824526202,-2.1658663427000975,0.015272127449667123
1.1635124435912907,0.36550359444617053,2.577754153566309,-23.292091057804345,-0.6920783031859146,-2.2603917057181806,0.022220438991433385
1.9645975616117322,-0.593598989691038,3.2692571560411183,-23.323565409632494,-0.7230234414882485,-2.221662900285325,0.0028203085055153254
2.86823349537389,-0.9724852682382302,4.2128232111603205,-22.6846431464181,-0.7664299872505879,-2.1648150371636614,0.014069548182186274
3.731957222916382,-0.4550384998181361,5.202313030088878,-21.461931655790476,-0.7710891112246631,-1.9927055250850396,-0.007844680028817932
4.300651473588039,1.1568374014368357,6.079095670711106,-19.8540118647685,-0.8014585017565014,-1.8472778760535475,-0.008301856783375822
4.693197284896863,3.653539484063577,6.677510426694436,-18.449310354167583,-0.7593481689923613,-1.6619011596352893,-0.02693424054203761
4.538900198681262,7.221915884582217,6.751494878715978,-17.200616232323352,-0.7534966837808308,-1.5563726809730363,-0.033331327812740785
4.236666917267307,11.353794237925165,6.050987696058938,-16.38401161618755,-0.6575291636728756,-1.5247267822640167,-0.040030956412162935
3.2463033688827094,16.1383940507454,5.155097337361746,-16.22803279388124,-0.5981238338627504,-1.419366249824086,-0.030955197001557043
2.4024019708738207,20.75610611702752,3.6978963691657,-16.229107809079768,-0.4965242878438134,-1.5099192182650838,-0.02826144335067664
1.1466439609062544,24.83327091191629,2.4362972060787125,-16.79630849094679,-0.44333941605414495,-1.373459440879997,-0.013822891039604004
0.2712826514936856,28.194882687108628,1.107065056028985,-16.851465326886647,-0.47017511730135186,-1.495771467742155,-0.0002955011430965644
-0.49001047668615705,29.763187804393453,0.3074321936969546,-17.308602528324244,-0.38880732363429465,-1.3636580406804746,-0.004110156594032689
-0.8510080704824488,29.980015321376232,-0.44226137579233277,-17.099325042324185,-0.44804134720224575,-1.445907440221213,0.0007241999422790617
-1.1355434373961855,28.714536754242648,-0.6988112540520064,-16.677589371144197,-0.37779657590864635,-1.2485684290591244,0.004128975984977154
-0.9717691701542894,25.897966314095466,-1.0445508793418226,-16.13070068992682,-0.380782152993538,-1.269386301613876,-0.0017481077285230059
-1.0584200490377749,21.558959190114063,-1.0461075338965493,-15.879652655163055,-0.4016799947821829,-1.1565639849425549,0.006856497325837492
-0.8544860051736327,16.98383142941976,-1.2551140580060345,-15.278060988167056,-0.44295193350420414,-1.2302016239103446,0.007713890231756391
-0.7642165896856759,11.922867977711348,-1.375493143521226,-15.6220882310094,-0.4650531668854705,-1.19973971267699,0.007480155751876545
-0.6144322344879234,7.170772844189756,-1.4782927190022006,-16.264113060877786,-0.5072031521822521,-1.2977255951863107,0.005206604890056093
-0.3565992735470048,2.540540898258193,-1.5630821920171214,-17.058953875037023,-0.5331978023638709,-1.5612668161507548,-0.002902480035369712
-0.35701972307919805,-1.0784112445383294,-1.4274580870274232,-18.234541873419474,-0.5812363173158294,-1.7398986175727356,-0.007114930013087306
-0.33735464232056167,-4.092272625489533,-1.6997829922767358,-19.311505676233168,-0.6945065248142192,-1.8852690363807159,-0.004241768229818595
-0.7369322229639415,-6.684371755965358,-1.7176800133715764,-20.143857719117083,-0.6939163208584559,-2.0497637461892846,-0.014926798285587578
-1.083569218614229,-8.32769741813406,-2.29935761634701,-20.37193951857512,-0.7677192126757688,-2.0485066067030884,0.00037814732544207705
-1.810282780067927,-9.38770661772415,-2.710773027756101,-20.117093846251827,-0.7156561155760812,-2.0680482740722677,-0.007960190556569123
-2.4002995905349453,-9.693775944135522,-3.732921928720468,-19.45072939167953,-0.7650070416940684,-2.000433682211766,0.0031263151048377355
-2.4002995905349453,-9.693775944135522,-3.732921928720468,-19.45072939167953,-0.7650070416940684,-2.000433682211766,0.0031263151048377355
-3.134927018898889,-8.661919139890335,-4.722178523575529,-18.484804070981536,-0.7104446377546031,-1.7573117839207884,0.027028212432090366
-3.748060225627552,-6.9316193054584305,-5.768512719611457,-17.541051945614058,-0.7485583994982898,-1.7740373388198698,0.01881222749361381
-3.9484495503123656,-3.64317571062815,-6.46219904536344,-16.624322435514262,-0.6646312421555133,-1.6072394246968333,0.040268259737967944
-3.9653835479530177,0.5367521218453685,-6.911359876760288,-16.15015560603912,-0.6030195737590999,-1.5128363595214311,0.0313870284202285
-3.630297442400064,5.625164544831124,-6.940723535523774,-15.979148092689277,-0.5503455777165537,-1.4663551817740514,0.032509224652505754
-3.1873849291930547,11.173354636694206,-6.162456633930264,-16.121590188179482,-0.43954855757181843,-1.4352639807216678,0.02359909047247868
-2.4378983981801876,16.94846189103961,-5.315213812529134,-16.54553218512492,-0.4631949943692486,-1.4394320901982092,0.017928480979834863
-1.7099518376853236,22.159240476662873,-3.965357479417232,-17.321983778017675,-0.47877056905673665,-1.3691188569273949,0.019825824781401883
-0.8798465797467662,26.641056114747276,-2.8010809883781915,-17.584337506451217,-0.5011414459038513,-1.4966813295824473,0.007070314555483613
-0.13650999781890008,29.872193762026598,-1.7977622930646229,-17.73654838998832,-0.4503422693323001,-1.4870339469462746,-0.0024928204176072073
0.24445509087989628,31.220861488525806,-0.9010061027823085,-17.877297249654596,-0.45254418352093906,-1.3984074695158928,-0.004417622248254857
0.5338166622887824,30.897388995654605,-0.5249896044576118,-17.386218617026344,-0.4828231315400866,-1.469913712379943,-0.0032966976905104825
0.7185611406767337,28.96683284509826,-0.3084823778073136,-16.80667140060953,-0.4239636656009028,-1.416012252530167,-0.01062789023092894
0.6777894676311477,25.57566575864418,-0.11191023838021255,-16.244157336629844,-0.46300046939596806,-1.3813448058671662,-0.007163845784169533
0.7763280503690791,21.438569457993125,0.012722146095788367,-15.633566447126714,-0.4167413280474164,-1.3373418751854858,-0.0172502263354723
0.8398285743959266,16.709728413544067,0.17737352230592002,-15.52967211885299,-0.4538216154752258,-1.328864294725721,-0.02165632494224555
0.7236068783117158,12.216365555715306,0.48449817487201396,-15.978256279715541,-0.5425114403040997,-1.4107167089821488,-0.01034657711709223
0.7323151426281767,8.222353443213748,0.9345358581203698,-16.813953779617847,-0.4933399523444847,-1.5022273488614144,-0.0132089917722966
0.5430982565895719,4.32497322543337,0.9953638252043364,-18.38699683145832,-0.5964209987540361,-1.5980812590771791,-0.0057110963822322195
0.5971023130180677,1.355484325035937,1.1415495911122067,-19.91305826079539,-0.6452969311858839,-1.869551701812573,0.004109978001396278
0.5053089838954262,-0.4752348332758944,1.4826455357228796,-21.04599085230597,-0.6085743905684278,-1.999262096363207,0.002532587230355722
0.7631308637470124,-2.2895542141610767,1.5598846554756332,-22.22949430672369,-0.6852844870912872,-2.1287966657022417,0.01946757606103782
1.1604591045221508,-3.3427356221887443,2.1537127647133967,-22.692003459500732,-0.613546423101924,-2.1892380072628304,0.027702983523532693
1.8207934376360309,-3.4721647899506856,2.428386229986713,-22.41243214885896,-0.7339344862980792,-2.1366137931901625,0.010475884657118836
2.4783985060906164,-2.854853204885382,3.273632414274895,-21.552243152030485,-0.6889909485826993,-2.056755490183283,-0.0018563740727722663
3.0353448937498735,-1.0230852142864033,3.9364669416888964,-20.235317613490324,-0.8079324696328556,-1.8696698326948236,-0.02117242875706309
3.6869719778273327,1.4693018950581664,4.71139055608632,-18.97445607207176,-0.7637039614797754,-1.7225610374659295,-0.03124514324898227
3.9637809356870513,5.228714072413527,5.236761362302132,-17.522293491000013,-0.7675630999574917,-1.6288590586653116,-0.024622722811912093
4.049250620832919,9.86927193655302,5.321402321354107,-16.275967306095442,-0.7010506791729748,-1.5088585990201697,-0.04008258611759518
3.761236026637364,14.785345395363358,4.937518146182985,-15.625915538888503,-0.6252386144634002,-1.4793932943669805,-0.04365266297108525
3.3587742811826313,20.119383556886273,3.9583814724244712,-14.949549419224052,-0.5592458521523092,-1.5492791110023596,-0.03358076256746006
2.3575492692308337,24.98681412384576,3.0801179616726273,-14.910909982666984,-0.4471005349237206,-1.4952378227046008,-0.02792013281302961
1.489328757170261,28.883431511589297,1.9790171898398832,-14.867271802231489,-0.36149616925648065,-1.5245174666044345,-0.01989705557961109
0.7344129233192254,31.644691048979467,0.8754415505190758,-14.58257530631201,-0.37729699758485746,-1.6343216176611821,0.0009598905609797342
-0.0026066590469980555,32.86886743682068,0.2428266142395955,-14.452489463416194,-0.24521020237113345,-1.5150063223672716,-0.006899893520748752
-0.41622051597869997,32.84386695408231,-0.5276254425477103,-13.76887052459941,-0.2312000126981264,-1.540719216892403,0.00040147667224219377
-0.41622051597869997,32.84386695408231,-0.5276254425477103,-13.76887052459941,-0.2312000126981264,-1.540719216892403,0.00040147667224219377
-0.8579256895635692,31.050396190883014,-0.885467970892392,-13.177913346564948,-0.2521886210732453,-1.511157026458426,0.01665743361336039
-1.1176523479541052,27.968694378987152,-1.03049802852779,-13.167679697459818,-0.17004357191032476,-1.3227027978316697,6.815026343010054e-05
-1.1363968021220423,24.497090957792263,-1.4768829338784872,-12.709784793090993,-0.1800729581074067,-1.3430709600671928,0.00672159664029689
-1.2176713624486522,20.393174033705947,-1.5718937879655612,-13.06486992392696,-0.2487216167316893,-1.3529590942195706,0.011323584367429848
-1.1982159364098588,16.28781674544224,-1.584563663091848,-13.893778290562917,-0.29645293311836235,-1.3668413824008925,0.0159017709040826
-0.734411531736326,12.279505861803594,-1.5093482596404202,-15.315655999803074,-0.35127253746595577,-1.540339086681327,0.007719957043533333
-0.4388504600512418,8.986341314886422,-1.455453991160887,-17.091820424924098,-0.5103114316651595,-1.6917934438984865,0.002259606147616422
-0.22133259838233618,5.916627711044867,-1.1159948946512628,-19.224104249584297,-0.5627483840384033,-1.8009293186771242,-0.011003545943125529
-0.11831349720475594,3.5366412546021886,-1.060274470592773,-21.093701207060377,-0.7357930612208441,-2.0400886597460444,-0.006709635505511452
-0.21319601063047125,1.6747119290966328,-1.1920040010142992,-22.45443463278727,-0.7721205446862582,-2.1477049535998525,-0.014809036281698114
-0.74842018850155,0.2466402237611276,-1.4958362933859624,-23.197600622215294,-0.8189068461434987,-2.265304043035724,-0.0037931477873287328
-1.4454964696817945,-0.7521464835374798,-2.1987651754234685,-23.266700797961676,-0.7696909014429122,-2.2326776173635046,-0.002566895285686246
-2.44757692142426,-1.168779167501278,-3.0910767489294115,-22.625418551064044,-0.7392530297523795,-2.213821148710066,0.011560888579904276
-3.2092693556214593,-0.6477328843944906,-4.220696173170332,-21.29670590100386,-0.5958984112662832,-2.0431387426715233,0.02068220754886664
-3.9898543022052277,0.7582996709496952,-5.3390643981821055,-19.677341016937966,-0.5550663364123688,-1.935099451650026,0.028854250227194605
-4.431180227032278,3.114173845971549,-6.249317535689881,-18.15489274018921,-0.4315680678039055,-1.7590990006099607,0.033192353372433855
-4.40377454292288,6.442321920230173,-6.718705517230269,-16.817327711992274,-0.3116131725438067,-1.656829640847621,0.04190233680501003
-4.238352986500861,10.559441569031604,-6.591389765990375,-16.068327205314585,-0.3734931005739917,-1.5787971824833318,0.024721594816227273
-3.612699439711753,15.14106354760339,-5.659642403558499,-15.734612236695153,-0.28312784465665275,-1.490465575040538,0.019944717809869516
-2.625294759661544,19.71656167793287,-4.636128394514208,-15.845727781411275,-0.3262624731741955,-1.478487654174424,0.010872150493354129
-1.7414968091105933,23.683273031620843,-3.1709998970619875,-16.47520548597706,-0.39093157101584336,-1.3876477207213613,0.015353498637074203
-0.7647956470567279,27.276681682148357,-2.029347829221128,-16.567418538317547,-0.443622225387889,-1.4703688007154212,0.004512263518722729
0.019924460926120584,29.46983183492313,-1.116112831403746,-16.738822670406783,-0.4147664101272187,-1.4447087857052392,-0.011274737488043115
0.34696458835733357,29.761811378506053,-0.35881257339269135,-17.082101872010956,-0.43909582179661577,-1.3236800014108476,-0.005803871042108015
0.5976873088815761,28.854606250082313,-0.11168482506564739,-16.64702974554404,-0.4787984320563125,-1.378281727123839,-0.011382128753526958
0.7073618049298929,26.32886549705475,0.02596609970562913,-16.254204435879295,-0.4298079968883788,-1.307922988884868,-0.015978377219977368
0.544391896697514,22.516280681868334,0.26107246993363353,-15.9376709743923,-0.44541647595347794,-1.1600240935044512,-0.013128358520806715
0.5093635407005339,17.91083782207182,0.3945127080467003,-15.831248080367407,-0.4641633009089455,-1.1588777873895404,-0.01291802892442459
0.5431683425699413,13.17201434271263,0.5546753264205281,-15.765418400574086,-0.5193264857206905,-1.2960603091052187,-0.018679766382913916
0.530502722477124,8.241229614760304,0.9404379163260613,-16.211158538682362,-0.569686381060448,-1.3785914079856603,-0.010433101427612607
0.6205679205578546,3.5692951376492275,1.3981125031304453,-17.023100466580566,-0.5497013789118806,-1.5491037114968031,-0.013356923689791321
0.5031376404040219,-0.3705804768850389,1.8443707715911901,-18.25904511769949,-0.6453679946436197,-1.6501135531727347,0.006142950320820094
0.686213344322613,-3.6966680680468373,2.3005577397460115,-19.40862266766632,-0.6448919441246698,-1.7854876934472022,0.009795129511904917
0.9093400604453109,-5.906574775179625,2.749701827622623,-20.032447048828992,-0.6873248792390747,-1.93014382775981,0.016655567251783195
1.4481836285669962,-8.205591701522716,3.394522021883514,-20.581969575780494,-0.6613043930123598,-1.9906099136287276,0.016535788841979863
2.0213428461755822,-9.139891447978204,4.046425693941716,-20.249276614497788,-0.7058839485896946,-1.9884306012506097,0.008583627280217984
2.7766287542609676,-9.668105036573795,4.888410431444744,-19.77041329278317,-0.6343288720780023,-1.9231387390084442,0.007145166795951949
3.397473497108261,-8.819684971529032,5.666800089701005,-18.77002450696392,-0.6598449310130087,-1.8405538326004194,-0.0009217565592140715
3.925675794387088,-7.053877208980489,6.428851270890153,-17.905746168640274,-0.6055577133660418,-1.6702585725471772,-0.01803838405278653
4.174351381381971,-4.01865241746626,6.961626788202802,-17.036532069849223,-0.618728794560764,-1.5847571897296142,-0.017116741025372972
4.184192253943511,0.0586594771134491,7.10834641994028,-16.579097682535686,-0.5843537184086698,-1.4305487781009243,-0.03336508602867551
3.849255852885322,5.025468703708593,6.813790234218076,-16.408545737482775,-0.5623640426020035,-1.3538123568506926,-0.04031887743426927
3.272893258246684,10.700671662371818,6.076714227072591,-16.645556772335617,-0.5326240319654624,-1.3220571606010123,-0.028186783980302114
2.6349532423890114,16.73507149595716,4.80349607647274,-16.737621168194018,-0.49495229798130036,-1.4152601802200482,-0.027072002824916352
1.7350662089611832,22.267702216461927,3.4718590041327038,-17.19893759803323,-0.4835464443965015,-1.4822903031091441,-0.017300763334707422
0.6677426210812596,26.647247960327395,2.2878559848612663,-18.111046552218845,-0.465630038266424,-1.3584027187347876,-0.01478689853063139
-0.0933620676158106,29.928994902731272,1.1528911677337579,-18.317624424444112,-0.49165469178509136,-1.4372595661513599,-0.009843048337989314
-0.5638801500604903,31.76034102985034,0.1803594354864137,-18.098958353384543,-0.42599091278437046,-1.5164750218078136,-0.013402615349312239
-1.0155756822739825,31.923114369492154,-0.3864957795465033,-17.614951554994676,-0.47379471132341877,-1.490679684148699,0.004487883665808552
-1.0155756822739825,31.923114369492154,-0.3864957795465033,-17.614951554994676,-0.47379471132341877,-1.490679684148699,0.004487883665808552
-1.2061610700072658,30.0269864914916,-0.7327532086615238,-17.075766999574345,-0.4542941104045936,-1.445893432838326,0.0051327458522065945
-1.3373133963879722,26.80175841550719,-0.7997298667444221,-16.477402471477678,-0.36913865313142685,-1.2691980849491067,0.004139552578512977
-1.1589780340261817,22.812819617469902,-1.0466320370133015,-15.497487180920166,-0.3579957138239584,-1.335274655693471,0.0017605402551261707
-1.2232845176142277,18.031882336053588,-1.0207844107687734,-15.558764541774531,-0.3742320519117323,-1.2307205788088476,0.008995580072129958
-0.9733913008810734,13.484568834688469,-1.1175736042030229,-15.67777255060856,-0.43431187168051316,-1.3612724498236666,0.004432276314398769
-0.8053128556103909,9.119522019521378,-1.0638227906401359,-16.55769667739313,-0.45566842268849733,-1.3866206341058123,0.0038317858909969887
-0.43037758123460285,5.198547225776378,-1.0033461740119898,-17.83415336653939,-0.561895414334679,-1.6419149730839193,0.0021287286761876726
-0.12810964893962415,2.303096744388894,-0.5620962909673808,-19.26646703122657,-0.5642895948819908,-1.808337473310656,-0.008918096985550586
0.08767757948479707,-0.08951048247732891,-0.6526718823674451,-20.7694794417106,-0.7073082483298334,-1.9689266055031511,-0.006922417650458373
-0.05247351247325148,-1.8229273240715125,-0.4027228865611633,-21.91483196157706,-0.7059437377276969,-2.0974563325376065,-0.01802195268068431
-0.3466985612163406,-3.141689625304683,-0.8576496399999797,-22.642655742909533,-0.8131339152129341,-2.177015517753854,-0.010068781483176928
-0.9599035689121285,-3.4839906750160954,-1.034921130355815,-22.487164211624503,-0.714052760992463,-2.1580714776148624,-0.013319914064054377
-1.6362754601170566,-3.3920243024109236,-1.9935384703106704,-21.949600460011588,-0.7587567936000346,-2.121629214319793,-0.00548341153142999
-2.3929065636331694,-2.059698670861244,-2.6168707236275597,-20.66037791252638,-0.5605091233915552,-1.9966526016710233,0.0035243292457341944
-2.9461617211283952,0.12146376339761689,-3.8924400359702203,-19.213504488139982,-0.5202763528836631,-1.880470558159764,0.022403410348970906
-3.6165533878809932,3.383756778086379,-4.611897933735212,-17.697280905215926,-0.35755438113670895,-1.7574125094631063,0.008392225174567417
-3.912892301386844,7.9074672760049545,-5.2353245746028705,-16.33863610395506,-0.22993112359354903,-1.587955165608678,0.0405874414502992
-3.9343065549815073,12.832554986033411,-5.460394528385219,-15.32613655670215,-0.2386926718996805,-1.6075633322652245,0.03616186614103668
-3.6114345904678724,18.1069691016953,-4.977667893417312,-14.61058571607908,-0.15644992720794226,-1.5726755235172523,0.01815489758930229
-3.06846770704572,22.83470717048586,-3.9213604955358865,-14.586374995945148,-0.15616635170613485,-1.5008770522818093,0.023729042134253517
-2.1520298597376772,27.37716125411841,-2.9102681229768455,-14.239819184830784,-0.17322206002767718,-1.5940225685437828,0.007316237894388106
-1.4082881493262578,30.35324239996557,-1.709439869579982,-14.473043280249927,-0.2033892257331549,-1.5192182888219357,0.008956081203771756
-0.6504669577604034,32.39766098408799,-0.9713744174363684,-14.057628012761962,-0.2817534924306127,-1.598405205491471,0.0015846566958487725
-0.12363832851231375,32.446179354411214,-0.34913728306793235,-14.04529648705508,-0.31328622187078026,-1.563229859874995,0.009285051610693575
0.23392043554065364,31.534661354829638,0.03325833744332549,-13.501554416553871,-0.3161009612745786,-1.5063306158986733,-0.004526858844081907
0.5126465371544574,29.160723679924047,0.29308369826826697,-13.097722317092574,-0.2703937147530059,-1.4538940851341424,-0.021175215213452808
0.5923320935416706,25.851097077712144,0.6499980711567221,-13.054721901083479,-0.28667104460476023,-1.2991599613568368,-0.016596057451568242
0.7506607040580242,22.008411629740916,0.6794801934954808,-13.10085157073169,-0.38548577973914444,-1.3527295812644353,-0.012959989328012036
0.8915768520303237,17.85197086200327,0.8568314024164758,-13.746488387198143,-0.38835041695702044,-1.3981273809883603,-0.02176402012895129
0.7718003096856287,13.970839795697012,1.0476045232742297,-14.93833885057322,-0.4730780661505182,-1.4760454373826326,-0.0071524589841760414
0.7907432019977452,10.212408726167675,1.2602546957313763,-16.610809413275778,-0.5077645261727145,-1.6375898008665262,-0.009146178571614521
0.5757849226395393,7.135781860292411,1.3284486584502333,-18.575032476857107,-0.5878753936150101,-1.8027919478696959,0.002541849870123464
0.5217725657578495,4.690979748556657,1.6660734717588075,-20.37905129467312,-0.5484399672376127,-2.003812943803293,0.008249942467019659
0.7083622419942335,2.464528678864447,1.756238426699094,-22.111450320885407,-0.6336033654962391,-2.1773012626896344,0.023999147272935728
0.8196207931753752,1.2944117845745375,2.2231071123038415,-22.73091187198662,-0.6953864626534818,-2.2145978195435307,0.013601740208182715
1.5047799878183132,0.12114601105276374,2.8163512834319158,-23.07934045098692,-0.7260533429562656,-2.20190149879293,-0.003780319575133251
2.4364071574537247,-0.7640880981634067,3.7277133857005014,-22.954449678483186,-0.7836622081488145,-2.2030244567641577,0.004744526332518022
2.4364071574537247,-0.7640880981634067,3.7277133857005014,-22.954449678483186,-0.7836622081488145,-2.2030244567641577,0.004744526332518022
3.325500534771162,-0.57242169115234,4.679388899534468,-21.923826685102824,-0.7831799842145976,-2.0439067733926004,-0.013775952474571512
4.018324392725088,0.618622279230689,5.638993274261681,-20.435156991062748,-0.8260862874309678,-1.9142896653387418,-0.017286526478670218
4.643654637407854,6.000330119416411,6.498845704301394,-17.5457788217798,-0.7993421257218186,-1.6471320331088357,-0.048507498857909136
4.643654637407854,6.000330119416411,6.498845704301394,-17.5457788217798,-0.7993421257218186,-1.6471320331088357,-0.048507498857909136
4.407383751461402,10.078437320697558,6.294375621520148,-16.693675975103318,-0.6912917054730121,-1.5459745365589366,-0.029696995414147283
3.589630499229437,14.717923230061718,5.528208548757573,-16.292580140172287,-0.6096332674550926,-1.4206559167985429,-0.022519894875799792
2.8367020827464815,19.324682342988687,4.172296211460743,-16.21228502225107,-0.5150254959236833,-1.5050214500270687,-0.029342768182277414
1.5939757086617887,23.663935812949003,2.931712226490011,-16.734733807105194,-0.45993810153308695,-1.3620269325637393,-0.02112889748779901
0.7554137668407748,27.48866066144107,1.5091945822616015,-16.746435945119753,-0.42132123966597473,-1.4905182311415728,-0.013437955964110872
-0.1890008047445413,29.851536321329213,0.6018082360668597,-17.040528685031553,-0.4458250820056636,-1.4039960085872365,-0.00015942036599528482
-0.5775700320653359,30.502294210613304,-0.21982887939601448,-17.08263705078357,-0.38974599857706355,-1.4422966785665614,-0.011189986947736857
-0.9261732968946668,29.784135352810296,-0.6539666473184702,-16.86487834879763,-0.44956118064451844,-1.402648766484682,0.0037986274770990267
-1.0990437763410557,27.40612461521716,-0.8080381804323558,-16.60752157642516,-0.3862460753221612,-1.212574815246522,0.0023385918820192967
-0.889392488494855,24.00463413888613,-1.1175652756865597,-15.901354442342141,-0.38988103508501454,-1.2432454577651788,0.0012565204442721693
-0.9710568748028423,19.42421313213353,-1.1321571624623579,-15.681191770625547,-0.4105564860463335,-1.1264900573414087,0.005987488850431823
-0.7567084471268137,14.631482559614781,-1.3235244986944639,-15.413656774069386,-0.4598385781211728,-1.2494216828184923,0.006035799330934726
-0.6120501361407346,9.735113087057517,-1.2980710301983847,-15.739310234376683,-0.4227637511389069,-1.315528696750503,-0.001095041217798043
-0.39385305703192086,4.930718683891577,-1.5575356905435125,-16.53998962643719,-0.5287936414448525,-1.451948325879541,0.003999536423183455
-0.428150356480853,0.743629023433497,-1.6349177793238936,-17.75529575794534,-0.5999338991293534,-1.5493089971887197,0.003638596420582374
-0.44607851430966194,-2.5962142877395835,-1.7087952998601794,-18.84260431886448,-0.7033086535040283,-1.7664941282441404,0.005932382680856207
-0.5114033995320401,-5.063564075212917,-1.6209838152832632,-19.576505823231667,-0.6526882379625645,-1.916350426397589,-0.008170162115597616
-1.0235508756771063,-7.720139623346566,-2.158679239046303,-20.43610485847975,-0.8074300589801987,-2.047291738841609,0.00032384147132037667
-1.5277046778584387,-9.050683359733297,-2.655381385641019,-20.45779004395983,-0.7818905212714249,-1.980272821251305,0.0076997540155562825
-2.242740931769837,-9.809977470486702,-3.377860569809556,-19.946043456740927,-0.8191850218279879,-2.0282268021547,0.00761636366448019
-2.9089985132246534,-9.633893063865365,-4.276312692935324,-19.190290187933293,-0.7750350180022942,-1.9050814517857757,0.0078071929255637395
-3.4070711235953324,-8.021388875999998,-5.203810990919685,-17.975593598446558,-0.7415002686137028,-1.7879432346289075,0.027972765048526357
-3.8436821756516344,-5.701748112051453,-6.092490257903663,-17.162489773112863,-0.6609644597046253,-1.6341313185939426,0.023951352110256556
-3.985684721517461,-2.0442259001490957,-6.777135114455048,-16.37888043918307,-0.6472544013160112,-1.5775176644341962,0.023151505360481647
-3.8982690476903255,2.5695599031423493,-6.981110234811832,-16.091913403797538,-0.5687132268019895,-1.4370785665537098,0.03122855234541108
-3.3882966644950088,8.085418519944113,-6.824663491212389,-15.964632974922665,-0.5138738879771929,-1.474437548901069,0.01393243948119232
-2.815569024155241,13.596271210924314,-6.010234665183043,-16.355103735709644,-0.48161796468293194,-1.4454522976096171,0.027206761466087023
-2.177827565827133,19.347019354271776,-4.69743532226796,-17.039415658158727,-0.4660318488871246,-1.3450263503818607,0.02427261916562021
-1.327962792467019,24.25010259775463,-3.5469645774805922,-17.427161403569677,-0.5080954654308326,-1.4849275304042995,0.009104146130491425
-0.5024331688195334,28.27396858107956,-2.411078474244877,-17.784106861476285,-0.46344092028159567,-1.4857651341344107,0.0008929846646144189
-0.01217856090772028,30.558781632077164,-1.3327340167862676,-18.158806572515577,-0.4737096572274669,-1.3889516785442415,0.008982077107821881
0.4071482160632275,31.351243659356093,-0.8020975057409728,-17.7436628869514,-0.4970742533363612,-1.488018003523781,-0.0016692603232460561
0.6796176997787959,30.443741329567832,-0.49934898604366573,-17.11281890104589,-0.42483740253063157,-1.4452129052724483,-0.017393122232573572
0.6275999112500956,27.793722168000826,-0.1774356887037871,-16.678260709091955,-0.4249551964803132,-1.2806318033796065,-0.006440224643656036
0.6707730291916966,24.134549690200796,-0.15028818319885845,-15.888521589848601,-0.4555348087937115,-1.346926131642353,-0.01195596305034023
0.7574691197143654,19.66473805812704,-0.028861021526195005,-15.526526324882978,-0.4241512032773683,-1.3492709099255067,-0.027966261629040617
0.639300278219917,14.842542826434965,0.29436899212430667,-15.870179180459596,-0.4624797116037068,-1.26575828370778,-0.011094630893024003
0.5579685473802293,10.682676213396693,0.5263532651693102,-16.429556115249234,-0.5113248509899915,-1.3512327103624617,-0.003987938971635931
0.5385367288601954,6.383096926923283,0.8046001835768718,-17.528699982376782,-0.5560115808859504,-1.485876881107343,-0.007641997880547792
0.5727779534320411,3.1675983389531095,1.1081812287604866,-18.89438775703807,-0.5756420925058199,-1.757087076982313,-0.007700061260312636
0.5536866563053203,0.4541138509084883,1.1118790026396863,-20.457675628115528,-0.6567562232217097,-1.9279090910713392,0.007300549590949341
0.5480914111754693,-1.2846618089109951,1.5044952993101006,-21.5573472635857,-0.6193677953100689,-2.0569818848438675,0.005051786343893911
0.8849180619726801,-2.682772225247974,1.6053270122046457,-22.40355135491441,-0.6977781047370838,-2.1419777617015727,0.017160394910405666
1.3353976885179073,-3.3247257264511036,2.2249341104466915,-22.52605185830169,-0.6521879597262691,-2.1609757650649417,0.009040133117878126
2.1166572901951453,-3.475245104639759,2.6198330952868396,-22.278534731183935,-0.7229098118541399,-2.1242053551696998,0.0156497306441663
2.1166572901951453,-3.475245104639759,2.6198330952868396,-22.278534731183935,-0.7229098118541399,-2.1242053551696998,0.0156497306441663
2.6483936243510695,-2.401365852102253,3.4145303155371343,-21.279317748432675,-0.7610604872499377,-1.9768325727063631,0.0013819984635149896
3.3102722273931176,-0.42718292704573596,4.160095095722786,-19.988023354357622,-0.7428260190826528,-1.8065720893286439,-0.017142588852791896
3.7480135279620943,2.6696075791356693,4.827823494812047,-18.496017241231947,-0.7737413910689783,-1.7080847598664792,-0.020250935992404913
4.032241673766597,6.622996674554936,5.184725452435456,-17.28751752562847,-0.7193089576535544,-1.5716644363488956,-0.03402168246222459
3.927981624763361,11.61127788557517,5.172976116008911,-16.04691631401561,-0.7124924800723662,-1.5237266474781086,-0.033215836743192985
3.777243987797867,16.751800890994392,4.531713548173884,-15.249769645717729,-0.5980498216630968,-1.5754366131614177,-0.035846535579718855
3.0497535331489445,21.903254170462528,3.674081037699599,-14.968431471408246,-0.5703990959534592,-1.5616711347393006,-0.02077826857838741
2.3023943014128885,26.66167892886886,2.5777989896365674,-14.655968102800195,-0.4378703571647765,-1.6138914779949098,-0.017145629497773852
1.272809665425965,30.291828398861213,1.6860185120000482,-14.597811495557007,-0.3943393569526001,-1.5676959919020688,-0.006600639566259969
0.593410518964995,32.49116181631452,0.6683528224734956,-14.4622169362055,-0.3028603765462069,-1.6328058829164651,-0.010078182894461926
-0.06404759995302968,33.315091019241244,-0.028298871936279058,-14.201276744629636,-0.3143540647936678,-1.589259675742455,0.004666821864082483
-0.5747370648805564,32.613901980879376,-0.4076390915700278,-13.86944356734738,-0.2019993099382164,-1.434918067653164,-0.0017072433152094195
-0.7898608149827243,30.668895165348882,-0.9892830047966404,-13.250077730047607,-0.20388759629466066,-1.4429673525605002,0.0025175644452844212
-1.130025842422809,27.55686924095434,-1.081167207430069,-12.927536738316762,-0.2121825360324888,-1.3475858535657324,0.005909140581262361
-1.1333038232810266,23.72448796590884,-1.4588744205699093,-12.748457832025998,-0.18597344380441885,-1.3714369876547845,0.00771762667924101
-1.1714804055371217,19.487940539999133,-1.5987175485214171,-13.242644580604336,-0.25986714344464656,-1.3528518425108151,0.01135183409164576
-1.020696318377671,15.498816320386547,-1.637599276867213,-14.168330501290932,-0.3135465163818823,-1.4159638594041462,0.007964169595040678
-0.746240828554932,11.664879161844425,-1.6084265745572066,-15.680615041318157,-0.4243599708264315,-1.5509547152469354,0.010242081393363951
-0.25012744947052507,8.43680089682637,-1.462923027669287,-17.43002728855149,-0.5027475817511002,-1.7232337214823574,-0.0032751695899180585
-0.2120639215451403,5.253423287485324,-1.1923356141579613,-19.77914324570381,-0.6715251348475493,-1.8907827473409975,-0.0025882181831234103
-0.06655828817667371,3.06562875378293,-1.151864579239072,-21.4427398465986,-0.7189976853382247,-2.038309575011514,-0.014638412838500082
-0.37077953832139027,1.2927587812736736,-1.2721381761263328,-22.682877743555498,-0.8108492851360184,-2.207458945807322,-0.0065652796405329394
-0.8818294995973545,-0.08615606660917396,-1.761192800676974,-23.309364260454895,-0.7916527565554543,-2.2357857114606805,-0.006623228879679791
-1.601670272576019,-0.9650951743763092,-2.5808829474674155,-23.080901528329967,-0.7818232769355008,-2.2927367779520034,-0.0015609584853826788
-2.537585272075707,-0.9409781608644605,-3.306145792068726,-22.06154872515234,-0.6104914375641897,-2.1918806243022986,-0.0006799880025920506
-3.3270067994569175,-0.3222941313930809,-4.700116972552923,-20.757738187812514,-0.6190830750200165,-2.067298155822514,0.013768581837923725
-4.13253190152271,1.3458145998623519,-5.613296589752643,-19.15861448274151,-0.43366005398621477,-1.9166202318516217,0.01567990988399727
-4.363078303088038,4.023910435080884,-6.681040717881373,-17.679795355220445,-0.41649515217265837,-1.7546100202838768,0.031071684471297382
-4.448654973501176,7.8248833382654315,-6.655307512545731,-16.686549393963773,-0.33237244722518666,-1.5645014706807963,0.05390181658733633
-3.958086070788728,12.419994353348631,-6.476498234578497,-15.863024996936614,-0.34294683429436706,-1.512326031662184,0.02813552744665584
-3.2430589423762664,17.058061149047326,-5.437844842850463,-15.715005522932257,-0.32827201636176134,-1.4842238632037696,0.014191876322570098
-2.265245492915852,21.574597061808063,-4.1508056279282926,-15.947601174036897,-0.35497855302217846,-1.4641799266521176,0.010206619886189573
-1.2362601361335215,25.208355609804705,-2.7767544647453932,-16.645850635054,-0.40101441200049476,-1.4785790349958168,0.01342954197460562
-0.35579123192427564,28.473627942140553,-1.6846470151882447,-16.676674160931547,-0.4063605546531806,-1.4576916370719402,-0.0122848911721255
0.13771088702256204,29.703636053496105,-0.7339173287861565,-17.147036002661153,-0.4378822698856254,-1.3368521658661028,-0.0033903136617222454
0.4912615617910089,29.333272292036376,-0.3349878710968923,-17.265117692232458,-0.5025534442822076,-1.4251487372137526,0.0021132010895593364
0.7095735140094953,28.07127244798149,-0.10873245713768359,-16.5136051711475,-0.42813688571281644,-1.3355473501948254,-0.014399211278261385
0.7095735140094953,28.07127244798149,-0.10873245713768359,-16.5136051711475,-0.42813688571281644,-1.3355473501948254,-0.014399211278261385
0.5644204407556985,20.955749709590368,0.12471520424945436,-15.743875339926628,-0.4800932086586025,-1.238803813680936,-0.013293380410518663
0.5644204407556985,20.955749709590368,0.12471520424945436,-15.743875339926628,-0.4800932086586025,-1.238803813680936,-0.013293380410518663
0.4451627694665557,16.01670546126987,0.3654638164384408,-15.895660256266824,-0.46897878263417575,-1.160886026721559,-0.007613935157739535
0.37831498087404625,11.079237620094329,0.689825991545224,-16.046893723337103,-0.5241969696323219,-1.2301556082989704,-0.005158307133884815
0.35013964907113815,6.303189829963032,1.0299948399380536,-16.604177581238677,-0.5877963323977071,-1.3728083646810127,-0.0004478586822636323
0.41560258431387437,1.8416126194862175,1.485028820286281,-17.60584625537766,-0.5740020621361058,-1.480271523515863,-0.0009091033299050109
0.5144502578460781,-1.8648214747269412,1.9009488151568952,-18.709967631613512,-0.6573540084163725,-1.7274655512321744,0.00906200123366308
0.7494048015972009,-4.882590072108396,2.3887283844017557,-19.734940558867795,-0.6522106168548015,-1.840888998042292,0.012041881767434768
1.0734572075173765,-6.957999249376508,2.905141718978033,-20.22690262508875,-0.6964451900980823,-1.966869903412424,0.015371601414428763
1.6368762896343574,-8.619729268886347,3.5613201717905767,-20.418696058775524,-0.6641989383171326,-1.9643074247887011,0.011584753290713859
2.3163050349288135,-9.335200359847327,4.329782950264166,-19.9801857118512,-0.6672801005987866,-1.9014492684523094,-0.0022638660639487307
3.0344301253610197,-9.274062866695164,5.163308162644642,-19.200966725787662,-0.663242677480294,-1.9007787284218005,0.0054927434268576434
3.64674782835757,-8.084866668221133,5.982394281877125,-18.347406875647224,-0.6067576827587968,-1.739367977350353,-0.007584564347451835
4.032724317214607,-5.605709635428688,6.6263288301561,-17.390823798351814,-0.6147182205713514,-1.6529676127191308,-0.010290126614317266
4.190790256084335,-2.04910608518309,6.977411821259874,-16.79492798310736,-0.5732854428165693,-1.488247458108298,-0.023077094040486273
4.001937273364384,2.625935880352143,6.929844444052127,-16.406797467712916,-0.5919125114643273,-1.4247522449586254,-0.02708524979004779
3.7456203579083525,8.06863970260743,6.304303956544459,-16.277981655911248,-0.5325613539670496,-1.4555252513752488,-0.028589259579385132
3.0628719965165905,13.850906472138881,5.340183776184435,-16.587635999479918,-0.508733096793686,-1.4100727399193769,-0.033819716842786444
2.0442092765726145,19.59735009421169,4.211118726380209,-17.213158966989806,-0.5349939369248877,-1.35709231857796,-0.017950260254293464
1.136960169228139,24.81620969233291,2.8929786627611946,-17.85801796510882,-0.4778214686349004,-1.3398848677965765,-0.013846229343064164
0.2979980168491438,28.85219636282819,1.6887184490089566,-18.269302255417916,-0.45625616766340815,-1.3851811309676918,-0.008344302666779645
-0.21293562579184894,31.556197652494685,0.5185630960549865,-18.087829859588844,-0.44346911959861257,-1.477215063891257,-0.00814067622651678
-0.8537245362254644,32.24637381010518,-0.013570593347929927,-18.04579609316676,-0.4683553648295633,-1.4255413996732642,0.00018799292514099387
-1.0029041270000132,31.276285275966686,-0.5742735259563839,-17.43892299981017,-0.3965431517101902,-1.442934491318752,-0.010135694253495545
-1.20305917358392,28.95094589578021,-0.8398196453402804,-16.608482504087807,-0.44360727979187964,-1.402695771589272,0.0065815055077619354
-1.2948454409348706,25.06151554066852,-0.877765312980648,-16.21467570350524,-0.3682333804666825,-1.2410672851591937,0.004109282799866266
-1.091430885419048,20.726801684682044,-1.1052655274533632,-15.384815699477826,-0.36195716193207117,-1.3169737470721334,0.00029593306930397967
-1.1294839429172652,15.842640188919923,-1.0800106772894487,-15.585642074998686,-0.3850241569382108,-1.2380684751190347,0.009336670829731542
-0.7732593931241469,11.312136139457623,-1.0563106848796522,-15.954490969359812,-0.42414565460244463,-1.4476331156286628,0.004116104919459991
-0.49480896154453674,7.30529329092459,-1.104771231781983,-17.02850035946081,-0.49163539232302605,-1.528915722190899,0.001929655046785028
-0.3246846941383361,3.678229343484352,-0.8694286372614326,-18.608767465557612,-0.5686794218171007,-1.6332788781554235,-0.002613295570378756
-0.15499062660583904,0.8803376167246773,-0.7140373698381257,-20.233084879388926,-0.6950411353470087,-1.8637332631860208,0.0014740508365645372
-0.08746783636097644,-1.19931665134098,-0.6634589504604134,-21.62595674076535,-0.7353476229209222,-1.9712765498320395,-0.008320316688512493
-0.35440986709967714,-2.6052016352916967,-0.7455100720693668,-22.48275668485759,-0.8133862919229238,-2.1149960065478957,-0.003537692775327334
-0.7886955388351912,-3.471981981985865,-1.1170281165301819,-22.802908854007185,-0.7976149325064722,-2.106760195471384,-0.00825456207334201
-1.3466597077966316,-3.182200817847936,-1.4924104601246477,-21.95739487251243,-0.657310073157835,-2.1029256127327374,-0.0021901066888405443
-2.1721559807903175,-2.4853197409097514,-2.431216942068479,-21.17479292860749,-0.6800010293245855,-2.0045733703839077,0.019962194737477814
-2.8476616604825553,-0.857458425673795,-3.4596096033282735,-19.94310756067812,-0.5437658661161843,-1.8589683110736306,0.0250227535297656
-3.562916132016201,1.9292748242399833,-4.4709087694706975,-18.44942796803204,-0.5042279209927153,-1.7834449128022045,0.02646968414087079
-3.902478216504298,5.830791003278119,-5.216772253678339,-17.002973476324083,-0.33450162211373613,-1.6230363997017445,0.020595520059888597
-3.902478216504298,5.830791003278119,-5.216772253678339,-17.002973476324083,-0.33450162211373613,-1.6230363997017445,0.020595520059888597
-4.055683459520803,10.460651010641444,-5.464558812759459,-15.885070245352221,-0.26667506448588263,-1.5593668049271663,0.04538734711032308
-3.9056899503682323,15.5861853674489,-5.227363216950413,-15.111376687625134,-0.21136950541573934,-1.5117803770175895,0.03696980878247712
-3.3038438611117593,20.612453150029857,-4.5815498446101355,-14.526111269899726,-0.15978555676165684,-1.571974776550655,0.023243365236070332
-2.585987250543362,25.22296168590276,-3.455760593572974,-14.487745315356813,-0.22051456603957792,-1.5876412575843903,0.029780407598387182
-1.7650165022698885,28.98979864208981,-2.3664991135733673,-14.374353189377914,-0.24721775542849878,-1.600027969617383,0.015364935132547308
-0.9663351730422441,31.18003976200194,-1.410819084041328,-14.597955000734897,-0.2422845563617922,-1.6045932555952191,0.00891991579165851
-0.3856472096673405,32.56742696468878,-0.49777815867580905,-14.328866008692078,-0.24532942096369653,-1.4773774852135115,-0.002759985013744863
0.09416595661728455,32.39835067267645,-0.13874939401775843,-13.718458814053044,-0.3098609954404643,-1.5281542278843223,-0.0022649500892079387
0.3704529058630476,30.253773560903735,0.15187386494132787,-13.688781352479756,-0.3374666415130595,-1.4780180982703661,-0.0004973406904864512
0.6158861986009412,27.541192745301068,0.3566572326341034,-13.107021169559754,-0.28530134799028445,-1.4112642351252058,-0.019523902827221253
0.6857915925836698,23.797330470221347,0.5355843654199228,-13.077743982585813,-0.36690047566573164,-1.3589585413651333,-0.010507200913842354
0.7487559347985624,19.69935609770366,0.6740864569888468,-13.63437550849084,-0.40473949045566204,-1.3773238731656425,-0.008522085228394819
0.8539399961748749,15.644155233741268,0.8546337849381799,-14.391854495296421,-0.4147555769639404,-1.441168806113652,-0.018506943720379095
0.6610877925671678,11.606050052595982,1.2107313577892638,-16.06978604573681,-0.4722169177490669,-1.4696617863342374,-0.012440910298461236
0.5531261233988304,8.269164310221317,1.279207491008858,-17.935854759652308,-0.542732599491206,-1.660264854933308,-0.0032832521341852935
0.3451200181107313,5.578023891174326,1.494344248880651,-19.815859021678353,-0.5997935242734115,-1.8739421551366775,0.016216782778659816
0.4661087235878871,3.133822852328182,1.6504984950968162,-21.649651211087146,-0.6068685839805411,-2.0429393492653865,0.01296923860487515
0.6924521078353769,1.466667914618515,2.016561656321555,-22.78392402625518,-0.648895842518961,-2.1871106394854287,0.028656018596031705
1.290823238283377,0.10555317544453058,2.5249644600256365,-23.423709898667262,-0.680983435529566,-2.226664079455969,0.01203805050914057
2.026125917785751,-0.6234448948763839,3.26105286913442,-23.228498360748052,-0.760351706621532,-2.231822563689889,0.010120637168946775
2.915700353118289,-0.7740594920691865,4.154877933060372,-22.45161775547463,-0.7567074868774517,-2.0970073307369277,-0.004727386457499929
3.742886202494217,-0.09674856436691914,5.16053915326639,-21.205193109156276,-0.7679812578884868,-1.987364599426822,0.008267678759457005
4.3007902549700265,1.703386584351003,5.956159794494218,-19.649130466506243,-0.7897128899160188,-1.7873766948676026,-0.0320443706959173
4.532620774276346,4.52580204522348,6.470620980118818,-18.190674818507386,-0.7812454434156847,-1.6570641751340727,-0.029232268833302086
4.420585253389862,8.275887421801546,6.50217262191747,-17.09511257956374,-0.6951258115403138,-1.5161481080865427,-0.025534886648356812
4.049548488525249,12.766916167798675,5.761209610045411,-16.419441977923846,-0.6438219822792235,-1.4949776348833543,-0.02077000758535489
3.110376726017511,17.2214773111509,4.787866240846822,-16.537735226697915,-0.5450275915299967,-1.3808225888790822,-0.0384632947928183
2.0813749839288715,22.123569050013145,3.4854424194967115,-16.59231905227387,-0.48252028623308935,-1.356787003843206,-0.020355431495328154
1.1487867817161146,26.182177634784573,2.0587961594464104,-16.754571330323802,-0.49120412547079834,-1.4642653548462814,-0.012360523334644737
0.1905850229661853,29.12621801721446,1.0223775524504934,-17.06028108705763,-0.4587854871851863,-1.4116085789087343,-0.0016454591111840318
-0.3182673689143357,30.579566252371432,0.06775659789839888,-17.083792016339295,-0.40184473221454886,-1.467111574850178,-0.00750953655375239
-0.7581004739899383,30.3741751333326,-0.46821911770005464,-17.11112712753528,-0.45294877829196045,-1.4117418380730677,-0.0008538606665962761
-1.0167334108159458,28.661077569712415,-0.6945482626359818,-16.849581692560495,-0.3900549796387642,-1.2417966806467466,0.002821552791677664
-0.8635976167799925,25.74927099107004,-1.0637565538717668,-16.156593100567537,-0.3886155892471449,-1.2494809645408316,-0.002822452749296758
-0.9798808611869002,21.51710451923004,-1.08329337806406,-15.833147241942134,-0.40709984666485,-1.1396342898437843,0.008054836900693104
-0.7122705307214628,16.698011925635104,-1.3082873725441404,-15.39405316806807,-0.4128606853510484,-1.2345730632878045,-0.001987630006368077
-0.6133792406868933,11.675475353740406,-1.3382888132612825,-15.56122742465464,-0.42189213076984206,-1.2715939455734875,-0.0026855454502759286
-0.47691681917804457,6.892926687078612,-1.3989146717361955,-16.137927573575055,-0.46153189095792085,-1.3936002016582236,-0.002702547538720452
-0.3700061466843011,2.4721146722543814,-1.478341935259067,-17.110407764586363,-0.5218615494157549,-1.5664184340971212,-0.005277365925157124
-0.42736160314018634,-1.5145488368603661,-1.7190650308046438,-18.465253782072306,-0.6423592270643178,-1.6673809172860694,0.0030246809506543865
-0.543422033040937,-4.509306434360542,-1.8374627316278433,-19.46785711244034,-0.7417348901416134,-1.8804870301109629,0.003450395871070138
-0.805429731308921,-6.822326478477354,-2.0602094081285167,-20.21547718402982,-0.7495229156892864,-1.92470798394353,0.0024012868033855754
-0.805429731308921,-6.822326478477354,-2.0602094081285167,-20.21547718402982,-0.7495229156892864,-1.92470798394353,0.0024012868033855754
-1.341328548720943,-8.671946556169841,-2.4805129354827518,-20.454387491941436,-0.8194748782058754,-2.0709831057805608,-9.824292405886297e-05
-1.8687838318266206,-9.308614365503434,-2.8894738691460584,-19.887437601990293,-0.6974641218782139,-2.021973629738496,-0.001272002716830246
-2.4511520592042255,-9.526936285811647,-3.9289700309415347,-19.186224559014274,-0.7465178707684715,-1.9571230387644623,0.008544742048185248
-3.275936952225591,-8.769680650089816,-4.94958993444161,-18.347585548595916,-0.7668718807381618,-1.849871760870961,0.021709593073939343
-3.7115211631338796,-6.734584269687861,-5.9090903549731255,-17.36074956031714,-0.7048080855630849,-1.714921998215245,0.024946378004042084
-3.9814436071320847,-3.485145429659782,-6.659843211030236,-16.5348148372646,-0.6867256856512384,-1.6207207783971693,0.031354133667276705
-3.971198193975789,0.8007373792231552,-7.088385258438886,-16.088748747785665,-0.6302838624259204,-1.5241334827412203,0.01909281780169788
-3.538047893270161,5.902213188263906,-7.079774534146767,-15.920873937361899,-0.5424371864432571,-1.4654006923811946,0.02354186847551776
-3.1532887551233446,11.30220589705312,-6.262856101090158,-16.470204378409722,-0.5188266326612021,-1.3693492449155156,0.03770128734082412
-2.361129459204263,17.425925219897316,-5.347558692957724,-16.62127186555758,-0.47394527547539794,-1.4277832588567787,0.019726719813960954
-1.6255830200039423,22.620438835476858,-3.9760425159056823,-17.36339033362229,-0.48710352912591004,-1.35816871619892,0.018632560592454182
-0.7801639396131629,27.178572980608944,-2.798721463754855,-17.590734705202646,-0.5039312774212388,-1.47325039957074,0.006634068567652054
-0.07056912053878737,29.946298279737704,-1.829838262348551,-17.958248590091326,-0.4649819831668781,-1.484719444324061,-0.0015303700896414072
0.28476376043652185,31.175737080643596,-0.9470491799309524,-18.103721196929342,-0.46849860454445713,-1.3756248533975775,0.004875160520377642
0.5609079995947549,30.88934506557286,-0.6020798222702384,-17.454155604606633,-0.4846409748192788,-1.4616633207195848,-0.00319164736054191
0.7323058642814715,28.95278218641497,-0.43876257745202296,-16.751050972829155,-0.4198992920627909,-1.399783217096363,-0.014797721208114206
0.6131044396118897,25.452535724888136,-0.19338704080881935,-16.407394575203988,-0.42599073548638844,-1.2440456029814213,-0.00033149217821623394
0.640601067536393,21.318904756871564,-0.17888639600012488,-15.756645236422727,-0.4615103934090981,-1.328220229374216,-0.01038689634501375
0.5218707353700123,16.542921030547532,0.018957311300085544,-15.732771018997108,-0.5010220219604788,-1.2970855936751613,-0.001294416700623678
0.6450535000044905,11.8811327598101,0.21210199035193034,-16.10759442943902,-0.5176572284581886,-1.394729055124036,-0.013200109389248262
0.5664056095491343,7.479670167458152,0.5713450515654013,-17.27077006448367,-0.5638613032267737,-1.457855966678384,-0.008401382344805178
0.5929290422850207,4.146548670815774,0.6978313473996293,-18.397609639212252,-0.5993533028494551,-1.6795551632867791,-0.006221407328136553
0.3421472722383695,1.0828192943388706,1.0253392964397592,-20.10653333129202,-0.66512652303136,-1.8319857542386353,0.009986315633635353
0.4079656227237679,-0.9589089607661501,1.2066553542432088,-21.416129149905892,-0.6639750445632601,-1.9396294271453631,0.007702952882950834
0.5368740867109505,-1.9901499756879277,1.4448656999557077,-21.967014346727996,-0.7130433626829633,-2.039128248115147,0.008757331151712693
1.0797228402292567,-3.353918809005289,1.890315896656803,-22.72745701727222,-0.6991359478685931,-2.0840504508772653,0.006826965626091661
1.687895723811439,-3.500337232481218,2.4280755138557004,-22.429439297558847,-0.7315444156625992,-2.0944715577988715,0.015474201054473904
2.4660858499365124,-3.0033686929322774,3.124657335055924,-21.786845122059276,-0.7110106254306667,-1.9864808756433308,0.0029569180188648674
3.062161945020017,-1.1776535812121398,3.8327546591461106,-20.408386673806522,-0.7678781634330312,-1.8813511926093986,-0.0037457717008030538
3.655382229619722,1.4868549971343186,4.554732514552266,-19.074338706618402,-0.7336969422815852,-1.7193329260351753,-0.02013213631455124
3.8930009258561764,5.350860565733686,5.0230678378852165,-17.576566614601962,-0.7646259710659121,-1.6260707907082956,-0.0294278640671513
4.149670876004743,10.046760553167282,5.023034573802643,-16.27690701036042,-0.6886598186153992,-1.5755513956744727,-0.031067899861761547
3.8990174881070425,15.161080422128594,4.614777677820276,-15.500487156082704,-0.6248833376938839,-1.538761847610985,-0.031265174645598
3.1806051945691776,20.52483653363754,4.053349912113324,-15.028759420062695,-0.5659487642237849,-1.4869829317884853,-0.02211745718790635
2.4406465007505282,25.18543786762477,3.0838219524290693,-15.002708513366745,-0.44508076313098566,-1.4802620207299815,-0.024767929642914077
1.607381922981791,29.305477866580972,2.0400127484800286,-14.881398173754008,-0.3658154566635681,-1.5075344623566367,-0.015644168836449198
0.8683274369538968,32.082385521790755,0.9824222123201984,-14.59736730217002,-0.3803768356819642,-1.6228105955525147,0.0013318193340177715
0.1455076647367101,33.35108311046828,0.35679569879685313,-14.470791126023968,-0.2531006682524936,-1.4971618389781602,-0.006212062084316806
-0.2597446858768091,33.05390123849143,-0.4033015514224171,-14.070059333508793,-0.24716406823389864,-1.5295849559947639,-0.003511005729560319
-0.7641823773238,31.48430411980399,-0.6324663167739432,-13.529001637690653,-0.24070974713753535,-1.4288108735711837,0.0022731224235180247
-0.9275978535395425,28.69994415810458,-1.1033745557326395,-12.972214864161463,-0.19124867234436685,-1.4305429118122177,0.0030392281609164166
-1.1289252023311602,25.07976546926887,-1.3643509929106936,-12.811615360593613,-0.2371784474171691,-1.3585618442880276,0.012717996312725424
-1.1625334134663081,20.992149083679585,-1.5655363282569545,-13.084547943248557,-0.2541995335598859,-1.340419987765339,0.010562608542470263
-1.1625334134663081,20.992149083679585,-1.5655363282569545,-13.084547943248557,-0.2541995335598859,-1.340419987765339,0.010562608542470263
-0.9772544095738457,16.853060124566838,-1.6606777399048165,-13.891275590832914,-0.26626465659525156,-1.4103269948544042,0.00020738027116949643
-0.7789955743954009,12.867460024946567,-1.523144955973083,-15.148401172909553,-0.30934037894782634,-1.4883903025070089,0.0011769695196900854
-0.40810485639451843,9.41225687044011,-1.3529991217580748,-16.846777048468585,-0.41452544426269244,-1.649802075784685,-0.005768428179606785
-0.2271163324092575,6.309315528592631,-1.315643478307406,-19.035529906627577,-0.5850956929762093,-1.7765841179214257,-0.007624410441105315
0.09386110441449383,3.8827305017286475,-1.3080558977502315,-20.727939596444198,-0.7107173682846601,-2.0356299398677424,-0.011879438116521316
-0.03654184472013884,2.1939605739027805,-1.0977000547676354,-21.93082324161973,-0.6859617050054916,-2.1786485029746228,-0.017755430070386276
-0.5012394122087916,0.38027191074757416,-1.6916697005407504,-23.055833172001556,-0.8176835404326759,-2.282224253279913,-0.009989993991110798
-1.4115246972923652,-0.5570471199739377,-2.196241278564808,-23.155223282121387,-0.7871175492540035,-2.2634675027193523,0.006672760478681539
-2.2801076688044186,-1.136202850283518,-3.16971279450782,-22.67704035083491,-0.7191152769092122,-2.173819053361054,0.006382528437704668
-3.0887135533551517,-0.5219063204238698,-4.26008080343234,-21.198001744922227,-0.5851254731254039,-2.033416984339858,0.028104287203698616
-3.9789967886444586,0.6682342330683942,-5.44377785636989,-19.737817874757603,-0.564780278945747,-1.943854541610186,0.0333357841905894
-4.16091454568833,3.1421775740437594,-6.456622790577864,-17.989644993473295,-0.406949124858735,-1.79490096336454,0.04489184491066311
-4.576697582535911,6.43590669707588,-6.791794228717858,-16.914519376857367,-0.3744363786373529,-1.623916526749811,0.03920590728809567
-4.2955235831599765,10.406327480142641,-6.589061113929482,-16.286736126252126,-0.3574073844363536,-1.4999451982171428,0.03675067197749116
-3.638003053431811,14.772065440754512,-5.809311268639325,-16.051327352030167,-0.3382803243329491,-1.424054700484825,0.04005011418171616
-2.637455290868245,19.88950729808883,-4.749454975406115,-15.806861295815553,-0.3455238592274965,-1.4614394829768875,0.007356378610214771
-1.7236746366017177,23.858005998445826,-3.277774288557811,-16.46598042935816,-0.3944100234049528,-1.3621151799136633,0.020204194266197448
-0.7598144025283046,27.14240294792229,-2.12054740964661,-16.765388098080482,-0.4576124045694512,-1.4666662461090572,0.011728250648059758
0.04663940296199091,29.394199812583224,-1.2031167677455736,-16.946379753860022,-0.42634309954220745,-1.4382443632328124,-0.006799454246303073
0.452848882834515,29.978939376376747,-0.5173312523073983,-16.98851643161474,-0.48306045773248507,-1.4167754179920637,-0.00603094468190111
0.7222167972896362,28.90823803315592,-0.23685329191215573,-16.772153383217947,-0.4360469452966636,-1.3617852636653802,-0.01649377858311913
0.6709201053398299,26.326348898261653,-0.06971002706049287,-16.33042228990487,-0.47797954965025985,-1.3196165515238067,-0.017637939875360453
0.6698473371112268,22.536091708020823,-0.027553985302243608,-15.926278492525173,-0.43540791504158766,-1.259150275686932,-0.01952241138828625
0.6425128334791276,17.96843473287937,0.04128519636422195,-15.695297860273163,-0.4561418502074326,-1.2142027391514647,-0.01855377661868072
0.4276687068074626,12.832913114151689,0.38676402573203794,-15.889723538242146,-0.4921884171845248,-1.1775525475678834,-0.010927769797939973
0.352343809712176,7.982475919869245,0.7290485184360844,-16.321082985470778,-0.5295855674875468,-1.2742771134761697,-0.006157189027829796
0.357825337625098,3.3337660297390026,1.1511205694551367,-17.241890949737382,-0.5621158522784249,-1.4289707951307171,-0.003346002446219836
0.4077942357664362,-0.4883763425316074,1.5654654705341577,-18.27783655240317,-0.6461824973562231,-1.6478277191128872,0.006034780829182375
0.5830156816049823,-3.617458318524279,2.035023822847812,-19.311797145219902,-0.6488151265341046,-1.7512189658276318,0.005975360343360428
0.8815535774808512,-6.266007516693859,2.5833429012442215,-20.05606521222106,-0.6907951122893767,-1.9423156466236953,0.015613408862053773
1.4128284732753118,-8.35825599886582,3.2428693065416807,-20.489858914176445,-0.6577510669327179,-1.9850705927167291,0.015457419328920877
2.0059974305177475,-9.243712202750952,3.915516563570378,-20.14068786374716,-0.6892841203330031,-1.9968549829729179,0.011611975950415339
2.75651347868518,-9.707147690488231,4.77602478239292,-19.666914023262834,-0.6179255575793161,-1.9307449779718968,0.012230514407553877
3.3984536134861414,-8.819724890995616,5.576747931313902,-18.6889499538884,-0.6313410089219127,-1.8596002681239137,0.008257182807787007
3.901545061843068,-6.868831716588246,6.3122414916393055,-17.82121309585878,-0.5713523309456946,-1.68489286602524,-0.004537217914324535
4.130585697068006,-3.632179350909704,6.796571968019961,-16.976313913345663,-0.5757564937950543,-1.6007450158116328,-0.0008698981246214813
4.10508320773678,0.6106296434575126,6.867924808534684,-16.553681764516185,-0.5678578833588083,-1.420848970803955,-0.030828738775997157
3.7792671438696854,5.751547730664063,6.557787109267366,-16.432144654244787,-0.5408957912109128,-1.354034951580578,-0.03243457969955529
3.358774482068231,11.506657726224905,5.72562683347522,-16.419260321810793,-0.5065879179027406,-1.4469544095013986,-0.032932404103668905
3.358774482068231,11.506657726224905,5.72562683347522,-16.419260321810793,-0.5065879179027406,-1.4469544095013986,-0.032932404103668905
2.5322657908484887,17.320817814832544,4.569147749231819,-17.0037770479696,-0.547820117299937,-1.4248665345677587,-0.024358398491625514
1.6564955065667644,22.79433022081391,3.276072241093329,-17.553542179711563,-0.5338944640791364,-1.4394183169446149,-0.02096574432655068
0.8526311692992206,27.534595716648777,1.9941451080993684,-17.835594391162687,-0.47168650897351544,-1.5064973632489624,-0.016534524325393
-0.046592239948296005,30.4660570337675,1.0907488227166058,-18.526177752115103,-0.45029218928999787,-1.3916626964836987,-0.008200554073850605
-0.4431166424140566,32.14636817361999,0.0865080324677503,-18.205114106433864,-0.4335382515205581,-1.459301989847293,-0.011742127152286915
-0.9472557875734655,31.60800542781755,-0.27598902832135086,-18.170288238262987,-0.46373248115879284,-1.408041023408189,-0.004507341891364626
-1.0431818543230424,30.181648334223834,-0.7544994205151939,-16.8784356425964,-0.39115457637011664,-1.4126687160490736,-0.0038786501152049463
-1.1549215516144848,26.672467027622144,-0.9375835753406314,-16.653114428864058,-0.4422639706554938,-1.3715863090823557,-0.0008095134932780271
-1.2367333378971206,22.559275437054836,-0.9791959962628359,-15.832867319450369,-0.3721592382343884,-1.2130719601731543,0.0064718750445587545
-1.0684065577605386,17.9532795761564,-1.1778509015100085,-15.40211552697081,-0.4193904847543213,-1.318274294411701,0.00859030453336312
-0.8510076958141198,13.178318274898599,-1.1999485169002504,-15.616695206349085,-0.39936815043964635,-1.378579080426412,0.003107206652427836
